; generated by Slic3r Prusa Edition 1.39.0 on 2018-12-22 at 05:56:13

; 

; external perimeters extrusion width = 0.40mm
; perimeters extrusion width = 0.40mm
; infill extrusion width = 0.40mm
; solid infill extrusion width = 0.40mm
; top infill extrusion width = 0.40mm
; first layer extrusion width = 0.50mm

M190 S60 ; set bed temperature and wait for it to be reached
M104 S215 ; set temperature
G28
;G29
G1 X0 F2000
G1 Y0 F2000
G92 E0
G1 E20 F400
G92 E0
; Filament gcode
M109 S215 ; set temperature and wait for it to be reached
G21 ; set units to millimeters
G90 ; use absolute coordinates
M82 ; use absolute distances for extrusion
G92 E0
M106 S229.5
G1 E-1.00000 F3000.00000
G92 E0
G1 Z0.010 F6000.000
G1 Z0.200 F6000.000
G1 Z0.210 F6000.000
G1 X32.625 Y83.626 F6000.000
G1 Z0.200 F6000.000
G1 E1.00000 F3000.00000
M204 S900
G1 F1200
G1 X33.997 Y83.097 E1.05589
G1 X35.423 Y82.768 E1.11149
G1 X36.920 Y82.642 E1.16859
G1 X147.437 Y82.690 E5.36894
G1 X171.979 Y83.225 E6.30193
G1 X173.574 Y83.416 E6.36295
G1 X175.127 Y83.854 E6.42428
G1 X176.411 Y84.428 E6.47776
G1 X177.613 Y85.175 E6.53154
G1 X178.702 Y86.079 E6.58532
G1 X179.657 Y87.123 E6.63911
G1 X180.462 Y88.287 E6.69289
G1 X181.100 Y89.550 E6.74667
G1 X181.561 Y90.888 E6.80045
G1 X181.835 Y92.276 E6.85424
G1 X181.918 Y93.562 E6.90319
G1 X181.917 Y128.731 E8.23984
G1 X181.746 Y130.471 E8.30629
G1 X181.282 Y132.164 E8.37304
G1 X180.652 Y133.554 E8.43104
G1 X179.819 Y134.843 E8.48935
G1 X178.812 Y135.989 E8.54736
G1 X177.647 Y136.975 E8.60536
G1 X176.350 Y137.780 E8.66337
G1 X174.941 Y138.388 E8.72167
G1 X173.458 Y138.781 E8.77998
G1 X171.942 Y138.951 E8.83799
G1 X124.594 Y139.930 E10.63787
G1 X71.926 Y140.357 E12.63967
G1 X62.155 Y140.357 E13.01103
G1 X36.100 Y138.341 E14.00422
G1 X34.757 Y138.130 E14.05589
G1 X33.454 Y137.745 E14.10756
G1 X32.346 Y137.262 E14.15350
G1 X31.295 Y136.649 E14.19974
G1 X30.323 Y135.917 E14.24597
G1 X29.443 Y135.077 E14.29221
G1 X28.673 Y134.145 E14.33815
G1 X28.012 Y133.124 E14.38439
G1 X27.476 Y132.032 E14.43063
G1 X27.073 Y130.892 E14.47656
G1 X23.531 Y118.240 E14.97593
G1 X23.252 Y116.852 E15.02971
G1 X23.166 Y115.591 E15.07776
G1 X23.167 Y105.361 E15.46655
G1 X23.246 Y104.227 E15.50977
G1 X23.450 Y103.100 E15.55329
G1 X27.329 Y89.362 E16.09585
G1 X27.846 Y88.208 E16.14390
G1 X28.503 Y87.119 E16.19225
G1 X29.283 Y86.124 E16.24030
G1 X30.179 Y85.232 E16.28835
G1 X31.342 Y84.345 E16.34394
G1 X32.573 Y83.656 E16.39756
M204 S1000
G1 X32.796 Y84.055 F6000.000
M204 S900
G1 F1200
G1 X34.154 Y83.527 E16.45294
G1 X35.533 Y83.213 E16.50671
G1 X36.935 Y83.099 E16.56017
G1 X147.427 Y83.147 E20.75954
G1 X171.949 Y83.682 E21.69177
G1 X173.462 Y83.860 E21.74966
G1 X174.937 Y84.271 E21.80785
G1 X176.180 Y84.822 E21.85954
G1 X177.336 Y85.539 E21.91124
G1 X178.383 Y86.407 E21.96294
G1 X179.302 Y87.411 E22.01464
G1 X180.074 Y88.530 E22.06633
G1 X180.686 Y89.745 E22.11803
G1 X181.126 Y91.032 E22.16973
G1 X181.386 Y92.367 E22.22143
G1 X181.461 Y93.570 E22.26722
G1 X181.460 Y128.720 E23.60314
G1 X181.299 Y130.375 E23.66634
G1 X180.863 Y131.979 E23.72953
G1 X180.263 Y133.312 E23.78506
G1 X179.470 Y134.548 E23.84089
G1 X178.502 Y135.653 E23.89671
G1 X177.382 Y136.603 E23.95254
G1 X176.134 Y137.377 E24.00837
G1 X174.785 Y137.958 E24.06419
G1 X173.372 Y138.332 E24.11972
G1 X171.912 Y138.495 E24.17555
G1 X124.587 Y139.473 E25.97461
G1 X71.915 Y139.900 E27.97655
G1 X62.157 Y139.899 E28.34741
G1 X36.147 Y137.887 E29.33891
G1 X34.879 Y137.689 E29.38766
G1 X33.641 Y137.327 E29.43670
G1 X32.571 Y136.864 E29.48102
G1 X31.562 Y136.278 E29.52535
G1 X30.624 Y135.573 E29.56996
G1 X29.780 Y134.768 E29.61428
G1 X29.037 Y133.869 E29.65861
G1 X28.405 Y132.889 E29.70293
G1 X27.892 Y131.842 E29.74725
G1 X27.503 Y130.734 E29.79186
G1 X23.971 Y118.118 E30.28978
G1 X23.707 Y116.800 E30.34089
G1 X23.623 Y115.582 E30.38728
G1 X23.624 Y105.372 E30.77531
G1 X23.700 Y104.279 E30.81697
G1 X23.896 Y103.200 E30.85864
G1 X27.748 Y89.548 E31.39776
G1 X28.240 Y88.440 E31.44385
G1 X28.864 Y87.400 E31.48994
G1 X29.611 Y86.444 E31.53604
G1 X30.474 Y85.581 E31.58242
G1 X31.598 Y84.723 E31.63619
G1 X32.743 Y84.084 E31.68603
M204 S1000
G1 X32.966 Y84.483 F6000.000
M204 S900
G1 F1200
G1 X34.307 Y83.958 E31.74078
G1 X35.633 Y83.660 E31.79243
G1 X36.950 Y83.556 E31.84263
G1 X147.417 Y83.604 E36.04108
G1 X171.920 Y84.138 E36.97256
G1 X173.360 Y84.306 E37.02766
G1 X174.757 Y84.692 E37.08276
G1 X175.945 Y85.215 E37.13209
G1 X177.056 Y85.901 E37.18172
G1 X178.063 Y86.733 E37.23135
G1 X178.945 Y87.696 E37.28097
G1 X179.686 Y88.771 E37.33060
G1 X180.272 Y89.938 E37.38022
G1 X180.691 Y91.174 E37.42985
G1 X180.936 Y92.457 E37.47947
G1 X181.004 Y93.571 E37.52190
G1 X181.003 Y128.709 E38.85738
G1 X180.853 Y130.273 E38.91708
G1 X180.443 Y131.797 E38.97707
G1 X179.870 Y133.079 E39.03044
G1 X179.113 Y134.262 E39.08381
G1 X178.189 Y135.319 E39.13718
G1 X177.119 Y136.229 E39.19055
G1 X175.926 Y136.970 E39.24392
G1 X174.637 Y137.526 E39.29729
G1 X173.272 Y137.886 E39.35095
G1 X171.876 Y138.039 E39.40432
G1 X124.579 Y139.016 E41.20228
G1 X71.919 Y139.443 E43.20377
G1 X62.166 Y139.442 E43.57443
G1 X36.193 Y137.432 E44.56454
G1 X35.000 Y137.248 E44.61042
G1 X33.833 Y136.910 E44.65659
G1 X32.807 Y136.471 E44.69901
G1 X31.833 Y135.909 E44.74172
G1 X30.933 Y135.236 E44.78443
G1 X30.119 Y134.461 E44.82714
G1 X29.408 Y133.601 E44.86956
G1 X28.799 Y132.657 E44.91227
G1 X28.306 Y131.647 E44.95498
G1 X27.937 Y130.586 E44.99769
G1 X24.414 Y118.004 E45.49428
G1 X24.160 Y116.746 E45.54304
G1 X24.080 Y115.580 E45.58748
G1 X24.080 Y105.391 E45.97471
G1 X24.152 Y104.345 E46.01454
G1 X24.340 Y103.307 E46.05466
G1 X28.167 Y89.733 E46.59066
G1 X28.636 Y88.670 E46.63481
G1 X29.231 Y87.673 E46.67896
G1 X29.945 Y86.756 E46.72311
G1 X30.766 Y85.934 E46.76726
G1 X31.851 Y85.104 E46.81919
G1 X32.913 Y84.512 E46.86541
M204 S1000
G1 E45.86541 F3000.00000
G92 E0
G1 Z0.210 F6000.000
G1 X89.880 Y95.692 F6000.000
G1 Z0.200 F6000.000
G1 E1.00000 F3000.00000
M204 S900
G1 F900
G1 X97.159 Y95.692 E1.27666
G1 X97.159 Y105.363 E1.64424
G1 X93.659 Y105.363 E1.77726
G1 X93.659 Y118.692 E2.28382
G1 X97.159 Y118.692 E2.41684
G1 X97.159 Y128.363 E2.78443
G1 X89.880 Y128.363 E3.06109
G1 X89.880 Y115.863 E3.53616
G1 X86.380 Y115.863 E3.66919
G1 X86.380 Y108.192 E3.96076
G1 X89.880 Y108.192 E4.09378
G1 X89.880 Y95.752 E4.56658
M204 S1000
G1 E3.56658 F3000.00000
G92 E0
G1 Z0.210 F6000.000
G1 X94.116 Y105.821 F6000.000
G1 Z0.200 F6000.000
G1 E1.00000 F3000.00000
M204 S900
G1 F900
G1 X94.116 Y118.235 E1.47182
G1 X97.616 Y118.235 E1.60484
G1 X97.616 Y128.821 E2.00717
G1 X89.423 Y128.821 E2.31857
G1 X89.423 Y116.321 E2.79365
G1 X85.923 Y116.321 E2.92667
G1 X85.923 Y107.735 E3.25298
G1 X89.423 Y107.735 E3.38601
G1 X89.423 Y95.235 E3.86109
G1 X97.616 Y95.235 E4.17248
G1 X97.616 Y105.821 E4.57481
G1 X94.176 Y105.821 E4.70555
M204 S1000
G1 E3.70555 F3000.00000
G92 E0
G1 Z0.210 F6000.000
G1 X94.573 Y106.278 F6000.000
G1 Z0.200 F6000.000
G1 E1.00000 F3000.00000
M204 S900
G1 F450
G1 X94.573 Y117.778 E1.43707
G1 X98.073 Y117.778 E1.57009
G1 X98.073 Y129.278 E2.00717
G1 X88.966 Y129.278 E2.35331
G1 X88.966 Y116.778 E2.82839
G1 X85.466 Y116.778 E2.96141
G1 X85.466 Y107.278 E3.32247
G1 X88.966 Y107.278 E3.45549
G1 X88.966 Y94.778 E3.93057
G1 X98.073 Y94.778 E4.27672
G1 X98.073 Y106.278 E4.71379
G1 X94.633 Y106.278 E4.84453
M204 S1000
G1 X94.209 Y106.443 F6000.000
G1 E3.84453 F3000.00000
G92 E0
G1 Z0.210 F6000.000
G1 X96.995 Y96.795 F6000.000
G1 Z0.200 F6000.000
G1 E1.00000 F3000.00000
M204 S900
G1 F750
G1 X96.261 Y96.062 E1.04002
G1 X95.605 Y96.062 E1.06536
G1 X96.789 Y97.246 E1.12998
G1 X96.789 Y97.902 E1.15531
G1 X94.948 Y96.062 E1.25576
G1 X94.292 Y96.062 E1.28109
G1 X96.789 Y98.559 E1.41737
G1 X96.789 Y99.215 E1.44270
G1 X93.636 Y96.062 E1.61480
G1 X92.979 Y96.062 E1.64014
G1 X96.789 Y99.872 E1.84806
G1 X96.789 Y100.528 E1.87340
G1 X92.323 Y96.062 E2.11715
G1 X91.666 Y96.062 E2.14249
G1 X96.789 Y101.184 E2.42207
G1 X96.789 Y101.841 E2.44740
G1 X91.010 Y96.062 E2.76281
G1 X90.354 Y96.062 E2.78814
G1 X96.789 Y102.497 E3.13937
G1 X96.789 Y103.154 E3.16471
G1 X90.250 Y96.615 E3.52159
G1 X90.250 Y97.271 E3.54693
G1 X96.789 Y103.810 E3.90381
G1 X96.789 Y104.466 E3.92914
G1 X90.250 Y97.928 E4.28603
G1 X90.250 Y98.584 E4.31136
G1 X96.659 Y104.993 E4.66118
G1 X96.003 Y104.993 E4.68651
G1 X90.250 Y99.240 E5.00050
G1 X90.250 Y99.897 E5.02583
G1 X95.347 Y104.993 E5.30399
G1 X94.690 Y104.993 E5.32933
G1 X90.250 Y100.553 E5.57166
G1 X90.250 Y101.210 E5.59699
G1 X94.034 Y104.993 E5.80350
G1 X93.377 Y104.993 E5.82884
G1 X90.250 Y101.866 E5.99952
G1 X90.250 Y102.522 E6.02485
G1 X93.289 Y105.561 E6.19071
G1 X93.289 Y106.218 E6.21604
G1 X90.250 Y103.179 E6.38189
G1 X90.250 Y103.835 E6.40723
G1 X93.289 Y106.874 E6.57308
G1 X93.289 Y107.530 E6.59842
G1 X90.250 Y104.492 E6.76427
G1 X90.250 Y105.148 E6.78960
G1 X93.289 Y108.187 E6.95546
G1 X93.289 Y108.843 E6.98079
G1 X90.250 Y105.804 E7.14665
G1 X90.250 Y106.461 E7.17198
G1 X93.289 Y109.500 E7.33784
G1 X93.289 Y110.156 E7.36317
G1 X90.250 Y107.117 E7.52903
G1 X90.250 Y107.774 E7.55436
G1 X93.289 Y110.812 E7.72021
G1 X93.289 Y111.469 E7.74555
G1 X90.250 Y108.430 E7.91140
G1 X90.250 Y108.562 E7.91649
G1 X89.726 Y108.562 E7.93674
G1 X93.289 Y112.125 E8.13122
G1 X93.289 Y112.782 E8.15655
G1 X89.069 Y108.562 E8.38686
G1 X88.413 Y108.562 E8.41219
G1 X93.289 Y113.438 E8.67833
G1 X93.289 Y114.094 E8.70366
G1 X87.756 Y108.562 E9.00562
G1 X87.100 Y108.562 E9.03095
G1 X93.289 Y114.751 E9.36874
G1 X93.289 Y115.407 E9.39407
G1 X86.750 Y108.868 E9.75096
G1 X86.750 Y109.525 E9.77629
G1 X93.289 Y116.064 E10.13318
G1 X93.289 Y116.720 E10.15851
G1 X86.750 Y110.181 E10.51540
G1 X86.750 Y110.838 E10.54073
G1 X93.289 Y117.376 E10.89762
G1 X93.289 Y118.033 E10.92295
G1 X86.750 Y111.494 E11.27983
G1 X86.750 Y112.150 E11.30517
G1 X96.789 Y122.189 E11.85308
G1 X96.789 Y121.533 E11.87842
G1 X94.318 Y119.062 E12.01327
G1 X94.974 Y119.062 E12.03861
G1 X96.789 Y120.876 E12.13764
G1 X96.789 Y120.220 E12.16297
G1 X95.631 Y119.062 E12.22618
G1 X96.287 Y119.062 E12.25151
G1 X96.995 Y119.769 E12.29012
M204 S1000
G1 E11.29012 F3000.00000
G92 E0
G1 Z0.210 F6000.000
G1 X96.995 Y123.051 F6000.000
G1 Z0.200 F6000.000
G1 E1.00000 F3000.00000
M204 S900
G1 F750
G1 X90.250 Y116.307 E1.36811
G1 X90.250 Y116.963 E1.39344
G1 X96.789 Y123.502 E1.75033
G1 X96.789 Y124.158 E1.77566
G1 X90.250 Y117.620 E2.13255
G1 X90.250 Y118.276 E2.15788
G1 X96.789 Y124.815 E2.51477
G1 X96.789 Y125.471 E2.54010
G1 X90.250 Y118.932 E2.89699
G1 X90.250 Y119.589 E2.92232
G1 X96.789 Y126.128 E3.27920
G1 X96.789 Y126.784 E3.30454
G1 X90.250 Y120.245 E3.66142
G1 X90.250 Y120.902 E3.68676
G1 X96.789 Y127.440 E4.04364
G1 X96.789 Y127.993 E4.06498
G1 X96.685 Y127.993 E4.06898
G1 X90.250 Y121.558 E4.42021
G1 X90.250 Y122.214 E4.44554
G1 X96.029 Y127.993 E4.76094
G1 X95.372 Y127.993 E4.78628
G1 X90.250 Y122.871 E5.06585
G1 X90.250 Y123.527 E5.09119
G1 X94.716 Y127.993 E5.33494
G1 X94.060 Y127.993 E5.36027
G1 X90.250 Y124.184 E5.56820
G1 X90.250 Y124.840 E5.59353
G1 X93.403 Y127.993 E5.76563
G1 X92.747 Y127.993 E5.79096
G1 X90.250 Y125.496 E5.92723
G1 X90.250 Y126.153 E5.95256
G1 X92.090 Y127.993 E6.05301
G1 X91.434 Y127.993 E6.07834
G1 X90.250 Y126.809 E6.14296
G1 X90.250 Y127.466 E6.16830
G1 X90.983 Y128.199 E6.20831
M204 S1000
G1 E5.20831 F3000.00000
G92 E0
G1 Z0.210 F6000.000
G1 X89.642 Y115.699 F6000.000
G1 Z0.200 F6000.000
G1 E1.00000 F3000.00000
M204 S900
G1 F750
G1 X86.750 Y112.807 E1.15785
G1 X86.750 Y113.463 E1.18318
G1 X88.780 Y115.493 E1.29398
G1 X88.124 Y115.493 E1.31931
G1 X86.750 Y114.120 E1.39428
G1 X86.750 Y114.776 E1.41961
G1 X87.467 Y115.493 E1.45875
G1 X86.811 Y115.493 E1.48409
G1 X86.544 Y115.227 E1.49863
M204 S1000
G1 E0.49863 F3000.00000
G92 E0
G1 Z0.210 F6000.000
G1 X119.796 Y105.395 F6000.000
G1 Z0.200 F6000.000
G1 E1.00000 F3000.00000
M204 S900
G1 F900
G1 X119.796 Y118.723 E1.50656
G1 X123.296 Y118.723 E1.63958
G1 X123.296 Y128.395 E2.00717
G1 X116.017 Y128.395 E2.28382
G1 X116.017 Y115.895 E2.75890
G1 X112.517 Y115.895 E2.89192
G1 X112.517 Y108.223 E3.18350
G1 X116.017 Y108.223 E3.31652
G1 X116.017 Y95.723 E3.79160
G1 X123.296 Y95.723 E4.06825
G1 X123.296 Y105.395 E4.43584
G1 X119.856 Y105.395 E4.56658
M204 S1000
G1 E3.56658 F3000.00000
G92 E0
G1 Z0.210 F6000.000
G1 X120.253 Y105.852 F6000.000
G1 Z0.200 F6000.000
G1 E1.00000 F3000.00000
M204 S900
G1 F900
G1 X120.253 Y118.266 E1.47182
G1 X123.753 Y118.266 E1.60484
G1 X123.753 Y128.852 E2.00717
G1 X115.560 Y128.852 E2.31857
G1 X115.560 Y116.352 E2.79365
G1 X112.060 Y116.352 E2.92667
G1 X112.060 Y107.766 E3.25298
G1 X115.560 Y107.766 E3.38601
G1 X115.560 Y95.266 E3.86109
G1 X123.753 Y95.266 E4.17248
G1 X123.753 Y105.852 E4.57481
G1 X120.313 Y105.852 E4.70555
M204 S1000
G1 E3.70555 F3000.00000
G92 E0
G1 Z0.210 F6000.000
G1 X120.710 Y106.309 F6000.000
G1 Z0.200 F6000.000
G1 E1.00000 F3000.00000
M204 S900
G1 F450
G1 X120.710 Y117.809 E1.43707
G1 X124.210 Y117.809 E1.57009
G1 X124.210 Y129.309 E2.00717
G1 X115.102 Y129.309 E2.35331
G1 X115.102 Y116.809 E2.82839
G1 X111.602 Y116.809 E2.96141
G1 X111.602 Y107.309 E3.32247
G1 X115.102 Y107.309 E3.45549
G1 X115.102 Y94.809 E3.93057
G1 X124.210 Y94.809 E4.27672
G1 X124.210 Y106.309 E4.71379
G1 X120.770 Y106.309 E4.84453
M204 S1000
G1 X120.346 Y106.474 F6000.000
G1 E3.84453 F3000.00000
G92 E0
G1 Z0.210 F6000.000
G1 X123.131 Y96.827 F6000.000
G1 Z0.200 F6000.000
G1 E1.00000 F3000.00000
M204 S900
G1 F750
G1 X122.398 Y96.094 E1.04002
G1 X121.742 Y96.094 E1.06536
G1 X122.926 Y97.278 E1.12998
G1 X122.926 Y97.934 E1.15531
G1 X121.085 Y96.094 E1.25576
G1 X120.429 Y96.094 E1.28109
G1 X122.926 Y98.591 E1.41737
G1 X122.926 Y99.247 E1.44270
G1 X119.772 Y96.094 E1.61480
G1 X119.116 Y96.094 E1.64014
G1 X122.926 Y99.903 E1.84806
G1 X122.926 Y100.560 E1.87340
G1 X118.460 Y96.094 E2.11715
G1 X117.803 Y96.094 E2.14249
G1 X122.926 Y101.216 E2.42207
G1 X122.926 Y101.873 E2.44740
G1 X117.147 Y96.094 E2.76281
G1 X116.490 Y96.094 E2.78814
G1 X122.926 Y102.529 E3.13937
G1 X122.926 Y103.185 E3.16471
G1 X116.387 Y96.647 E3.52159
G1 X116.387 Y97.303 E3.54693
G1 X122.926 Y103.842 E3.90381
G1 X122.926 Y104.498 E3.92914
G1 X116.387 Y97.959 E4.28603
G1 X116.387 Y98.616 E4.31136
G1 X122.796 Y105.025 E4.66118
G1 X122.140 Y105.025 E4.68651
G1 X116.387 Y99.272 E5.00050
G1 X116.387 Y99.929 E5.02583
G1 X121.483 Y105.025 E5.30399
G1 X120.827 Y105.025 E5.32933
G1 X116.387 Y100.585 E5.57166
G1 X116.387 Y101.241 E5.59699
G1 X120.170 Y105.025 E5.80350
G1 X119.514 Y105.025 E5.82884
G1 X116.387 Y101.898 E5.99952
G1 X116.387 Y102.554 E6.02485
G1 X119.426 Y105.593 E6.19071
G1 X119.426 Y106.249 E6.21604
G1 X116.387 Y103.211 E6.38189
G1 X116.387 Y103.867 E6.40723
G1 X119.426 Y106.906 E6.57308
G1 X119.426 Y107.562 E6.59842
G1 X116.387 Y104.523 E6.76427
G1 X116.387 Y105.180 E6.78960
G1 X119.426 Y108.219 E6.95546
G1 X119.426 Y108.875 E6.98079
G1 X116.387 Y105.836 E7.14665
G1 X116.387 Y106.493 E7.17198
G1 X119.426 Y109.531 E7.33784
G1 X119.426 Y110.188 E7.36317
G1 X116.387 Y107.149 E7.52903
G1 X116.387 Y107.805 E7.55436
G1 X119.426 Y110.844 E7.72021
G1 X119.426 Y111.501 E7.74555
G1 X116.387 Y108.462 E7.91140
G1 X116.387 Y108.594 E7.91649
G1 X115.862 Y108.594 E7.93674
G1 X119.426 Y112.157 E8.13122
G1 X119.426 Y112.813 E8.15655
G1 X115.206 Y108.594 E8.38686
G1 X114.550 Y108.594 E8.41219
G1 X119.426 Y113.470 E8.67833
G1 X119.426 Y114.126 E8.70366
G1 X113.893 Y108.594 E9.00562
G1 X113.237 Y108.594 E9.03095
G1 X119.426 Y114.783 E9.36874
G1 X119.426 Y115.439 E9.39407
G1 X112.887 Y108.900 E9.75096
G1 X112.887 Y109.557 E9.77629
G1 X119.426 Y116.095 E10.13318
G1 X119.426 Y116.752 E10.15851
G1 X112.887 Y110.213 E10.51540
G1 X112.887 Y110.869 E10.54073
G1 X119.426 Y117.408 E10.89762
G1 X119.426 Y118.065 E10.92295
G1 X112.887 Y111.526 E11.27983
G1 X112.887 Y112.182 E11.30517
G1 X122.926 Y122.221 E11.85308
G1 X122.926 Y121.565 E11.87842
G1 X120.455 Y119.094 E12.01327
G1 X121.111 Y119.094 E12.03861
G1 X122.926 Y120.908 E12.13764
G1 X122.926 Y120.252 E12.16297
G1 X121.768 Y119.094 E12.22618
G1 X122.424 Y119.094 E12.25151
