; generated by Slic3r Prusa Edition 1.39.0 on 2018-12-23 at 14:13:00

; 

; external perimeters extrusion width = 0.40mm
; perimeters extrusion width = 0.40mm
; infill extrusion width = 0.40mm
; solid infill extrusion width = 0.40mm
; top infill extrusion width = 0.40mm
; first layer extrusion width = 0.50mm

M190 S60 ; set bed temperature and wait for it to be reached
M104 S215 ; set temperature
G28
;G29
G1 X0 F2000
G1 Y0 F2000
G92 E0
G1 E20 F400
G92 E0
; Filament gcode
M109 S215 ; set temperature and wait for it to be reached
G21 ; set units to millimeters
G90 ; use absolute coordinates
M82 ; use absolute distances for extrusion
G92 E0
M106 S229.5
G1 E-1.00000 F3000.00000
G92 E0
G1 Z0.010 F6000.000
G1 Z0.200 F6000.000
G1 Z0.210 F6000.000
G1 X88.648 Y66.291 F6000.000
G1 Z0.200 F6000.000
G1 E1.00000 F3000.00000
M204 S900
G1 F1200
G1 X136.489 Y66.247 E2.81827
G1 X138.380 Y66.422 E2.89044
G1 X140.207 Y66.939 E2.96260
G1 X141.902 Y67.777 E3.03447
G1 X143.423 Y68.913 E3.10664
G1 X144.712 Y70.308 E3.17881
G1 X145.724 Y71.915 E3.25098
G1 X146.427 Y73.679 E3.32315
G1 X146.796 Y75.541 E3.39532
G1 X146.852 Y76.614 E3.43612
G1 X146.851 Y146.801 E6.10370
G1 X146.743 Y148.117 E6.15386
G1 X146.470 Y149.408 E6.20402
G1 X146.035 Y150.654 E6.25419
G1 X145.441 Y151.842 E6.30465
G1 X144.734 Y152.899 E6.35300
G1 X143.903 Y153.862 E6.40135
G1 X142.960 Y154.717 E6.44970
G1 X141.920 Y155.449 E6.49806
G1 X140.798 Y156.048 E6.54641
G1 X139.611 Y156.506 E6.59476
G1 X138.377 Y156.815 E6.64311
G1 X137.114 Y156.970 E6.69146
G1 X89.328 Y156.986 E8.50765
G1 X88.037 Y156.871 E8.55690
G1 X86.762 Y156.594 E8.60646
G1 X85.540 Y156.163 E8.65572
G1 X84.375 Y155.578 E8.70528
G1 X83.298 Y154.857 E8.75453
G1 X82.320 Y154.007 E8.80379
G1 X81.460 Y153.048 E8.85274
G1 X80.722 Y151.982 E8.90200
G1 X80.122 Y150.834 E8.95126
G1 X79.670 Y149.619 E9.00051
G1 X79.375 Y148.365 E9.04947
G1 X79.237 Y147.076 E9.09873
G1 X79.229 Y76.427 E11.78384
G1 X79.337 Y75.112 E11.83400
G1 X79.611 Y73.821 E11.88416
G1 X80.047 Y72.575 E11.93432
G1 X80.638 Y71.395 E11.98449
G1 X81.321 Y70.369 E12.03133
G1 X82.121 Y69.431 E12.07817
G1 X83.026 Y68.595 E12.12501
G1 X84.024 Y67.872 E12.17186
G1 X85.101 Y67.273 E12.21870
G1 X86.242 Y66.805 E12.26554
G1 X87.429 Y66.476 E12.31238
G1 X88.589 Y66.300 E12.35694
M204 S1000
G1 X88.656 Y66.753 F6000.000
M204 S900
G1 F1200
G1 X136.489 Y66.704 E14.17489
G1 X138.299 Y66.872 E14.24398
G1 X140.048 Y67.368 E14.31306
G1 X141.676 Y68.174 E14.38215
G1 X143.131 Y69.265 E14.45123
G1 X144.362 Y70.603 E14.52032
G1 X145.327 Y72.142 E14.58940
G1 X145.996 Y73.833 E14.65848
G1 X146.345 Y75.625 E14.72786
G1 X146.394 Y146.789 E17.43258
G1 X146.290 Y148.060 E17.48103
G1 X146.026 Y149.299 E17.52919
G1 X145.606 Y150.495 E17.57735
G1 X145.033 Y151.634 E17.62580
G1 X144.357 Y152.640 E17.67189
G1 X143.562 Y153.557 E17.71799
G1 X142.656 Y154.374 E17.76437
G1 X141.663 Y155.070 E17.81047
G1 X140.592 Y155.640 E17.85656
G1 X139.453 Y156.077 E17.90294
G1 X138.276 Y156.369 E17.94904
G1 X137.064 Y156.515 E17.99542
G1 X89.341 Y156.529 E19.80918
G1 X88.095 Y156.418 E19.85675
G1 X86.880 Y156.152 E19.90402
G1 X85.700 Y155.734 E19.95159
G1 X84.583 Y155.170 E19.99916
G1 X83.558 Y154.480 E20.04613
G1 X82.626 Y153.667 E20.09311
G1 X81.803 Y152.745 E20.14009
G1 X81.102 Y151.727 E20.18707
G1 X80.532 Y150.630 E20.23404
G1 X80.103 Y149.471 E20.28102
G1 X79.822 Y148.267 E20.32800
G1 X79.693 Y147.038 E20.37498
G1 X79.686 Y76.439 E23.05817
G1 X79.789 Y75.177 E23.10633
G1 X80.053 Y73.937 E23.15448
G1 X80.473 Y72.742 E23.20264
G1 X81.046 Y71.603 E23.25110
G1 X81.699 Y70.627 E23.29571
G1 X82.468 Y69.730 E23.34062
G1 X83.338 Y68.930 E23.38554
G1 X84.291 Y68.244 E23.43015
G1 X85.325 Y67.672 E23.47506
G1 X86.419 Y67.228 E23.51998
G1 X87.559 Y66.916 E23.56489
G1 X88.597 Y66.762 E23.60475
M204 S1000
G1 X88.663 Y67.215 F6000.000
M204 S900
G1 F1200
G1 X88.799 Y67.195 E23.60999
G1 X136.489 Y67.161 E25.42249
G1 X138.219 Y67.322 E25.48853
G1 X139.897 Y67.800 E25.55484
G1 X141.452 Y68.573 E25.62087
G1 X142.840 Y69.619 E25.68691
G1 X144.013 Y70.900 E25.75294
G1 X144.932 Y72.374 E25.81897
G1 X145.568 Y73.999 E25.88529
G1 X145.894 Y75.706 E25.95132
G1 X145.937 Y146.778 E28.65250
G1 X145.837 Y147.996 E28.69896
G1 X145.583 Y149.184 E28.74513
G1 X145.176 Y150.337 E28.79158
G1 X144.624 Y151.427 E28.83804
G1 X143.978 Y152.383 E28.88190
G1 X143.214 Y153.259 E28.92605
G1 X142.349 Y154.034 E28.97020
G1 X141.396 Y154.698 E29.01435
G1 X140.368 Y155.240 E29.05851
G1 X139.282 Y155.651 E29.10266
G1 X138.161 Y155.925 E29.14652
G1 X137.007 Y156.061 E29.19067
G1 X89.363 Y156.072 E31.00146
G1 X88.168 Y155.967 E31.04706
G1 X86.996 Y155.710 E31.09265
G1 X85.859 Y155.305 E31.13853
G1 X84.789 Y154.761 E31.18412
G1 X83.815 Y154.101 E31.22885
G1 X82.930 Y153.325 E31.27358
G1 X82.149 Y152.445 E31.31830
G1 X81.483 Y151.475 E31.36303
G1 X80.943 Y150.429 E31.40776
G1 X80.537 Y149.325 E31.45249
G1 X80.271 Y148.178 E31.49721
G1 X80.149 Y147.000 E31.54223
G1 X80.142 Y76.451 E34.22354
G1 X80.242 Y75.240 E34.26971
G1 X80.498 Y74.045 E34.31616
G1 X80.903 Y72.900 E34.36233
G1 X81.455 Y71.809 E34.40879
G1 X82.083 Y70.877 E34.45150
G1 X82.817 Y70.027 E34.49421
G1 X83.647 Y69.269 E34.53692
G1 X84.567 Y68.611 E34.57992
G1 X85.552 Y68.070 E34.62263
G1 X86.595 Y67.651 E34.66534
G1 X87.680 Y67.358 E34.70805
G1 X88.603 Y67.224 E34.74352
M204 S1000
G1 E33.74352 F3000.00000
G92 E0
G1 Z0.210 F6000.000
G1 X90.762 Y77.782 F6000.000
G1 Z0.200 F6000.000
G1 E1.00000 F3000.00000
M204 S900
G1 F900
G1 X135.317 Y77.782 E2.69336
G1 X135.317 Y145.454 E5.26531
G1 X90.762 Y145.454 E6.95867
G1 X90.762 Y77.842 E9.52834
M204 S1000
G1 E8.52834 F3000.00000
G92 E0
G1 Z0.210 F6000.000
G1 X90.305 Y77.325 F6000.000
G1 Z0.200 F6000.000
G1 E1.00000 F3000.00000
M204 S900
G1 F900
G1 X135.774 Y77.325 E2.72810
G1 X135.774 Y145.911 E5.33480
G1 X90.305 Y145.911 E7.06290
G1 X90.305 Y77.385 E9.66732
M204 S1000
G1 E8.66732 F3000.00000
G92 E0
G1 Z0.210 F6000.000
G1 X89.848 Y76.868 F6000.000
G1 Z0.200 F6000.000
G1 E1.00000 F3000.00000
M204 S900
G1 F450
G1 X136.231 Y76.868 E2.76285
G1 X136.231 Y146.368 E5.40429
G1 X89.848 Y146.368 E7.16713
G1 X89.848 Y76.928 E9.80629
M204 S1000
G1 X90.227 Y76.997 F6000.000
G1 E8.80629 F3000.00000
G92 E0
G1 Z0.210 F6000.000
G1 X135.152 Y78.875 F6000.000
G1 Z0.200 F6000.000
G1 E1.00000 F3000.00000
M204 S900
G1 F750
G1 X134.430 Y78.153 E1.03900
G1 X133.781 Y78.153 E1.06378
G1 X134.947 Y79.319 E1.12671
G1 X134.947 Y79.968 E1.15149
G1 X133.132 Y78.153 E1.24947
G1 X132.482 Y78.153 E1.27425
G1 X134.947 Y80.617 E1.40728
G1 X134.947 Y81.266 E1.43206
G1 X131.833 Y78.153 E1.60012
G1 X131.184 Y78.153 E1.62490
G1 X134.947 Y81.915 E1.82801
G1 X134.947 Y82.565 E1.85279
G1 X130.535 Y78.153 E2.09094
G1 X129.886 Y78.153 E2.11572
G1 X134.947 Y83.214 E2.38891
G1 X134.947 Y83.863 E2.41369
G1 X129.236 Y78.153 E2.72193
G1 X128.587 Y78.153 E2.74671
G1 X134.947 Y84.512 E3.08999
G1 X134.947 Y85.161 E3.11477
G1 X127.938 Y78.153 E3.49309
G1 X127.289 Y78.153 E3.51787
G1 X134.947 Y85.810 E3.93124
G1 X134.947 Y86.460 E3.95602
G1 X126.640 Y78.153 E4.40443
G1 X125.991 Y78.153 E4.42920
G1 X134.947 Y87.109 E4.91266
G1 X134.947 Y87.758 E4.93743
G1 X125.341 Y78.153 E5.45593
G1 X124.692 Y78.153 E5.48071
G1 X134.947 Y88.407 E6.03424
G1 X134.947 Y89.056 E6.05902
G1 X124.043 Y78.153 E6.64760
G1 X123.394 Y78.153 E6.67238
G1 X134.947 Y89.706 E7.29601
G1 X134.947 Y90.355 E7.32078
G1 X122.745 Y78.153 E7.97945
G1 X122.095 Y78.153 E8.00423
G1 X134.947 Y91.004 E8.69794
G1 X134.947 Y91.653 E8.72272
G1 X121.446 Y78.153 E9.45147
G1 X120.797 Y78.153 E9.47625
G1 X134.947 Y92.302 E10.24004
G1 X134.947 Y92.951 E10.26482
G1 X120.148 Y78.153 E11.06366
G1 X119.499 Y78.153 E11.08844
G1 X134.947 Y93.601 E11.92231
G1 X134.947 Y94.250 E11.94709
G1 X118.850 Y78.153 E12.81602
G1 X118.200 Y78.153 E12.84080
G1 X134.947 Y94.899 E13.74476
G1 X134.947 Y95.548 E13.76954
G1 X117.551 Y78.153 E14.70855
G1 X116.902 Y78.153 E14.73333
G1 X134.947 Y96.197 E15.70738
G1 X134.947 Y96.847 E15.73216
G1 X116.253 Y78.153 E16.74125
G1 X115.604 Y78.153 E16.76603
G1 X134.947 Y97.496 E17.81016
G1 X134.947 Y98.145 E17.83494
G1 X114.954 Y78.153 E18.91412
G1 X114.305 Y78.153 E18.93890
G1 X134.947 Y98.794 E20.05312
G1 X134.947 Y99.443 E20.07790
G1 X113.656 Y78.153 E21.22717
G1 X113.007 Y78.153 E21.25195
G1 X134.947 Y100.092 E22.43625
G1 X134.947 Y100.742 E22.46103
G1 X112.358 Y78.153 E23.68038
G1 X111.708 Y78.153 E23.70516
G1 X134.947 Y101.391 E24.95956
G1 X134.947 Y102.040 E24.98434
G1 X111.059 Y78.153 E26.27377
G1 X110.410 Y78.153 E26.29855
G1 X134.947 Y102.689 E27.62303
G1 X134.947 Y103.338 E27.64781
G1 X109.761 Y78.153 E29.00733
G1 X109.112 Y78.153 E29.03211
G1 X134.947 Y103.988 E30.42667
G1 X134.947 Y104.637 E30.45145
G1 X108.463 Y78.153 E31.88106
G1 X107.813 Y78.153 E31.90584
G1 X134.947 Y105.286 E33.37049
G1 X134.947 Y105.935 E33.39527
G1 X107.164 Y78.153 E34.89496
G1 X106.515 Y78.153 E34.91974
G1 X134.947 Y106.584 E36.45447
G1 X134.947 Y107.234 E36.47925
G1 X105.866 Y78.153 E38.04903
G1 X105.217 Y78.153 E38.07381
G1 X134.947 Y107.883 E39.67863
G1 X134.947 Y108.532 E39.70341
G1 X104.567 Y78.153 E41.34328
G1 X103.918 Y78.153 E41.36805
G1 X134.947 Y109.181 E43.04296
G1 X134.947 Y109.830 E43.06774
G1 X103.269 Y78.153 E44.77769
G1 X102.620 Y78.153 E44.80247
G1 X134.947 Y110.479 E46.54746
G1 X134.947 Y111.129 E46.57224
G1 X101.971 Y78.153 E48.35228
G1 X101.322 Y78.153 E48.37705
G1 X134.947 Y111.778 E50.19213
G1 X134.947 Y112.427 E50.21691
G1 X100.672 Y78.153 E52.06703
G1 X100.023 Y78.153 E52.09181
G1 X134.947 Y113.076 E53.97698
G1 X134.947 Y113.725 E54.00175
G1 X99.374 Y78.153 E55.92196
G1 X98.725 Y78.153 E55.94674
G1 X134.947 Y114.375 E57.90199
G1 X134.947 Y115.024 E57.92677
G1 X98.076 Y78.153 E59.91706
G1 X97.426 Y78.153 E59.94184
G1 X134.947 Y115.673 E61.96717
G1 X134.947 Y116.322 E61.99195
G1 X96.777 Y78.153 E64.05233
G1 X96.128 Y78.153 E64.07711
G1 X134.947 Y116.971 E66.17253
G1 X134.947 Y117.620 E66.19731
G1 X95.479 Y78.153 E68.32777
G1 X94.830 Y78.153 E68.35255
G1 X134.947 Y118.270 E70.51806
G1 X134.947 Y118.919 E70.54284
G1 X94.181 Y78.153 E72.74339
G1 X93.531 Y78.153 E72.76816
G1 X134.947 Y119.568 E75.00376
G1 X134.947 Y120.217 E75.02854
G1 X92.882 Y78.153 E77.29917
G1 X92.233 Y78.153 E77.32395
G1 X134.947 Y120.866 E79.62963
G1 X134.947 Y121.516 E79.65441
G1 X91.584 Y78.153 E81.99513
G1 X91.132 Y78.153 E82.01235
G1 X91.132 Y78.351 E82.01990
G1 X134.947 Y122.165 E84.38499
G1 X134.947 Y122.814 E84.40977
G1 X91.132 Y79.000 E86.77485
G1 X91.132 Y79.649 E86.79963
G1 X134.947 Y123.463 E89.16471
G1 X134.947 Y124.112 E89.18949
G1 X91.132 Y80.298 E91.55458
G1 X91.132 Y80.947 E91.57936
G1 X134.947 Y124.761 E93.94444
G1 X134.947 Y125.411 E93.96922
G1 X91.132 Y81.596 E96.33430
G1 X91.132 Y82.246 E96.35908
G1 X134.947 Y126.060 E98.72416
G1 X134.947 Y126.709 E98.74894
G1 X91.132 Y82.895 E101.11403
G1 X91.132 Y83.544 E101.13881
G1 X134.947 Y127.358 E103.50389
G1 X134.947 Y128.007 E103.52867
G1 X91.132 Y84.193 E105.89375
G1 X91.132 Y84.842 E105.91853
G1 X134.947 Y128.657 E108.28362
G1 X134.947 Y129.306 E108.30839
G1 X91.132 Y85.492 E110.67348
G1 X91.132 Y86.141 E110.69826
G1 X134.947 Y129.955 E113.06334
G1 X134.947 Y130.604 E113.08812
G1 X91.132 Y86.790 E115.45320
G1 X91.132 Y87.439 E115.47798
G1 X134.947 Y131.253 E117.84307
G1 X134.947 Y131.902 E117.86785
G1 X91.132 Y88.088 E120.23293
G1 X91.132 Y88.737 E120.25771
G1 X134.947 Y132.552 E122.62279
G1 X134.947 Y133.201 E122.64757
G1 X91.132 Y89.387 E125.01265
G1 X91.132 Y90.036 E125.03743
G1 X134.947 Y133.850 E127.40252
G1 X134.947 Y134.499 E127.42730
G1 X91.132 Y90.685 E129.79238
G1 X91.132 Y91.334 E129.81716
G1 X134.947 Y135.148 E132.18224
G1 X134.947 Y135.798 E132.20702
G1 X91.132 Y91.983 E134.57211
G1 X91.132 Y92.633 E134.59688
G1 X134.947 Y136.447 E136.96197
G1 X134.947 Y137.096 E136.98675
G1 X91.132 Y93.282 E139.35183
G1 X91.132 Y93.931 E139.37661
G1 X134.947 Y137.745 E141.74169
G1 X134.947 Y138.394 E141.76647
G1 X91.132 Y94.580 E144.13156
G1 X91.132 Y95.229 E144.15634
G1 X134.947 Y139.044 E146.52142
G1 X134.947 Y139.693 E146.54620
G1 X91.132 Y95.878 E148.91128
G1 X91.132 Y96.528 E148.93606
G1 X134.947 Y140.342 E151.30115
G1 X134.947 Y140.991 E151.32592
G1 X91.132 Y97.177 E153.69101
G1 X91.132 Y97.826 E153.71579
G1 X134.947 Y141.640 E156.08087
G1 X134.947 Y142.289 E156.10565
G1 X91.132 Y98.475 E158.47073
G1 X91.132 Y99.124 E158.49551
G1 X134.947 Y142.939 E160.86060
G1 X134.947 Y143.588 E160.88538
G1 X91.132 Y99.774 E163.25046
G1 X91.132 Y100.423 E163.27524
G1 X134.947 Y144.237 E165.64032
G1 X134.947 Y144.886 E165.66510
G1 X91.132 Y101.072 E168.03018
G1 X91.132 Y101.721 E168.05496
G1 X134.495 Y145.084 E170.39568
G1 X133.846 Y145.084 E170.42046
G1 X91.132 Y102.370 E172.72613
G1 X91.132 Y103.019 E172.75091
G1 X133.197 Y145.084 E175.02154
G1 X132.548 Y145.084 E175.04632
G1 X91.132 Y103.669 E177.28191
G1 X91.132 Y104.318 E177.30669
G1 X131.899 Y145.084 E179.50724
G1 X131.249 Y145.084 E179.53202
G1 X91.132 Y104.967 E181.69752
G1 X91.132 Y105.616 E181.72230
G1 X130.600 Y145.084 E183.85276
G1 X129.951 Y145.084 E183.87754
G1 X91.132 Y106.265 E185.97295
G1 X91.132 Y106.915 E185.99773
G1 X129.302 Y145.084 E188.05811
G1 X128.653 Y145.084 E188.08289
G1 X91.132 Y107.564 E190.10822
G1 X91.132 Y108.213 E190.13300
G1 X128.003 Y145.084 E192.12329
G1 X127.354 Y145.084 E192.14807
G1 X91.132 Y108.862 E194.10331
G1 X91.132 Y109.511 E194.12809
G1 X126.705 Y145.084 E196.04830
G1 X126.056 Y145.084 E196.07307
G1 X91.132 Y110.161 E197.95823
G1 X91.132 Y110.810 E197.98301
G1 X125.407 Y145.084 E199.83313
G1 X124.758 Y145.084 E199.85791
G1 X91.132 Y111.459 E201.67299
G1 X91.132 Y112.108 E201.69776
G1 X124.108 Y145.084 E203.47780
G1 X123.459 Y145.084 E203.50258
G1 X91.132 Y112.757 E205.24757
G1 X91.132 Y113.406 E205.27234
G1 X122.810 Y145.084 E206.98229
G1 X122.161 Y145.084 E207.00707
G1 X91.132 Y114.056 E208.68197
G1 X91.132 Y114.705 E208.70675
G1 X121.512 Y145.084 E210.34661
G1 X120.862 Y145.084 E210.37139
G1 X91.132 Y115.354 E211.97621
G1 X91.132 Y116.003 E212.00099
G1 X120.213 Y145.084 E213.57077
G1 X119.564 Y145.084 E213.59554
G1 X91.132 Y116.652 E215.13028
G1 X91.132 Y117.302 E215.15506
G1 X118.915 Y145.084 E216.65475
G1 X118.266 Y145.084 E216.67953
G1 X91.132 Y117.951 E218.14417
G1 X91.132 Y118.600 E218.16895
G1 X117.617 Y145.084 E219.59856
G1 X116.967 Y145.084 E219.62333
G1 X91.132 Y119.249 E221.01790
G1 X91.132 Y119.898 E221.04267
G1 X116.318 Y145.084 E222.40219
G1 X115.669 Y145.084 E222.42697
G1 X91.132 Y120.547 E223.75145
G1 X91.132 Y121.197 E223.77623
G1 X115.020 Y145.084 E225.06566
G1 X114.371 Y145.084 E225.09044
G1 X91.132 Y121.846 E226.34483
G1 X91.132 Y122.495 E226.36961
G1 X113.721 Y145.084 E227.58896
G1 X113.072 Y145.084 E227.61373
G1 X91.132 Y123.144 E228.79804
G1 X91.132 Y123.793 E228.82282
G1 X112.423 Y145.084 E229.97208
G1 X111.774 Y145.084 E229.99686
G1 X91.132 Y124.443 E231.11108
G1 X91.132 Y125.092 E231.13586
G1 X111.125 Y145.084 E232.21503
G1 X110.475 Y145.084 E232.23981
G1 X91.132 Y125.741 E233.28395
G1 X91.132 Y126.390 E233.30872
G1 X109.826 Y145.084 E234.31781
G1 X109.177 Y145.084 E234.34259
G1 X91.132 Y127.039 E235.31664
G1 X91.132 Y127.688 E235.34142
G1 X108.528 Y145.084 E236.28043
G1 X107.879 Y145.084 E236.30520
G1 X91.132 Y128.338 E237.20917
G1 X91.132 Y128.987 E237.23395
G1 X107.230 Y145.084 E238.10287
G1 X106.580 Y145.084 E238.12764
G1 X91.132 Y129.636 E238.96152
G1 X91.132 Y130.285 E238.98630
G1 X105.931 Y145.084 E239.78513
G1 X105.282 Y145.084 E239.80991
G1 X91.132 Y130.934 E240.57370
G1 X91.132 Y131.584 E240.59848
G1 X104.633 Y145.084 E241.32723
G1 X103.984 Y145.084 E241.35201
G1 X91.132 Y132.233 E242.04571
G1 X91.132 Y132.882 E242.07049
G1 X103.334 Y145.084 E242.72916
G1 X102.685 Y145.084 E242.75394
G1 X91.132 Y133.531 E243.37755
G1 X91.132 Y134.180 E243.40233
G1 X102.036 Y145.084 E243.99091
G1 X101.387 Y145.084 E244.01569
G1 X91.132 Y134.829 E244.56922
G1 X91.132 Y135.479 E244.59400
G1 X100.738 Y145.084 E245.11249
G1 X100.089 Y145.084 E245.13727
G1 X91.132 Y136.128 E245.62072
G1 X91.132 Y136.777 E245.64550
G1 X99.439 Y145.084 E246.09391
