; generated by Slic3r Prusa Edition 1.39.0 on 2018-12-22 at 05:57:29

; 

; external perimeters extrusion width = 0.40mm
; perimeters extrusion width = 0.40mm
; infill extrusion width = 0.40mm
; solid infill extrusion width = 0.40mm
; top infill extrusion width = 0.40mm
; first layer extrusion width = 0.50mm

M190 S60 ; set bed temperature and wait for it to be reached
M104 S215 ; set temperature
G28
;G29
G1 X0 F2000
G1 Y0 F2000
G92 E0
G1 E20 F400
G92 E0
; Filament gcode
M109 S215 ; set temperature and wait for it to be reached
G21 ; set units to millimeters
G90 ; use absolute coordinates
M82 ; use absolute distances for extrusion
G92 E0
M106 S229.5
G1 E-1.00000 F3000.00000
G92 E0
G1 Z0.010 F6000.000
G1 Z0.200 F6000.000
G1 Z0.210 F6000.000
G1 X96.156 Y88.653 F6000.000
G1 Z0.200 F6000.000
G1 E1.00000 F3000.00000
M204 S900
G1 F1200
G1 X97.047 Y87.756 E1.04805
G1 X98.218 Y86.854 E1.10425
G1 X99.499 Y86.131 E1.16014
G1 X100.876 Y85.594 E1.21634
G1 X102.316 Y85.258 E1.27253
G1 X103.829 Y85.129 E1.33024
G1 X113.562 Y85.129 E1.70014
G1 X115.319 Y85.280 E1.76718
G1 X117.018 Y85.725 E1.83393
G1 X118.625 Y86.453 E1.90098
G1 X120.085 Y87.444 E1.96803
G1 X121.351 Y88.661 E2.03478
G1 X122.397 Y90.081 E2.10182
G1 X123.187 Y91.659 E2.16887
G1 X123.697 Y93.339 E2.23562
G1 X123.868 Y94.415 E2.27703
G1 X123.925 Y95.500 E2.31831
G1 X123.925 Y130.564 E3.65096
G1 X123.865 Y131.612 E3.69085
G1 X123.700 Y132.648 E3.73075
G1 X123.348 Y133.912 E3.78061
G1 X122.842 Y135.114 E3.83017
G1 X122.185 Y136.250 E3.88003
G1 X121.390 Y137.293 E3.92989
G1 X120.470 Y138.228 E3.97975
G1 X119.439 Y139.040 E4.02961
G1 X118.314 Y139.714 E4.07947
G1 X117.113 Y140.241 E4.12933
G1 X115.496 Y140.688 E4.19307
G1 X113.829 Y140.868 E4.25680
G1 X103.755 Y140.869 E4.63966
G1 X101.798 Y140.646 E4.71454
G1 X100.497 Y140.281 E4.76591
G1 X99.254 Y139.749 E4.81728
G1 X98.091 Y139.060 E4.86865
G1 X97.028 Y138.226 E4.92002
G1 X96.082 Y137.261 E4.97139
G1 X95.269 Y136.181 E5.02276
G1 X94.604 Y135.004 E5.07413
G1 X94.098 Y133.751 E5.12550
G1 X90.444 Y120.743 E5.63902
G1 X90.170 Y119.403 E5.69099
G1 X90.075 Y118.087 E5.74115
G1 X90.075 Y107.905 E6.12813
G1 X90.136 Y106.872 E6.16743
G1 X90.300 Y105.852 E6.20672
G1 X94.228 Y91.879 E6.75834
G1 X94.740 Y90.724 E6.80639
G1 X95.385 Y89.646 E6.85414
G1 X96.119 Y88.701 E6.89960
M204 S1000
G1 X96.479 Y88.980 F6000.000
M204 S900
G1 F1200
G1 X97.348 Y88.100 E6.94661
G1 X98.475 Y87.232 E7.00067
G1 X99.715 Y86.534 E7.05472
G1 X101.041 Y86.021 E7.10878
G1 X102.427 Y85.703 E7.16284
G1 X103.837 Y85.586 E7.21660
G1 X113.562 Y85.586 E7.58619
G1 X115.241 Y85.731 E7.65026
G1 X116.880 Y86.160 E7.71464
G1 X118.421 Y86.863 E7.77901
G1 X119.820 Y87.817 E7.84338
G1 X121.031 Y88.990 E7.90746
G1 X122.030 Y90.358 E7.97183
G1 X122.782 Y91.876 E8.03620
G1 X123.264 Y93.499 E8.10058
G1 X123.468 Y95.446 E8.17496
G1 X123.468 Y130.500 E9.50724
G1 X123.412 Y131.548 E9.54713
G1 X123.248 Y132.577 E9.58673
G1 X122.906 Y133.789 E9.63460
G1 X122.414 Y134.948 E9.68246
G1 X121.779 Y136.036 E9.73032
G1 X121.005 Y137.039 E9.77848
G1 X120.116 Y137.931 E9.82634
G1 X119.121 Y138.703 E9.87420
G1 X118.037 Y139.343 E9.92207
G1 X116.879 Y139.840 E9.96993
G1 X115.356 Y140.249 E10.02988
G1 X113.787 Y140.411 E10.08984
G1 X103.767 Y140.413 E10.47064
G1 X101.869 Y140.194 E10.54326
G1 X100.620 Y139.840 E10.59259
G1 X99.436 Y139.329 E10.64164
G1 X98.327 Y138.668 E10.69068
G1 X97.308 Y137.864 E10.74002
G1 X96.408 Y136.939 E10.78906
G1 X95.631 Y135.899 E10.83840
G1 X94.997 Y134.766 E10.88774
G1 X94.516 Y133.561 E10.93707
G1 X90.885 Y120.621 E11.44787
G1 X90.623 Y119.341 E11.49750
G1 X90.532 Y118.077 E11.54566
G1 X90.533 Y107.907 E11.93221
G1 X90.592 Y106.913 E11.97004
G1 X90.752 Y105.923 E12.00816
G1 X94.649 Y92.058 E12.55555
G1 X95.135 Y90.955 E12.60135
G1 X95.756 Y89.913 E12.64744
G1 X96.443 Y89.027 E12.69004
M204 S1000
G1 X96.803 Y89.306 F6000.000
M204 S900
G1 F1200
G1 X97.647 Y88.447 E12.73580
G1 X98.729 Y87.612 E12.78773
G1 X99.920 Y86.943 E12.83966
G1 X101.195 Y86.452 E12.89159
G1 X102.535 Y86.149 E12.94381
G1 X103.852 Y86.043 E12.99401
G1 X113.561 Y86.043 E13.36304
G1 X115.172 Y86.182 E13.42447
G1 X116.742 Y86.596 E13.48619
G1 X118.218 Y87.273 E13.54790
G1 X119.557 Y88.192 E13.60962
G1 X120.718 Y89.327 E13.67134
G1 X121.665 Y90.637 E13.73277
G1 X122.377 Y92.096 E13.79448
G1 X122.829 Y93.656 E13.85620
G1 X123.011 Y95.452 E13.92482
G1 X123.011 Y130.508 E15.25714
G1 X122.957 Y131.509 E15.29524
G1 X122.797 Y132.498 E15.33334
G1 X122.467 Y133.659 E15.37922
G1 X121.989 Y134.776 E15.42538
G1 X121.376 Y135.816 E15.47126
G1 X120.635 Y136.769 E15.51714
G1 X119.778 Y137.620 E15.56302
G1 X118.821 Y138.355 E15.60891
G1 X117.777 Y138.962 E15.65479
G1 X116.658 Y139.433 E15.70095
G1 X115.226 Y139.808 E15.75720
G1 X113.753 Y139.955 E15.81345
G1 X103.779 Y139.956 E16.19254
G1 X101.948 Y139.744 E16.26259
G1 X100.758 Y139.404 E16.30963
G1 X99.623 Y138.911 E16.35666
G1 X98.562 Y138.275 E16.40369
G1 X97.587 Y137.500 E16.45101
G1 X96.727 Y136.609 E16.49804
G1 X95.992 Y135.615 E16.54508
G1 X95.389 Y134.525 E16.59240
G1 X94.936 Y133.373 E16.63943
G1 X91.325 Y120.499 E17.14763
G1 X91.076 Y119.279 E17.19496
G1 X90.989 Y118.075 E17.24084
G1 X90.990 Y107.909 E17.62720
G1 X91.203 Y106.002 E17.70013
G1 X95.068 Y92.242 E18.24335
G1 X95.531 Y91.185 E18.28721
G1 X96.124 Y90.185 E18.33136
G1 X96.767 Y89.353 E18.37132
M204 S1000
G1 E17.37132 F3000.00000
G92 E0
G1 Z0.210 F6000.000
G1 X105.110 Y96.664 F6000.000
G1 Z0.200 F6000.000
G1 E1.00000 F3000.00000
M204 S900
G1 F1200
G1 X112.390 Y96.664 E1.27666
G1 X112.390 Y106.336 E1.64424
G1 X108.890 Y106.336 E1.77726
G1 X108.890 Y119.664 E2.28382
G1 X112.390 Y119.664 E2.41684
G1 X112.390 Y129.336 E2.78443
G1 X105.110 Y129.336 E3.06109
G1 X105.110 Y116.836 E3.53616
G1 X101.610 Y116.836 E3.66919
G1 X101.610 Y109.164 E3.96076
G1 X105.110 Y109.164 E4.09378
G1 X105.110 Y96.724 E4.56658
M204 S1000
G1 E3.56658 F3000.00000
G92 E0
G1 Z0.210 F6000.000
G1 X109.347 Y106.793 F6000.000
G1 Z0.200 F6000.000
G1 E1.00000 F3000.00000
M204 S900
G1 F1200
G1 X109.347 Y119.207 E1.47182
G1 X112.847 Y119.207 E1.60484
G1 X112.847 Y129.793 E2.00717
G1 X104.653 Y129.793 E2.31857
G1 X104.653 Y117.293 E2.79365
G1 X101.153 Y117.293 E2.92667
G1 X101.153 Y108.707 E3.25298
G1 X104.653 Y108.707 E3.38601
G1 X104.653 Y96.207 E3.86109
G1 X112.847 Y96.207 E4.17248
G1 X112.847 Y106.793 E4.57481
G1 X109.407 Y106.793 E4.70555
M204 S1000
G1 E3.70555 F3000.00000
G92 E0
G1 Z0.210 F6000.000
G1 X109.804 Y107.250 F6000.000
G1 Z0.200 F6000.000
G1 E1.00000 F3000.00000
M204 S900
G1 F600
G1 X109.804 Y118.750 E1.43707
G1 X113.304 Y118.750 E1.57009
G1 X113.304 Y130.250 E2.00717
G1 X104.196 Y130.250 E2.35331
G1 X104.196 Y117.750 E2.82839
G1 X100.696 Y117.750 E2.96141
G1 X100.696 Y108.250 E3.32247
G1 X104.196 Y108.250 E3.45549
G1 X104.196 Y95.750 E3.93057
G1 X113.304 Y95.750 E4.27672
G1 X113.304 Y107.250 E4.71379
G1 X109.864 Y107.250 E4.84453
M204 S1000
G1 X109.439 Y107.415 F6000.000
G1 E3.84453 F3000.00000
G92 E0
G1 Z0.210 F6000.000
G1 X112.225 Y97.768 F6000.000
G1 Z0.200 F6000.000
G1 E1.00000 F3000.00000
M204 S900
G1 F750
G1 X111.492 Y97.034 E1.04002
G1 X110.835 Y97.034 E1.06536
G1 X112.019 Y98.218 E1.12998
G1 X112.019 Y98.875 E1.15531
G1 X110.179 Y97.034 E1.25576
G1 X109.523 Y97.034 E1.28109
G1 X112.019 Y99.531 E1.41737
G1 X112.019 Y100.188 E1.44270
G1 X108.866 Y97.034 E1.61480
G1 X108.210 Y97.034 E1.64014
G1 X112.019 Y100.844 E1.84806
G1 X112.019 Y101.500 E1.87340
G1 X107.553 Y97.034 E2.11715
G1 X106.897 Y97.034 E2.14249
G1 X112.019 Y102.157 E2.42207
G1 X112.019 Y102.813 E2.44740
G1 X106.241 Y97.034 E2.76281
G1 X105.584 Y97.034 E2.78814
G1 X112.019 Y103.470 E3.13937
G1 X112.019 Y104.126 E3.16471
G1 X105.481 Y97.587 E3.52159
G1 X105.481 Y98.244 E3.54693
G1 X112.019 Y104.782 E3.90381
G1 X112.019 Y105.439 E3.92914
G1 X105.481 Y98.900 E4.28603
G1 X105.481 Y99.556 E4.31136
G1 X111.890 Y105.966 E4.66118
G1 X111.233 Y105.966 E4.68651
G1 X105.481 Y100.213 E5.00050
G1 X105.481 Y100.869 E5.02583
G1 X110.577 Y105.966 E5.30399
G1 X109.921 Y105.966 E5.32933
G1 X105.481 Y101.526 E5.57166
G1 X105.481 Y102.182 E5.59699
G1 X109.264 Y105.966 E5.80350
G1 X108.608 Y105.966 E5.82884
G1 X105.481 Y102.838 E5.99952
G1 X105.481 Y103.495 E6.02485
G1 X108.519 Y106.534 E6.19071
G1 X108.519 Y107.190 E6.21604
G1 X105.481 Y104.151 E6.38189
G1 X105.481 Y104.808 E6.40723
G1 X108.519 Y107.846 E6.57308
G1 X108.519 Y108.503 E6.59842
G1 X105.481 Y105.464 E6.76427
G1 X105.481 Y106.120 E6.78960
G1 X108.519 Y109.159 E6.95546
G1 X108.519 Y109.816 E6.98079
G1 X105.481 Y106.777 E7.14665
G1 X105.481 Y107.433 E7.17198
G1 X108.519 Y110.472 E7.33784
G1 X108.519 Y111.128 E7.36317
G1 X105.481 Y108.090 E7.52903
G1 X105.481 Y108.746 E7.55436
G1 X108.519 Y111.785 E7.72021
G1 X108.519 Y112.441 E7.74555
G1 X105.481 Y109.402 E7.91140
G1 X105.481 Y109.534 E7.91649
G1 X104.956 Y109.534 E7.93674
G1 X108.519 Y113.098 E8.13122
G1 X108.519 Y113.754 E8.15655
G1 X104.300 Y109.534 E8.38686
G1 X103.643 Y109.534 E8.41219
G1 X108.519 Y114.410 E8.67833
G1 X108.519 Y115.067 E8.70366
G1 X102.987 Y109.534 E9.00562
G1 X102.331 Y109.534 E9.03095
G1 X108.519 Y115.723 E9.36874
G1 X108.519 Y116.380 E9.39407
G1 X101.981 Y109.841 E9.75096
G1 X101.981 Y110.497 E9.77629
G1 X108.519 Y117.036 E10.13318
G1 X108.519 Y117.692 E10.15851
G1 X101.981 Y111.154 E10.51540
G1 X101.981 Y111.810 E10.54073
G1 X108.519 Y118.349 E10.89762
G1 X108.519 Y119.005 E10.92295
G1 X101.981 Y112.466 E11.27983
G1 X101.981 Y113.123 E11.30517
G1 X112.019 Y123.162 E11.85308
G1 X112.019 Y122.505 E11.87842
G1 X109.549 Y120.034 E12.01327
G1 X110.205 Y120.034 E12.03861
G1 X112.019 Y121.849 E12.13764
G1 X112.019 Y121.192 E12.16297
G1 X110.861 Y120.034 E12.22618
G1 X111.518 Y120.034 E12.25151
G1 X112.225 Y120.742 E12.29012
M204 S1000
G1 E11.29012 F3000.00000
G92 E0
G1 Z0.210 F6000.000
G1 X112.225 Y124.024 F6000.000
G1 Z0.200 F6000.000
G1 E1.00000 F3000.00000
M204 S900
G1 F750
G1 X105.481 Y117.279 E1.36811
G1 X105.481 Y117.936 E1.39344
G1 X112.019 Y124.474 E1.75033
G1 X112.019 Y125.131 E1.77566
G1 X105.481 Y118.592 E2.13255
G1 X105.481 Y119.248 E2.15788
G1 X112.019 Y125.787 E2.51477
G1 X112.019 Y126.444 E2.54010
G1 X105.481 Y119.905 E2.89699
G1 X105.481 Y120.561 E2.92232
G1 X112.019 Y127.100 E3.27920
G1 X112.019 Y127.756 E3.30454
G1 X105.481 Y121.218 E3.66142
G1 X105.481 Y121.874 E3.68676
G1 X112.019 Y128.413 E4.04364
G1 X112.019 Y128.966 E4.06498
G1 X111.916 Y128.966 E4.06898
G1 X105.481 Y122.530 E4.42021
G1 X105.481 Y123.187 E4.44554
G1 X111.259 Y128.966 E4.76094
G1 X110.603 Y128.966 E4.78628
G1 X105.481 Y123.843 E5.06585
G1 X105.481 Y124.500 E5.09119
G1 X109.947 Y128.966 E5.33494
G1 X109.290 Y128.966 E5.36027
G1 X105.481 Y125.156 E5.56820
G1 X105.481 Y125.812 E5.59353
G1 X108.634 Y128.966 E5.76563
G1 X107.977 Y128.966 E5.79096
G1 X105.481 Y126.469 E5.92723
G1 X105.481 Y127.125 E5.95256
G1 X107.321 Y128.966 E6.05301
G1 X106.665 Y128.966 E6.07834
G1 X105.481 Y127.782 E6.14296
G1 X105.481 Y128.438 E6.16830
G1 X106.214 Y129.171 E6.20831
M204 S1000
G1 E5.20831 F3000.00000
G92 E0
G1 Z0.210 F6000.000
G1 X104.873 Y116.671 F6000.000
G1 Z0.200 F6000.000
G1 E1.00000 F3000.00000
M204 S900
G1 F750
G1 X101.981 Y113.779 E1.15785
G1 X101.981 Y114.436 E1.18318
G1 X104.011 Y116.466 E1.29398
G1 X103.354 Y116.466 E1.31931
G1 X101.981 Y115.092 E1.39428
G1 X101.981 Y115.748 E1.41961
G1 X102.698 Y116.466 E1.45875
G1 X102.041 Y116.466 E1.48409
G1 X101.775 Y116.199 E1.49863
M204 S1000
M106 S239.7
G1 E0.49863 F3000.00000
G92 E0
G1 Z0.210 F6000.000
G1 Z0.400 F6000.000
M104 S180 ; set temperature
G1 Z0.410 F6000.000
G1 X109.140 Y106.586 F6000.000
G1 Z0.400 F6000.000
G1 E1.00000 F3000.00000
M204 S800
G1 F2400
G1 X109.140 Y119.414 E1.38089
G1 X112.640 Y119.414 E1.48481
G1 X112.640 Y129.586 E1.78682
G1 X104.860 Y129.586 E2.01779
G1 X104.860 Y117.086 E2.38893
G1 X101.360 Y117.086 E2.49285
G1 X101.360 Y108.914 E2.73548
G1 X104.860 Y108.914 E2.83940
G1 X104.860 Y96.414 E3.21054
G1 X112.640 Y96.414 E3.44152
G1 X112.640 Y106.586 E3.74353
G1 X109.200 Y106.586 E3.84567
M204 S1000
G1 X109.497 Y106.943 F6000.000
M204 S800
G1 F2400
G1 X109.497 Y119.057 E4.20535
G1 X112.997 Y119.057 E4.30927
G1 X112.997 Y129.943 E4.63248
G1 X104.503 Y129.943 E4.88466
G1 X104.503 Y117.443 E5.25580
G1 X101.003 Y117.443 E5.35972
G1 X101.003 Y108.557 E5.62356
G1 X104.503 Y108.557 E5.72747
G1 X104.503 Y96.057 E6.09862
G1 X112.997 Y96.057 E6.35079
G1 X112.997 Y106.943 E6.67401
G1 X109.557 Y106.943 E6.77615
M204 S1000
G1 X109.854 Y107.300 F6000.000
M204 S800
G1 F1200
G1 X109.854 Y118.700 E7.11463
G1 X113.354 Y118.700 E7.21855
G1 X113.354 Y130.300 E7.56297
G1 X104.146 Y130.300 E7.83635
G1 X104.146 Y117.800 E8.20749
G1 X100.646 Y117.800 E8.31141
G1 X100.646 Y108.200 E8.59645
G1 X104.146 Y108.200 E8.70037
G1 X104.146 Y95.700 E9.07151
G1 X113.354 Y95.700 E9.34489
G1 X113.354 Y107.300 E9.68931
G1 X109.914 Y107.300 E9.79145
M204 S1000
G1 X109.489 Y107.465 F6000.000
G1 E8.79145 F3000.00000
G92 E0
G1 Z0.410 F6000.000
G1 X109.470 Y106.457 F6000.000
G1 Z0.400 F6000.000
G1 E1.00000 F3000.00000
G1 F1500
G1 X112.350 Y103.577 E1.12129
G1 X112.350 Y104.083 E1.13637
G1 X110.137 Y106.297 E1.22957
G1 X110.643 Y106.297 E1.24465
G1 X112.350 Y104.589 E1.31654
G1 X112.350 Y105.096 E1.33161
G1 X111.149 Y106.297 E1.38218
G1 X111.656 Y106.297 E1.39726
G1 X112.350 Y105.602 E1.42651
G1 X112.350 Y106.108 E1.44158
G1 X112.001 Y106.457 E1.45628
G1 E0.45628 F3000.00000
G92 E0
G1 Z0.410 F6000.000
G1 X109.011 Y106.916 F6000.000
G1 Z0.400 F6000.000
G1 E1.00000 F3000.00000
G1 F1500
G1 X101.650 Y114.277 E1.30994
G1 X101.650 Y114.784 E1.32502
G1 X108.850 Y107.583 E1.62819
G1 X108.850 Y108.089 E1.64327
G1 X101.650 Y115.290 E1.94644
G1 X101.650 Y115.796 E1.96152
G1 X108.850 Y108.596 E2.26469
G1 X108.850 Y109.102 E2.27977
G1 X101.650 Y116.303 E2.58294
G1 X101.650 Y116.797 E2.59765
G1 X108.850 Y109.608 E2.90057
G1 X108.850 Y110.115 E2.91564
G1 X102.168 Y116.797 E3.19698
G1 X102.675 Y116.797 E3.21205
G1 X108.850 Y110.621 E3.47207
G1 X108.850 Y111.127 E3.48714
G1 X103.181 Y116.797 E3.72584
G1 X103.687 Y116.797 E3.74091
G1 X108.850 Y111.634 E3.95829
G1 X108.850 Y112.140 E3.97337
G1 X104.194 Y116.797 E4.16943
G1 X104.700 Y116.797 E4.18450
G1 X108.850 Y112.646 E4.35924
G1 X108.850 Y113.153 E4.37431
G1 X105.150 Y116.853 E4.53013
G1 X105.150 Y117.360 E4.54520
G1 X108.850 Y113.659 E4.70102
G1 X108.850 Y114.165 E4.71609
G1 X105.150 Y117.866 E4.87191
G1 X105.150 Y118.373 E4.88698
G1 X108.850 Y114.672 E5.04280
G1 X108.850 Y115.178 E5.05787
G1 X105.150 Y118.879 E5.21369
G1 X105.150 Y119.385 E5.22876
G1 X108.850 Y115.684 E5.38457
G1 X108.850 Y116.191 E5.39965
G1 X105.150 Y119.892 E5.55546
G1 X105.150 Y120.398 E5.57054
G1 X108.850 Y116.697 E5.72635
G1 X108.850 Y117.204 E5.74143
G1 X105.150 Y120.904 E5.89724
G1 X105.150 Y121.411 E5.91232
G1 X108.850 Y117.710 E6.06813
G1 X108.850 Y118.216 E6.08321
G1 X105.150 Y121.917 E6.23902
G1 X105.150 Y122.423 E6.25410
G1 X108.850 Y118.723 E6.40991
G1 X108.850 Y119.229 E6.42498
G1 X105.150 Y122.930 E6.58080
G1 X105.150 Y123.436 E6.59587
G1 X108.882 Y119.703 E6.75303
G1 X109.389 Y119.703 E6.76811
G1 X105.150 Y123.942 E6.94659
G1 X105.150 Y124.449 E6.96166
G1 X109.895 Y119.703 E7.16146
G1 X110.401 Y119.703 E7.17653
G1 X105.150 Y124.955 E7.39765
G1 X105.150 Y125.461 E7.41272
G1 X110.908 Y119.703 E7.65516
G1 X111.414 Y119.703 E7.67023
G1 X105.150 Y125.968 E7.93399
G1 X105.150 Y126.474 E7.94906
G1 X111.920 Y119.703 E8.23414
G1 X112.350 Y119.703 E8.24694
G1 X112.350 Y119.780 E8.24921
G1 X105.150 Y126.981 E8.55239
G1 X105.150 Y127.487 E8.56746
G1 X112.350 Y120.286 E8.87064
G1 X112.350 Y120.792 E8.88571
G1 X105.150 Y127.993 E9.18889
G1 X105.150 Y128.500 E9.20396
G1 X112.350 Y121.299 E9.50714
G1 X112.350 Y121.805 E9.52221
G1 X105.150 Y129.006 E9.82539
G1 X105.150 Y129.297 E9.83405
G1 X105.365 Y129.297 E9.84047
G1 X112.350 Y122.312 E10.13456
G1 X112.350 Y122.818 E10.14964
G1 X105.872 Y129.297 E10.42241
G1 X106.378 Y129.297 E10.43749
G1 X112.350 Y123.324 E10.68895
G1 X112.350 Y123.831 E10.70402
G1 X106.884 Y129.297 E10.93416
G1 X107.391 Y129.297 E10.94924
G1 X112.350 Y124.337 E11.15805
