; generated by Slic3r Prusa Edition 1.39.0 on 2018-12-08 at 13:59:22

; 

; external perimeters extrusion width = 0.40mm
; perimeters extrusion width = 0.40mm
; infill extrusion width = 0.40mm
; solid infill extrusion width = 0.40mm
; top infill extrusion width = 0.40mm

M107
M190 S60 ; set bed temperature and wait for it to be reached
M104 S215 ; set temperature
G28
;G29
G1 X0 F2000
G1 Y0 F2000
G92 E0
G1 E20 F400
G92 E0
; Filament gcode
M109 S215 ; set temperature and wait for it to be reached
G21 ; set units to millimeters
G90 ; use absolute coordinates
M82 ; use absolute distances for extrusion
G92 E0
G1 E-0.30000 F3000.00000
G92 E0
G1 Z0.010 F6000.000
G1 Z0.200 F6000.000
G1 Z0.210 F6000.000
G1 X44.603 Y58.451 F6000.000
G1 Z0.200 F6000.000
G1 E0.30000 F3000.00000
M204 S900
G1 F1200
G1 X45.938 Y57.551 E0.34779
G1 X47.499 Y56.628 E0.40165
G1 X50.571 Y55.168 E0.50262
G1 X52.743 Y54.382 E0.57122
G1 X55.949 Y53.556 E0.66951
G1 X58.203 Y53.202 E0.73727
G1 X61.498 Y52.999 E0.83528
G1 X101.649 Y52.998 E2.02742
G1 X175.895 Y53.225 E4.23189
G1 X176.969 Y53.345 E4.26396
G1 X178.021 Y53.587 E4.29603
G1 X179.039 Y53.949 E4.32810
G1 X180.015 Y54.429 E4.36039
G1 X180.922 Y55.015 E4.39246
G1 X181.761 Y55.707 E4.42475
G1 X182.509 Y56.486 E4.45682
G1 X183.167 Y57.352 E4.48911
G1 X183.835 Y58.519 E4.52902
G1 X184.328 Y59.769 E4.56893
G1 X184.637 Y61.077 E4.60883
G1 X184.755 Y62.416 E4.64874
G1 X184.900 Y123.134 E6.45156
G1 X184.898 Y163.346 E7.64548
G1 X184.808 Y164.460 E7.67867
G1 X184.586 Y165.555 E7.71186
G1 X184.234 Y166.616 E7.74505
G1 X183.755 Y167.635 E7.77846
G1 X183.162 Y168.582 E7.81165
G1 X182.455 Y169.457 E7.84506
G1 X181.647 Y170.241 E7.87847
G1 X180.758 Y170.918 E7.91166
G1 X179.578 Y171.592 E7.95202
G1 X178.319 Y172.085 E7.99214
G1 X176.995 Y172.393 E8.03250
G1 X175.649 Y172.506 E8.07263
G1 X135.521 Y172.506 E9.26407
G1 X61.751 Y172.291 E11.45441
G1 X59.777 Y172.220 E11.51306
G1 X58.089 Y172.058 E11.56339
G1 X56.299 Y171.774 E11.61722
G1 X54.551 Y171.385 E11.67038
G1 X52.959 Y170.931 E11.71954
G1 X51.061 Y170.262 E11.77927
G1 X49.576 Y169.628 E11.82724
G1 X47.398 Y168.521 E11.89977
G1 X46.016 Y167.697 E11.94754
G1 X44.499 Y166.662 E12.00208
G1 X43.072 Y165.554 E12.05572
G1 X41.707 Y164.350 E12.10977
G1 X40.417 Y163.063 E12.16386
G1 X39.194 Y161.682 E12.21864
G1 X38.076 Y160.245 E12.27269
G1 X37.130 Y158.866 E12.32235
G1 X36.081 Y157.116 E12.38291
G1 X35.225 Y155.440 E12.43879
G1 X34.488 Y153.734 E12.49396
G1 X33.804 Y151.804 E12.55478
G1 X33.285 Y149.962 E12.61160
G1 X32.698 Y146.882 E12.70468
G1 X32.493 Y144.869 E12.76478
G1 X32.429 Y143.002 E12.82022
G1 X32.285 Y82.369 E14.62050
G1 X32.339 Y80.571 E14.67393
G1 X32.514 Y78.689 E14.73003
G1 X32.797 Y76.899 E14.78386
G1 X33.203 Y75.067 E14.83957
G1 X33.710 Y73.318 E14.89363
G1 X34.341 Y71.561 E14.94906
G1 X35.050 Y69.917 E15.00221
G1 X35.895 Y68.250 E15.05770
G1 X36.763 Y66.771 E15.10862
G1 X38.069 Y64.862 E15.17729
G1 X39.046 Y63.612 E15.22441
G1 X40.231 Y62.270 E15.27756
G1 X41.513 Y60.984 E15.33148
G1 X42.734 Y59.901 E15.37993
G1 X44.556 Y58.488 E15.44839
M204 S1000
G1 E15.14839 F3000.00000
G92 E0
G1 Z0.210 F6000.000
G1 X82.802 Y66.728 F6000.000
G1 Z0.200 F6000.000
G1 E0.30000 F3000.00000
M204 S900
G1 F1200
G1 X83.039 Y66.155 E0.31840
G1 X83.427 Y65.644 E0.33745
G1 X83.933 Y65.255 E0.35640
G1 X84.527 Y65.013 E0.37545
G1 X85.142 Y64.933 E0.39385
G1 X85.768 Y65.015 E0.41262
G1 X86.353 Y65.257 E0.43139
G1 X86.854 Y65.642 E0.45017
G1 X87.239 Y66.144 E0.46894
G1 X87.481 Y66.728 E0.48771
G1 X87.556 Y67.295 E0.50469
G1 X87.556 Y97.415 E1.39899
G1 X87.481 Y97.981 E1.41597
G1 X87.239 Y98.566 E1.43474
G1 X86.854 Y99.067 E1.45351
G1 X86.353 Y99.452 E1.47229
G1 X85.768 Y99.694 E1.49106
G1 X85.142 Y99.777 E1.50983
G1 X84.515 Y99.694 E1.52861
G1 X83.931 Y99.452 E1.54738
G1 X83.427 Y99.065 E1.56624
G1 X83.039 Y98.554 E1.58530
G1 X82.802 Y97.981 E1.60369
G1 X82.727 Y97.415 E1.62067
G1 X82.727 Y67.295 E2.51497
G1 X82.794 Y66.787 E2.53016
M204 S1000
G1 X83.148 Y66.834 F6000.000
M204 S900
G1 F1200
G1 X83.352 Y66.334 E2.54617
G1 X83.682 Y65.898 E2.56244
G1 X84.112 Y65.568 E2.57853
G1 X84.619 Y65.361 E2.59479
G1 X85.142 Y65.293 E2.61043
G1 X85.675 Y65.363 E2.62641
G1 X86.173 Y65.569 E2.64239
G1 X86.600 Y65.897 E2.65837
G1 X86.927 Y66.324 E2.67435
G1 X87.133 Y66.821 E2.69033
G1 X87.199 Y67.318 E2.70522
G1 X87.199 Y97.391 E3.59813
G1 X87.133 Y97.888 E3.61302
G1 X86.927 Y98.386 E3.62900
G1 X86.600 Y98.813 E3.64498
G1 X86.173 Y99.140 E3.66096
G1 X85.675 Y99.346 E3.67694
G1 X85.142 Y99.416 E3.69293
G1 X84.608 Y99.346 E3.70891
G1 X84.111 Y99.140 E3.72489
G1 X83.682 Y98.811 E3.74092
G1 X83.352 Y98.375 E3.75719
G1 X83.150 Y97.888 E3.77282
G1 X83.085 Y97.391 E3.78771
G1 X83.085 Y67.318 E4.68062
G1 X83.140 Y66.893 E4.69334
M204 S1000
G1 E4.39334 F3000.00000
G92 E0
G1 Z0.210 F6000.000
G1 X83.938 Y66.152 F6000.000
G1 Z0.200 F6000.000
G1 E0.30000 F3000.00000
M204 S900
G1 F600
G1 X84.291 Y65.880 E0.31323
G1 X84.712 Y65.710 E0.32670
G1 X85.142 Y65.653 E0.33958
G1 X85.582 Y65.711 E0.35277
G1 X85.992 Y65.881 E0.36596
G1 X86.345 Y66.151 E0.37915
G1 X86.615 Y66.504 E0.39234
G1 X86.785 Y66.914 E0.40553
G1 X86.842 Y67.342 E0.41833
G1 X86.842 Y97.368 E1.30984
G1 X86.785 Y97.795 E1.32264
G1 X86.615 Y98.205 E1.33583
G1 X86.345 Y98.558 E1.34902
G1 X85.992 Y98.828 E1.36221
G1 X85.582 Y98.998 E1.37540
G1 X85.142 Y99.056 E1.38859
G1 X84.701 Y98.998 E1.40178
G1 X84.291 Y98.828 E1.41497
G1 X83.938 Y98.558 E1.42818
G1 X83.664 Y98.196 E1.44165
G1 X83.498 Y97.795 E1.45453
G1 X83.442 Y97.368 E1.46733
G1 X83.442 Y67.342 E2.35885
G1 X83.498 Y66.914 E2.37165
G1 X83.664 Y66.513 E2.38453
G1 X83.902 Y66.200 E2.39622
M204 S1000
G1 X83.834 Y65.765 F6000.000
G1 E2.09622 F3000.00000
G92 E0
G1 Z0.210 F6000.000
G1 X78.554 Y83.940 F6000.000
G1 Z0.200 F6000.000
G1 E0.30000 F3000.00000
M204 S900
G1 F1200
G1 X78.123 Y86.157 E0.36704
G1 X77.818 Y87.298 E0.40213
G1 X77.422 Y88.441 E0.43802
G1 X76.972 Y89.501 E0.47223
G1 X76.436 Y90.554 E0.50729
G1 X75.828 Y91.566 E0.54236
G1 X75.151 Y92.534 E0.57742
G1 X74.408 Y93.451 E0.61249
G1 X73.602 Y94.315 E0.64755
G1 X72.738 Y95.121 E0.68264
G1 X71.797 Y95.880 E0.71853
G1 X70.853 Y96.541 E0.75275
G1 X69.841 Y97.149 E0.78781
G1 X68.788 Y97.685 E0.82288
G1 X67.701 Y98.147 E0.85794
G1 X66.585 Y98.531 E0.89301
G1 X65.444 Y98.836 E0.92807
G1 X63.227 Y99.267 E0.99511
G1 X63.227 Y94.391 E1.13987
G1 X64.959 Y93.975 E1.19274
G1 X65.929 Y93.654 E1.22307
G1 X66.867 Y93.251 E1.25340
G1 X67.769 Y92.771 E1.28373
G1 X68.627 Y92.216 E1.31406
G1 X69.435 Y91.591 E1.34439
G1 X70.187 Y90.900 E1.37473
G1 X70.878 Y90.148 E1.40506
G1 X71.503 Y89.340 E1.43539
G1 X72.058 Y88.482 E1.46572
G1 X72.538 Y87.580 E1.49605
G1 X72.941 Y86.642 E1.52638
G1 X73.262 Y85.672 E1.55671
G1 X73.678 Y83.940 E1.60958
G1 X78.494 Y83.940 E1.75256
M204 S1000
G1 E1.45256 F3000.00000
G92 E0
G1 Z0.210 F6000.000
G1 X78.121 Y84.298 F6000.000
G1 Z0.200 F6000.000
G1 E0.30000 F3000.00000
M204 S900
G1 F1200
G1 X77.775 Y86.077 E0.35381
G1 X77.476 Y87.194 E0.38815
G1 X77.089 Y88.312 E0.42330
G1 X76.648 Y89.351 E0.45678
G1 X76.124 Y90.381 E0.49110
G1 X75.528 Y91.372 E0.52543
G1 X74.865 Y92.319 E0.55975
G1 X74.138 Y93.217 E0.59407
G1 X73.349 Y94.062 E0.62840
G1 X72.504 Y94.851 E0.66274
G1 X71.582 Y95.595 E0.69789
G1 X70.659 Y96.241 E0.73137
G1 X69.668 Y96.837 E0.76569
G1 X68.638 Y97.361 E0.80002
G1 X67.573 Y97.813 E0.83434
G1 X66.480 Y98.189 E0.86867
G1 X65.364 Y98.488 E0.90299
G1 X63.585 Y98.834 E0.95680
G1 X63.585 Y94.673 E1.08034
G1 X65.057 Y94.319 E1.12531
G1 X66.055 Y93.988 E1.15653
G1 X67.022 Y93.574 E1.18776
G1 X67.950 Y93.079 E1.21899
G1 X68.833 Y92.508 E1.25022
G1 X69.665 Y91.864 E1.28145
G1 X70.440 Y91.153 E1.31267
G1 X71.151 Y90.378 E1.34390
G1 X71.795 Y89.546 E1.37513
G1 X72.366 Y88.663 E1.40636
G1 X72.861 Y87.735 E1.43759
G1 X73.275 Y86.768 E1.46881
G1 X73.606 Y85.770 E1.50004
G1 X73.960 Y84.298 E1.54501
G1 X78.061 Y84.298 E1.66677
M204 S1000
G1 E1.36677 F3000.00000
G92 E0
G1 Z0.210 F6000.000
G1 X77.688 Y84.655 F6000.000
G1 Z0.200 F6000.000
G1 E0.30000 F3000.00000
M204 S900
G1 F600
G1 X77.427 Y85.996 E0.34058
G1 X77.135 Y87.089 E0.37417
G1 X76.755 Y88.184 E0.40858
G1 X76.325 Y89.200 E0.44133
G1 X75.811 Y90.207 E0.47491
G1 X75.229 Y91.177 E0.50849
G1 X74.580 Y92.104 E0.54208
G1 X73.868 Y92.983 E0.57566
G1 X73.097 Y93.810 E0.60924
G1 X72.269 Y94.581 E0.64283
G1 X71.368 Y95.309 E0.67724
G1 X70.464 Y95.942 E0.70999
G1 X69.494 Y96.524 E0.74358
G1 X68.487 Y97.038 E0.77716
G1 X67.445 Y97.479 E0.81074
G1 X66.376 Y97.848 E0.84433
G1 X65.283 Y98.140 E0.87791
G1 X63.942 Y98.401 E0.91849
G1 X63.942 Y94.954 E1.02081
G1 X65.155 Y94.663 E1.05787
G1 X66.182 Y94.322 E1.09000
G1 X67.177 Y93.896 E1.12212
G1 X68.131 Y93.387 E1.15425
G1 X69.040 Y92.800 E1.18637
G1 X69.896 Y92.137 E1.21850
G1 X70.692 Y91.405 E1.25062
G1 X71.425 Y90.609 E1.28275
G1 X72.087 Y89.753 E1.31487
G1 X72.674 Y88.844 E1.34700
G1 X73.183 Y87.890 E1.37912
G1 X73.609 Y86.895 E1.41125
G1 X73.950 Y85.868 E1.44337
G1 X74.241 Y84.655 E1.48043
G1 X77.628 Y84.655 E1.58097
M204 S1000
G1 X78.088 Y84.664 F6000.000
G1 E1.28097 F3000.00000
G92 E0
G1 Z0.210 F6000.000
G1 X63.227 Y70.318 F6000.000
G1 Z0.200 F6000.000
G1 E0.30000 F3000.00000
M204 S900
G1 F1200
G1 X63.227 Y65.440 E0.44481
G1 X65.472 Y65.880 E0.51271
G1 X66.585 Y66.178 E0.54693
G1 X67.701 Y66.563 E0.58199
G1 X68.788 Y67.024 E0.61706
G1 X69.841 Y67.560 E0.65212
G1 X70.853 Y68.168 E0.68719
G1 X71.821 Y68.845 E0.72225
G1 X72.738 Y69.589 E0.75732
G1 X73.602 Y70.394 E0.79238
G1 X74.408 Y71.258 E0.82744
G1 X75.151 Y72.176 E0.86253
G1 X75.843 Y73.168 E0.89842
G1 X76.436 Y74.155 E0.93264
G1 X76.972 Y75.208 E0.96770
G1 X77.434 Y76.295 E1.00277
G1 X77.818 Y77.412 E1.03783
G1 X78.123 Y78.552 E1.07290
G1 X78.554 Y80.769 E1.13993
G1 X73.678 Y80.769 E1.28469
G1 X73.262 Y79.037 E1.33757
G1 X72.941 Y78.068 E1.36790
G1 X72.538 Y77.129 E1.39823
G1 X72.058 Y76.227 E1.42856
G1 X71.503 Y75.369 E1.45889
G1 X70.878 Y74.561 E1.48922
G1 X70.187 Y73.809 E1.51955
G1 X69.435 Y73.118 E1.54988
G1 X68.627 Y72.493 E1.58021
G1 X67.769 Y71.938 E1.61054
G1 X66.868 Y71.458 E1.64085
G1 X65.903 Y71.047 E1.67199
G1 X64.959 Y70.734 E1.70153
G1 X63.286 Y70.332 E1.75263
M204 S1000
G1 X63.585 Y70.036 F6000.000
M204 S900
G1 F1200
G1 X63.585 Y65.874 E1.87620
G1 X65.391 Y66.228 E1.93086
G1 X66.480 Y66.520 E1.96434
G1 X67.573 Y66.896 E1.99866
G1 X68.638 Y67.348 E2.03299
G1 X69.668 Y67.872 E2.06731
G1 X70.659 Y68.468 E2.10164
G1 X71.606 Y69.131 E2.13596
G1 X72.504 Y69.858 E2.17028
G1 X73.349 Y70.647 E2.20461
G1 X74.138 Y71.492 E2.23893
G1 X74.866 Y72.391 E2.27327
G1 X75.543 Y73.362 E2.30842
G1 X76.124 Y74.329 E2.34190
G1 X76.648 Y75.359 E2.37623
G1 X77.100 Y76.423 E2.41055
G1 X77.476 Y77.516 E2.44488
G1 X77.775 Y78.633 E2.47920
G1 X78.121 Y80.412 E2.53301
G1 X73.960 Y80.412 E2.65655
G1 X73.606 Y78.939 E2.70152
G1 X73.275 Y77.941 E2.73274
G1 X72.861 Y76.974 E2.76397
G1 X72.366 Y76.046 E2.79520
G1 X71.795 Y75.163 E2.82643
G1 X71.151 Y74.331 E2.85765
G1 X70.440 Y73.556 E2.88888
G1 X69.665 Y72.845 E2.92011
G1 X68.833 Y72.201 E2.95134
G1 X67.950 Y71.630 E2.98257
G1 X67.023 Y71.136 E3.01378
G1 X66.030 Y70.713 E3.04582
G1 X65.057 Y70.390 E3.07625
G1 X63.643 Y70.050 E3.11943
M204 S1000
G1 X63.942 Y69.755 F6000.000
M204 S900
G1 F600
G1 X63.942 Y66.308 E3.22177
G1 X65.310 Y66.576 E3.26318
G1 X66.376 Y66.862 E3.29593
G1 X67.445 Y67.230 E3.32952
G1 X68.487 Y67.672 E3.36310
G1 X69.494 Y68.185 E3.39668
G1 X70.464 Y68.767 E3.43027
G1 X71.391 Y69.416 E3.46385
G1 X72.270 Y70.128 E3.49743
G1 X73.097 Y70.899 E3.53102
G1 X73.868 Y71.727 E3.56460
G1 X74.580 Y72.606 E3.59819
G1 X75.243 Y73.556 E3.63260
G1 X75.811 Y74.502 E3.66535
G1 X76.325 Y75.510 E3.69893
G1 X76.766 Y76.551 E3.73252
G1 X77.135 Y77.620 E3.76610
G1 X77.427 Y78.713 E3.79968
G1 X77.688 Y80.055 E3.84026
G1 X74.241 Y80.055 E3.94259
G1 X73.950 Y78.841 E3.97964
G1 X73.609 Y77.814 E4.01177
G1 X73.183 Y76.820 E4.04389
G1 X72.674 Y75.865 E4.07602
G1 X72.087 Y74.956 E4.10814
G1 X71.425 Y74.100 E4.14027
G1 X70.692 Y73.304 E4.17239
G1 X69.896 Y72.572 E4.20452
G1 X69.040 Y71.910 E4.23664
G1 X68.131 Y71.322 E4.26877
G1 X67.177 Y70.813 E4.30089
G1 X66.156 Y70.379 E4.33383
G1 X65.155 Y70.046 E4.36514
G1 X64.000 Y69.769 E4.40042
M204 S1000
G1 X63.543 Y69.718 F6000.000
G1 E4.10042 F3000.00000
G92 E0
G1 Z0.210 F6000.000
G1 X60.056 Y65.442 F6000.000
G1 Z0.200 F6000.000
G1 E0.30000 F3000.00000
M204 S900
G1 F1200
G1 X60.056 Y70.318 E0.44476
G1 X58.324 Y70.734 E0.49763
G1 X57.355 Y71.055 E0.52796
G1 X56.416 Y71.458 E0.55829
G1 X55.514 Y71.938 E0.58862
G1 X54.656 Y72.493 E0.61895
G1 X53.869 Y73.102 E0.64850
G1 X53.096 Y73.810 E0.67964
G1 X52.405 Y74.561 E0.70994
G1 X51.780 Y75.369 E0.74025
G1 X51.213 Y76.251 E0.77139
G1 X50.745 Y77.129 E0.80093
G1 X50.342 Y78.068 E0.83127
G1 X50.021 Y79.037 E0.86160
G1 X49.605 Y80.769 E0.91447
G1 X44.729 Y80.769 E1.05923
G1 X45.160 Y78.552 E1.12626
G1 X45.465 Y77.412 E1.16133
G1 X45.850 Y76.295 E1.19639
G1 X46.311 Y75.208 E1.23146
G1 X46.847 Y74.155 E1.26652
G1 X47.455 Y73.143 E1.30159
G1 X48.133 Y72.176 E1.33665
G1 X48.876 Y71.258 E1.37172
G1 X49.681 Y70.394 E1.40678
G1 X50.545 Y69.589 E1.44185
G1 X51.463 Y68.845 E1.47691
G1 X52.430 Y68.168 E1.51198
G1 X53.442 Y67.560 E1.54704
G1 X54.495 Y67.024 E1.58211
G1 X55.582 Y66.563 E1.61717
G1 X56.699 Y66.178 E1.65224
G1 X57.839 Y65.873 E1.68730
G1 X59.997 Y65.454 E1.75256
M204 S1000
G1 E1.45256 F3000.00000
G92 E0
G1 Z0.210 F6000.000
G1 X59.699 Y65.875 F6000.000
G1 Z0.200 F6000.000
G1 E0.30000 F3000.00000
M204 S900
G1 F1200
G1 X59.699 Y70.036 E0.42354
G1 X58.226 Y70.390 E0.46851
G1 X57.228 Y70.721 E0.49973
G1 X56.261 Y71.136 E0.53096
G1 X55.333 Y71.630 E0.56219
G1 X54.450 Y72.201 E0.59342
G1 X53.639 Y72.828 E0.62385
G1 X52.843 Y73.557 E0.65589
G1 X52.132 Y74.331 E0.68710
G1 X51.489 Y75.162 E0.71831
G1 X50.904 Y76.070 E0.75035
G1 X50.423 Y76.974 E0.78078
G1 X50.008 Y77.941 E0.81201
G1 X49.677 Y78.939 E0.84324
G1 X49.323 Y80.412 E0.88820
G1 X45.162 Y80.412 E1.01174
G1 X45.508 Y78.633 E1.06555
G1 X45.807 Y77.516 E1.09988
G1 X46.183 Y76.423 E1.13420
G1 X46.635 Y75.359 E1.16852
G1 X47.160 Y74.329 E1.20285
G1 X47.755 Y73.338 E1.23717
G1 X48.418 Y72.391 E1.27150
G1 X49.145 Y71.492 E1.30582
G1 X49.934 Y70.647 E1.34015
G1 X50.779 Y69.858 E1.37447
G1 X51.678 Y69.131 E1.40879
G1 X52.625 Y68.468 E1.44312
G1 X53.616 Y67.872 E1.47744
G1 X54.646 Y67.348 E1.51177
G1 X55.710 Y66.896 E1.54609
G1 X56.803 Y66.520 E1.58041
G1 X57.920 Y66.221 E1.61474
G1 X59.640 Y65.887 E1.66676
M204 S1000
G1 E1.36676 F3000.00000
G92 E0
G1 Z0.210 F6000.000
G1 X59.342 Y66.309 F6000.000
G1 Z0.200 F6000.000
G1 E0.30000 F3000.00000
M204 S900
G1 F600
G1 X59.342 Y69.755 E0.40233
G1 X58.128 Y70.046 E0.43938
G1 X57.101 Y70.387 E0.47151
G1 X56.107 Y70.813 E0.50363
G1 X55.152 Y71.322 E0.53576
G1 X54.243 Y71.910 E0.56788
G1 X53.409 Y72.555 E0.59920
G1 X52.591 Y73.304 E0.63214
G1 X51.859 Y74.100 E0.66426
G1 X51.197 Y74.956 E0.69637
G1 X50.596 Y75.889 E0.72931
G1 X50.100 Y76.820 E0.76063
G1 X49.674 Y77.814 E0.79275
G1 X49.333 Y78.841 E0.82488
G1 X49.042 Y80.055 E0.86193
G1 X45.596 Y80.055 E0.96426
G1 X45.856 Y78.713 E1.00484
G1 X46.149 Y77.620 E1.03842
G1 X46.517 Y76.551 E1.07201
G1 X46.959 Y75.510 E1.10559
G1 X47.472 Y74.502 E1.13917
G1 X48.055 Y73.532 E1.17276
G1 X48.703 Y72.606 E1.20634
G1 X49.415 Y71.727 E1.23992
G1 X50.186 Y70.899 E1.27351
G1 X51.014 Y70.128 E1.30709
G1 X51.893 Y69.416 E1.34067
G1 X52.819 Y68.767 E1.37426
G1 X53.789 Y68.185 E1.40784
G1 X54.797 Y67.672 E1.44142
G1 X55.838 Y67.230 E1.47501
G1 X56.907 Y66.862 E1.50859
G1 X58.000 Y66.569 E1.54217
G1 X59.283 Y66.320 E1.58097
M204 S1000
G1 X59.741 Y66.279 F6000.000
G1 E1.28097 F3000.00000
G92 E0
G1 Z0.210 F6000.000
G1 X49.605 Y83.940 F6000.000
G1 Z0.200 F6000.000
G1 E0.30000 F3000.00000
M204 S900
G1 F1200
G1 X50.021 Y85.672 E0.35287
G1 X50.342 Y86.642 E0.38320
G1 X50.745 Y87.580 E0.41353
G1 X51.225 Y88.482 E0.44387
G1 X51.780 Y89.340 E0.47420
G1 X52.405 Y90.148 E0.50453
G1 X53.096 Y90.900 E0.53486
G1 X53.848 Y91.591 E0.56519
G1 X54.635 Y92.200 E0.59473
G1 X55.515 Y92.771 E0.62588
G1 X56.416 Y93.251 E0.65618
G1 X57.355 Y93.654 E0.68651
