; generated by Slic3r Prusa Edition 1.39.0 on 2018-12-15 at 18:17:21

; 

; external perimeters extrusion width = 0.40mm
; perimeters extrusion width = 0.40mm
; infill extrusion width = 0.40mm
; solid infill extrusion width = 0.40mm
; top infill extrusion width = 0.40mm
; first layer extrusion width = 0.50mm

M190 S60 ; set bed temperature and wait for it to be reached
M104 S215 ; set temperature
G28
;G29
G1 X0 F2000
G1 Y0 F2000
G92 E0
G1 E20 F400
G92 E0
; Filament gcode
M109 S215 ; set temperature and wait for it to be reached
G21 ; set units to millimeters
G90 ; use absolute coordinates
M82 ; use absolute distances for extrusion
G92 E0
M106 S229.5
G1 E-1.00000 F3000.00000
G92 E0
G1 Z0.010 F6000.000
G1 Z0.200 F6000.000
G1 Z0.210 F6000.000
G1 X42.065 Y81.520 F6000.000
G1 Z0.200 F6000.000
G1 E1.00000 F3000.00000
M204 S900
G1 F1200
G1 X43.430 Y80.993 E1.05559
G1 X44.863 Y80.663 E1.11149
G1 X46.352 Y80.539 E1.16829
G1 X56.085 Y80.538 E1.53819
G1 X167.918 Y81.610 E5.78875
G1 X169.868 Y81.826 E5.86333
G1 X171.736 Y82.403 E5.93760
G1 X172.968 Y83.014 E5.98988
G1 X174.108 Y83.782 E6.04215
G1 X175.137 Y84.695 E6.09443
G1 X176.036 Y85.736 E6.14670
G1 X176.790 Y86.887 E6.19897
G1 X177.387 Y88.135 E6.25155
G1 X177.811 Y89.443 E6.30382
G1 X178.058 Y90.796 E6.35610
G1 X178.126 Y91.963 E6.40053
G1 X178.124 Y127.171 E7.73864
G1 X177.906 Y129.105 E7.81262
G1 X177.330 Y130.964 E7.88659
G1 X176.666 Y132.285 E7.94279
G1 X175.821 Y133.499 E7.99898
G1 X174.807 Y134.585 E8.05548
G1 X173.653 Y135.510 E8.11168
G1 X172.380 Y136.262 E8.16787
G1 X171.006 Y136.828 E8.22437
G1 X169.572 Y137.191 E8.28057
G1 X168.102 Y137.345 E8.33676
G1 X145.083 Y137.700 E9.21174
G1 X121.798 Y137.868 E10.09671
G1 X112.092 Y137.868 E10.46561
G1 X89.526 Y137.689 E11.32331
G1 X67.113 Y137.162 E12.17537
G1 X45.984 Y136.269 E12.97913
G1 X44.204 Y136.030 E13.04739
G1 X42.485 Y135.484 E13.11594
G1 X40.839 Y134.619 E13.18660
G1 X39.374 Y133.474 E13.25727
G1 X38.138 Y132.085 E13.32793
G1 X37.165 Y130.491 E13.39889
G1 X36.517 Y128.825 E13.46685
G1 X32.976 Y116.183 E13.96583
G1 X32.697 Y114.836 E14.01811
G1 X32.598 Y113.464 E14.07038
G1 X32.601 Y103.163 E14.46190
G1 X32.689 Y102.037 E14.50482
G1 X32.901 Y100.920 E14.54804
G1 X36.768 Y87.244 E15.08817
G1 X37.286 Y86.090 E15.13622
G1 X37.940 Y85.009 E15.18427
G1 X38.721 Y84.015 E15.23232
G1 X39.624 Y83.118 E15.28067
G1 X40.788 Y82.233 E15.33627
G1 X42.013 Y81.549 E15.38958
M204 S1000
G1 X42.235 Y81.947 F6000.000
M204 S900
G1 F1200
G1 X43.587 Y81.423 E15.44466
G1 X44.966 Y81.110 E15.49843
G1 X46.368 Y80.996 E15.55189
G1 X56.085 Y80.995 E15.92119
G1 X167.912 Y82.067 E20.17153
G1 X169.758 Y82.270 E20.24209
G1 X171.533 Y82.814 E20.31265
G1 X172.718 Y83.397 E20.36287
G1 X173.815 Y84.134 E20.41309
G1 X174.805 Y85.009 E20.46331
G1 X175.669 Y86.009 E20.51354
G1 X176.393 Y87.114 E20.56376
G1 X176.964 Y88.306 E20.61398
G1 X177.370 Y89.564 E20.66421
G1 X177.607 Y90.872 E20.71472
G1 X177.669 Y91.966 E20.75639
G1 X177.668 Y127.151 E22.09363
G1 X177.464 Y128.988 E22.16389
G1 X176.922 Y130.756 E22.23416
G1 X176.287 Y132.029 E22.28821
G1 X175.477 Y133.198 E22.34227
G1 X174.513 Y134.233 E22.39603
G1 X173.406 Y135.126 E22.45009
G1 X172.182 Y135.851 E22.50415
G1 X170.867 Y136.393 E22.55820
G1 X169.488 Y136.741 E22.61226
G1 X168.074 Y136.889 E22.66632
G1 X145.076 Y137.243 E23.54046
G1 X121.804 Y137.411 E24.42500
G1 X112.094 Y137.411 E24.79404
G1 X89.539 Y137.232 E25.65130
G1 X67.126 Y136.705 E26.50336
G1 X46.012 Y135.813 E27.30654
G1 X44.318 Y135.587 E27.37151
G1 X42.694 Y135.076 E27.43617
G1 X41.104 Y134.246 E27.50437
G1 X39.683 Y133.137 E27.57287
G1 X38.492 Y131.795 E27.64107
G1 X37.558 Y130.254 E27.70957
G1 X36.953 Y128.688 E27.77335
G1 X33.410 Y116.037 E28.27266
G1 X33.148 Y114.758 E28.32230
G1 X33.055 Y113.455 E28.37193
G1 X33.058 Y103.176 E28.76262
G1 X33.143 Y102.091 E28.80399
G1 X33.345 Y101.029 E28.84506
G1 X37.183 Y87.438 E29.38182
G1 X37.676 Y86.330 E29.42791
G1 X38.301 Y85.290 E29.47400
G1 X39.048 Y84.335 E29.52010
G1 X39.912 Y83.473 E29.56648
G1 X41.031 Y82.620 E29.61995
G1 X42.183 Y81.977 E29.67010
M204 S1000
G1 X42.405 Y82.376 F6000.000
M204 S900
G1 F1200
G1 X43.747 Y81.852 E29.72485
G1 X45.073 Y81.556 E29.77649
G1 X46.383 Y81.452 E29.82641
G1 X56.085 Y81.452 E30.19515
G1 X167.899 Y82.524 E34.44499
G1 X169.649 Y82.714 E34.51188
G1 X171.326 Y83.223 E34.57849
G1 X172.465 Y83.779 E34.62668
G1 X173.526 Y84.487 E34.67515
G1 X174.476 Y85.327 E34.72333
G1 X175.305 Y86.285 E34.77152
G1 X175.999 Y87.346 E34.81970
G1 X176.545 Y88.491 E34.86789
G1 X176.933 Y89.698 E34.91608
G1 X177.156 Y90.954 E34.96455
G1 X177.212 Y91.962 E35.00293
G1 X177.211 Y127.132 E36.33961
G1 X177.020 Y128.874 E36.40621
G1 X176.512 Y130.551 E36.47282
G1 X175.910 Y131.769 E36.52446
G1 X175.139 Y132.888 E36.57610
G1 X174.216 Y133.885 E36.62775
G1 X173.154 Y134.744 E36.67968
G1 X171.979 Y135.441 E36.73161
G1 X170.722 Y135.959 E36.78325
G1 X169.405 Y136.292 E36.83489
G1 X168.046 Y136.432 E36.88682
G1 X145.070 Y136.786 E37.76014
G1 X121.801 Y136.954 E38.64455
G1 X112.095 Y136.954 E39.01344
G1 X89.544 Y136.775 E39.87055
G1 X67.146 Y136.248 E40.72202
G1 X46.040 Y135.356 E41.52493
G1 X44.445 Y135.147 E41.58607
G1 X42.901 Y134.667 E41.64750
G1 X41.366 Y133.871 E41.71324
G1 X39.995 Y132.803 E41.77927
G1 X38.848 Y131.508 E41.84502
G1 X37.952 Y130.019 E41.91105
G1 X37.389 Y128.553 E41.97075
G1 X33.844 Y115.893 E42.47041
G1 X33.598 Y114.680 E42.51744
G1 X33.512 Y113.446 E42.56448
G1 X33.515 Y103.196 E42.95402
G1 X33.595 Y102.159 E42.99356
G1 X33.789 Y101.137 E43.03310
G1 X37.602 Y87.622 E43.56679
G1 X38.072 Y86.560 E43.61094
G1 X38.668 Y85.563 E43.65509
G1 X39.383 Y84.647 E43.69925
G1 X40.210 Y83.820 E43.74368
G1 X41.290 Y82.996 E43.79533
G1 X42.353 Y82.405 E43.84155
M204 S1000
G1 E42.84155 F3000.00000
G92 E0
G1 Z0.210 F6000.000
G1 X47.634 Y92.073 F6000.000
G1 Z0.200 F6000.000
G1 E1.00000 F3000.00000
M204 S900
G1 F900
G1 X54.913 Y92.073 E1.27666
G1 X54.913 Y101.745 E1.64424
G1 X51.413 Y101.745 E1.77726
G1 X51.413 Y115.073 E2.28382
G1 X54.913 Y115.073 E2.41684
G1 X54.913 Y124.745 E2.78443
G1 X47.634 Y124.745 E3.06109
G1 X47.634 Y112.245 E3.53616
G1 X44.134 Y112.245 E3.66919
G1 X44.134 Y104.573 E3.96076
G1 X47.634 Y104.573 E4.09378
G1 X47.634 Y92.133 E4.56658
M204 S1000
G1 E3.56658 F3000.00000
G92 E0
G1 Z0.210 F6000.000
G1 X51.870 Y102.202 F6000.000
G1 Z0.200 F6000.000
G1 E1.00000 F3000.00000
M204 S900
G1 F900
G1 X51.870 Y114.616 E1.47182
G1 X55.370 Y114.616 E1.60484
G1 X55.370 Y125.202 E2.00717
G1 X47.177 Y125.202 E2.31857
G1 X47.177 Y112.702 E2.79365
G1 X43.677 Y112.702 E2.92667
G1 X43.677 Y104.116 E3.25298
G1 X47.177 Y104.116 E3.38601
G1 X47.177 Y91.616 E3.86109
G1 X55.370 Y91.616 E4.17248
G1 X55.370 Y102.202 E4.57481
G1 X51.930 Y102.202 E4.70555
M204 S1000
G1 E3.70555 F3000.00000
G92 E0
G1 Z0.210 F6000.000
G1 X52.327 Y102.659 F6000.000
G1 Z0.200 F6000.000
G1 E1.00000 F3000.00000
M204 S900
G1 F270
G1 X52.327 Y114.159 E1.43707
G1 X55.827 Y114.159 E1.57009
G1 X55.827 Y125.659 E2.00717
G1 X46.719 Y125.659 E2.35331
G1 X46.719 Y113.159 E2.82839
G1 X43.219 Y113.159 E2.96141
G1 X43.219 Y103.659 E3.32247
G1 X46.719 Y103.659 E3.45549
G1 X46.719 Y91.159 E3.93057
G1 X55.827 Y91.159 E4.27672
G1 X55.827 Y102.659 E4.71379
G1 X52.387 Y102.659 E4.84453
M204 S1000
G1 X51.963 Y102.824 F6000.000
G1 E3.84453 F3000.00000
G92 E0
G1 Z0.210 F6000.000
G1 X54.748 Y93.177 F6000.000
G1 Z0.200 F6000.000
G1 E1.00000 F3000.00000
M204 S900
G1 F750
G1 X54.015 Y92.444 E1.04002
G1 X53.359 Y92.444 E1.06536
G1 X54.543 Y93.628 E1.12998
G1 X54.543 Y94.284 E1.15531
G1 X52.702 Y92.444 E1.25576
G1 X52.046 Y92.444 E1.28109
G1 X54.543 Y94.940 E1.41737
G1 X54.543 Y95.597 E1.44270
G1 X51.389 Y92.444 E1.61480
G1 X50.733 Y92.444 E1.64014
G1 X54.543 Y96.253 E1.84806
G1 X54.543 Y96.910 E1.87340
G1 X50.077 Y92.444 E2.11715
G1 X49.420 Y92.444 E2.14249
G1 X54.543 Y97.566 E2.42207
G1 X54.543 Y98.222 E2.44740
G1 X48.764 Y92.444 E2.76281
G1 X48.107 Y92.444 E2.78814
G1 X54.543 Y98.879 E3.13937
G1 X54.543 Y99.535 E3.16471
G1 X48.004 Y92.996 E3.52159
G1 X48.004 Y93.653 E3.54693
G1 X54.543 Y100.192 E3.90381
G1 X54.543 Y100.848 E3.92914
G1 X48.004 Y94.309 E4.28603
G1 X48.004 Y94.966 E4.31136
G1 X54.413 Y101.375 E4.66118
G1 X53.757 Y101.375 E4.68651
G1 X48.004 Y95.622 E5.00050
G1 X48.004 Y96.278 E5.02583
G1 X53.100 Y101.375 E5.30399
G1 X52.444 Y101.375 E5.32933
G1 X48.004 Y96.935 E5.57166
G1 X48.004 Y97.591 E5.59699
G1 X51.787 Y101.375 E5.80350
G1 X51.131 Y101.375 E5.82884
G1 X48.004 Y98.248 E5.99952
G1 X48.004 Y98.904 E6.02485
G1 X51.043 Y101.943 E6.19071
G1 X51.043 Y102.599 E6.21604
G1 X48.004 Y99.560 E6.38189
G1 X48.004 Y100.217 E6.40723
G1 X51.043 Y103.256 E6.57308
G1 X51.043 Y103.912 E6.59842
G1 X48.004 Y100.873 E6.76427
G1 X48.004 Y101.530 E6.78960
G1 X51.043 Y104.568 E6.95546
G1 X51.043 Y105.225 E6.98079
G1 X48.004 Y102.186 E7.14665
G1 X48.004 Y102.842 E7.17198
G1 X51.043 Y105.881 E7.33784
G1 X51.043 Y106.538 E7.36317
G1 X48.004 Y103.499 E7.52903
G1 X48.004 Y104.155 E7.55436
G1 X51.043 Y107.194 E7.72021
G1 X51.043 Y107.850 E7.74555
G1 X48.004 Y104.812 E7.91140
G1 X48.004 Y104.944 E7.91649
G1 X47.479 Y104.944 E7.93674
G1 X51.043 Y108.507 E8.13122
G1 X51.043 Y109.163 E8.15655
G1 X46.823 Y104.944 E8.38686
G1 X46.167 Y104.944 E8.41219
G1 X51.043 Y109.820 E8.67833
G1 X51.043 Y110.476 E8.70366
G1 X45.510 Y104.944 E9.00562
G1 X44.854 Y104.944 E9.03095
G1 X51.043 Y111.132 E9.36874
G1 X51.043 Y111.789 E9.39407
G1 X44.504 Y105.250 E9.75096
G1 X44.504 Y105.906 E9.77629
G1 X51.043 Y112.445 E10.13318
G1 X51.043 Y113.102 E10.15851
G1 X44.504 Y106.563 E10.51540
G1 X44.504 Y107.219 E10.54073
G1 X51.043 Y113.758 E10.89762
G1 X51.043 Y114.414 E10.92295
G1 X44.504 Y107.876 E11.27983
G1 X44.504 Y108.532 E11.30517
G1 X54.543 Y118.571 E11.85308
G1 X54.543 Y117.914 E11.87842
G1 X52.072 Y115.444 E12.01327
G1 X52.728 Y115.444 E12.03861
G1 X54.543 Y117.258 E12.13764
G1 X54.543 Y116.602 E12.16297
G1 X53.385 Y115.444 E12.22618
G1 X54.041 Y115.444 E12.25151
G1 X54.748 Y116.151 E12.29012
M204 S1000
G1 E11.29012 F3000.00000
G92 E0
G1 Z0.210 F6000.000
G1 X54.748 Y119.433 F6000.000
G1 Z0.200 F6000.000
G1 E1.00000 F3000.00000
M204 S900
G1 F750
G1 X48.004 Y112.688 E1.36811
G1 X48.004 Y113.345 E1.39344
G1 X54.543 Y119.884 E1.75033
G1 X54.543 Y120.540 E1.77566
G1 X48.004 Y114.001 E2.13255
G1 X48.004 Y114.658 E2.15788
G1 X54.543 Y121.196 E2.51477
G1 X54.543 Y121.853 E2.54010
G1 X48.004 Y115.314 E2.89699
G1 X48.004 Y115.970 E2.92232
G1 X54.543 Y122.509 E3.27920
G1 X54.543 Y123.166 E3.30454
G1 X48.004 Y116.627 E3.66142
G1 X48.004 Y117.283 E3.68676
G1 X54.543 Y123.822 E4.04364
G1 X54.543 Y124.375 E4.06498
G1 X54.439 Y124.375 E4.06898
G1 X48.004 Y117.940 E4.42021
G1 X48.004 Y118.596 E4.44554
G1 X53.783 Y124.375 E4.76094
G1 X53.126 Y124.375 E4.78628
G1 X48.004 Y119.252 E5.06585
G1 X48.004 Y119.909 E5.09119
G1 X52.470 Y124.375 E5.33494
G1 X51.813 Y124.375 E5.36027
G1 X48.004 Y120.565 E5.56820
G1 X48.004 Y121.222 E5.59353
G1 X51.157 Y124.375 E5.76563
G1 X50.501 Y124.375 E5.79096
G1 X48.004 Y121.878 E5.92723
G1 X48.004 Y122.534 E5.95256
G1 X49.844 Y124.375 E6.05301
G1 X49.188 Y124.375 E6.07834
G1 X48.004 Y123.191 E6.14296
G1 X48.004 Y123.847 E6.16830
G1 X48.737 Y124.580 E6.20831
M204 S1000
G1 E5.20831 F3000.00000
G92 E0
G1 Z0.210 F6000.000
G1 X47.396 Y112.080 F6000.000
G1 Z0.200 F6000.000
G1 E1.00000 F3000.00000
M204 S900
G1 F750
G1 X44.504 Y109.188 E1.15785
G1 X44.504 Y109.845 E1.18318
G1 X46.534 Y111.875 E1.29398
G1 X45.877 Y111.875 E1.31931
G1 X44.504 Y110.501 E1.39428
G1 X44.504 Y111.158 E1.41961
G1 X45.221 Y111.875 E1.45875
G1 X44.565 Y111.875 E1.48409
G1 X44.298 Y111.608 E1.49863
M204 S1000
G1 E0.49863 F3000.00000
G92 E0
G1 Z0.210 F6000.000
G1 X72.395 Y102.632 F6000.000
G1 Z0.200 F6000.000
G1 E1.00000 F3000.00000
M204 S900
G1 F900
G1 X72.395 Y115.960 E1.50656
G1 X75.895 Y115.960 E1.63958
G1 X75.895 Y125.632 E2.00717
G1 X68.616 Y125.632 E2.28382
G1 X68.616 Y113.132 E2.75890
G1 X65.116 Y113.132 E2.89192
G1 X65.116 Y105.460 E3.18350
G1 X68.616 Y105.460 E3.31652
G1 X68.616 Y92.960 E3.79160
G1 X75.895 Y92.960 E4.06825
G1 X75.895 Y102.632 E4.43584
G1 X72.455 Y102.632 E4.56658
M204 S1000
G1 E3.56658 F3000.00000
G92 E0
G1 Z0.210 F6000.000
G1 X72.852 Y103.089 F6000.000
G1 Z0.200 F6000.000
G1 E1.00000 F3000.00000
M204 S900
G1 F900
G1 X72.852 Y115.503 E1.47182
G1 X76.352 Y115.503 E1.60484
G1 X76.352 Y126.089 E2.00717
G1 X68.159 Y126.089 E2.31857
G1 X68.159 Y113.589 E2.79365
G1 X64.659 Y113.589 E2.92667
G1 X64.659 Y105.003 E3.25298
G1 X68.159 Y105.003 E3.38601
G1 X68.159 Y92.503 E3.86109
G1 X76.352 Y92.503 E4.17248
G1 X76.352 Y103.089 E4.57481
G1 X72.912 Y103.089 E4.70555
M204 S1000
G1 E3.70555 F3000.00000
G92 E0
G1 Z0.210 F6000.000
G1 X73.310 Y103.546 F6000.000
G1 Z0.200 F6000.000
G1 E1.00000 F3000.00000
M204 S900
G1 F270
G1 X73.310 Y115.046 E1.43707
G1 X76.810 Y115.046 E1.57009
G1 X76.810 Y126.546 E2.00717
G1 X67.702 Y126.546 E2.35331
G1 X67.702 Y114.046 E2.82839
G1 X64.202 Y114.046 E2.96141
G1 X64.202 Y104.546 E3.32247
G1 X67.702 Y104.546 E3.45549
G1 X67.702 Y92.046 E3.93057
G1 X76.810 Y92.046 E4.27672
G1 X76.810 Y103.546 E4.71379
G1 X73.370 Y103.546 E4.84453
M204 S1000
G1 X72.945 Y103.711 F6000.000
G1 E3.84453 F3000.00000
G92 E0
G1 Z0.210 F6000.000
G1 X75.731 Y94.064 F6000.000
G1 Z0.200 F6000.000
G1 E1.00000 F3000.00000
M204 S900
G1 F750
G1 X74.998 Y93.331 E1.04002
G1 X74.341 Y93.331 E1.06536
G1 X75.525 Y94.515 E1.12998
G1 X75.525 Y95.171 E1.15531
G1 X73.685 Y93.331 E1.25576
G1 X73.028 Y93.331 E1.28109
G1 X75.525 Y95.827 E1.41737
G1 X75.525 Y96.484 E1.44270
G1 X72.372 Y93.331 E1.61480
G1 X71.716 Y93.331 E1.64014
G1 X75.525 Y97.140 E1.84806
G1 X75.525 Y97.797 E1.87340
G1 X71.059 Y93.331 E2.11715
G1 X70.403 Y93.331 E2.14249
G1 X75.525 Y98.453 E2.42207
G1 X75.525 Y99.109 E2.44740
G1 X69.746 Y93.331 E2.76281
G1 X69.090 Y93.331 E2.78814
G1 X75.525 Y99.766 E3.13937
G1 X75.525 Y100.422 E3.16471
G1 X68.986 Y93.884 E3.52159
G1 X68.986 Y94.540 E3.54693
G1 X75.525 Y101.079 E3.90381
G1 X75.525 Y101.735 E3.92914
G1 X68.986 Y95.196 E4.28603
G1 X68.986 Y95.853 E4.31136
G1 X75.396 Y102.262 E4.66118
G1 X74.739 Y102.262 E4.68651
G1 X68.986 Y96.509 E5.00050
G1 X68.986 Y97.166 E5.02583
G1 X74.083 Y102.262 E5.30399
G1 X73.426 Y102.262 E5.32933
G1 X68.986 Y97.822 E5.57166
G1 X68.986 Y98.478 E5.59699
G1 X72.770 Y102.262 E5.80350
G1 X72.114 Y102.262 E5.82884
G1 X68.986 Y99.135 E5.99952
G1 X68.986 Y99.791 E6.02485
G1 X72.025 Y102.830 E6.19071
G1 X72.025 Y103.486 E6.21604
G1 X68.986 Y100.448 E6.38189
G1 X68.986 Y101.104 E6.40723
G1 X72.025 Y104.143 E6.57308
G1 X72.025 Y104.799 E6.59842
G1 X68.986 Y101.760 E6.76427
G1 X68.986 Y102.417 E6.78960
G1 X72.025 Y105.456 E6.95546
G1 X72.025 Y106.112 E6.98079
G1 X68.986 Y103.073 E7.14665
G1 X68.986 Y103.730 E7.17198
G1 X72.025 Y106.768 E7.33784
G1 X72.025 Y107.425 E7.36317
G1 X68.986 Y104.386 E7.52903
G1 X68.986 Y105.042 E7.55436
G1 X72.025 Y108.081 E7.72021
G1 X72.025 Y108.738 E7.74555
G1 X68.986 Y105.699 E7.91140
G1 X68.986 Y105.831 E7.91649
G1 X68.462 Y105.831 E7.93674
G1 X72.025 Y109.394 E8.13122
G1 X72.025 Y110.050 E8.15655
G1 X67.806 Y105.831 E8.38686
G1 X67.149 Y105.831 E8.41219
G1 X72.025 Y110.707 E8.67833
G1 X72.025 Y111.363 E8.70366
G1 X66.493 Y105.831 E9.00562
G1 X65.836 Y105.831 E9.03095
G1 X72.025 Y112.020 E9.36874
G1 X72.025 Y112.676 E9.39407
G1 X65.486 Y106.137 E9.75096
G1 X65.486 Y106.794 E9.77629
G1 X72.025 Y113.332 E10.13318
G1 X72.025 Y113.989 E10.15851
G1 X65.486 Y107.450 E10.51540
G1 X65.486 Y108.106 E10.54073
G1 X72.025 Y114.645 E10.89762
G1 X72.025 Y115.302 E10.92295
G1 X65.486 Y108.763 E11.27983
G1 X65.486 Y109.419 E11.30517
G1 X75.525 Y119.458 E11.85308
G1 X75.525 Y118.802 E11.87842
G1 X73.054 Y116.331 E12.01327
G1 X73.711 Y116.331 E12.03861
G1 X75.525 Y118.145 E12.13764
G1 X75.525 Y117.489 E12.16297
G1 X74.367 Y116.331 E12.22618
G1 X75.024 Y116.331 E12.25151
G1 X75.731 Y117.038 E12.29012
M204 S1000
G1 E11.29012 F3000.00000
G92 E0
G1 Z0.210 F6000.000
G1 X75.731 Y120.320 F6000.000
G1 Z0.200 F6000.000
G1 E1.00000 F3000.00000
M204 S900
G1 F750
G1 X68.986 Y113.576 E1.36811
G1 X68.986 Y114.232 E1.39344
