; generated by Slic3r Prusa Edition 1.39.0 on 2018-12-13 at 12:45:39

; 

; external perimeters extrusion width = 0.40mm
; perimeters extrusion width = 0.40mm
; infill extrusion width = 0.40mm
; solid infill extrusion width = 0.40mm
; top infill extrusion width = 0.40mm

M107
M190 S60 ; set bed temperature and wait for it to be reached
M104 S215 ; set temperature
G28
;G29
G1 X0 F2000
G1 Y0 F2000
G92 E0
G1 E20 F400
G92 E0
; Filament gcode
M109 S215 ; set temperature and wait for it to be reached
G21 ; set units to millimeters
G90 ; use absolute coordinates
M82 ; use absolute distances for extrusion
G92 E0
G1 E-0.30000 F3000.00000
G92 E0
G1 Z0.010 F6000.000
G1 Z0.200 F6000.000
G1 Z0.210 F6000.000
G1 X88.223 Y65.532 F6000.000
G1 Z0.200 F6000.000
G1 E0.30000 F3000.00000
M204 S900
G1 F1200
G1 X89.430 Y64.228 E0.35274
G1 X90.854 Y63.167 E0.40548
G1 X92.447 Y62.382 E0.45822
G1 X94.157 Y61.901 E0.51095
G1 X95.934 Y61.739 E0.56392
G1 X97.116 Y61.812 E0.59911
G1 X98.274 Y62.028 E0.63406
G1 X99.397 Y62.381 E0.66902
G1 X100.469 Y62.868 E0.70398
G1 X101.474 Y63.481 E0.73894
G1 X102.398 Y64.211 E0.77390
G1 X103.226 Y65.048 E0.80885
G1 X103.952 Y65.985 E0.84404
G1 X142.084 Y129.500 E3.04366
G1 X142.737 Y131.300 E3.10050
G1 X143.025 Y133.200 E3.15756
G1 X142.989 Y140.026 E3.36025
G1 X142.904 Y141.008 E3.38950
G1 X142.719 Y141.983 E3.41898
G1 X142.410 Y143.007 E3.45074
G1 X141.986 Y143.998 E3.48273
G1 X141.459 Y144.929 E3.51450
G1 X140.828 Y145.802 E3.54649
G1 X140.110 Y146.595 E3.57825
G1 X139.303 Y147.309 E3.61024
G1 X138.422 Y147.929 E3.64223
G1 X137.477 Y148.448 E3.67422
G1 X136.525 Y148.843 E3.70484
G1 X135.528 Y149.138 E3.73569
G1 X134.514 Y149.323 E3.76631
G1 X133.485 Y149.399 E3.79694
G1 X95.047 Y149.362 E4.93823
G1 X93.808 Y149.168 E4.97547
G1 X92.604 Y148.816 E5.01271
G1 X91.455 Y148.313 E5.04995
G1 X90.381 Y147.665 E5.08719
G1 X89.399 Y146.884 E5.12443
G1 X88.526 Y145.984 E5.16167
G1 X87.777 Y144.978 E5.19891
G1 X87.163 Y143.885 E5.23615
G1 X86.760 Y142.910 E5.26745
G1 X86.464 Y141.898 E5.29876
G1 X86.280 Y140.860 E5.33006
G1 X86.210 Y139.808 E5.36137
G1 X86.209 Y71.445 E7.39114
G1 X86.264 Y70.423 E7.42153
G1 X86.613 Y68.682 E7.47427
G1 X87.273 Y67.033 E7.52701
G1 X88.191 Y65.582 E7.57797
M204 S1000
G1 X88.489 Y65.771 F6000.000
M204 S900
G1 F1200
G1 X89.655 Y64.506 E7.62905
G1 X91.027 Y63.480 E7.67992
G1 X92.569 Y62.718 E7.73100
G1 X94.218 Y62.253 E7.78187
G1 X95.932 Y62.096 E7.83295
G1 X97.062 Y62.166 E7.86659
G1 X98.184 Y62.373 E7.90045
G1 X99.272 Y62.716 E7.93431
G1 X100.310 Y63.188 E7.96817
G1 X101.283 Y63.783 E8.00203
G1 X102.176 Y64.492 E8.03589
G1 X102.976 Y65.304 E8.06976
G1 X103.668 Y66.201 E8.10339
G1 X141.753 Y129.636 E10.30022
G1 X142.389 Y131.379 E10.35533
G1 X142.668 Y133.214 E10.41044
G1 X142.632 Y139.996 E10.61181
G1 X142.382 Y141.858 E10.66758
G1 X142.087 Y142.850 E10.69831
G1 X141.684 Y143.803 E10.72903
G1 X141.178 Y144.706 E10.75976
G1 X140.571 Y145.553 E10.79071
G1 X139.879 Y146.322 E10.82143
G1 X139.100 Y147.015 E10.85238
G1 X138.255 Y147.612 E10.88310
G1 X137.343 Y148.117 E10.91405
G1 X136.423 Y148.501 E10.94366
G1 X135.460 Y148.787 E10.97349
G1 X134.471 Y148.968 E11.00331
G1 X133.477 Y149.042 E11.03292
G1 X95.108 Y149.009 E12.17214
G1 X93.914 Y148.826 E12.20802
G1 X92.753 Y148.491 E12.24389
G1 X91.645 Y148.009 E12.27977
G1 X90.608 Y147.388 E12.31564
G1 X89.660 Y146.639 E12.35152
G1 X88.817 Y145.774 E12.38740
G1 X88.087 Y144.801 E12.42350
G1 X87.494 Y143.749 E12.45937
G1 X87.102 Y142.807 E12.48965
G1 X86.813 Y141.821 E12.52015
G1 X86.635 Y140.817 E12.55043
G1 X86.567 Y139.800 E12.58070
G1 X86.616 Y70.495 E14.63845
G1 X86.946 Y68.814 E14.68932
G1 X87.578 Y67.222 E14.74018
G1 X88.457 Y65.822 E14.78926
M204 S1000
G1 E14.48926 F3000.00000
G92 E0
G1 Z0.210 F6000.000
G1 X119.060 Y129.581 F6000.000
G1 Z0.200 F6000.000
G1 E0.30000 F3000.00000
M204 S900
G1 F1200
G1 X117.837 Y127.547 E0.37046
G1 X117.570 Y127.276 E0.38176
G1 X117.232 Y126.820 E0.39861
G1 X116.882 Y126.091 E0.42263
G1 X116.813 Y125.841 E0.43032
G1 X111.818 Y117.529 E0.71824
G1 X111.561 Y117.266 E0.72918
G1 X111.229 Y116.814 E0.74582
G1 X110.883 Y116.093 E0.76956
G1 X110.818 Y115.864 E0.77663
G1 X105.742 Y107.417 E1.06923
G1 X105.118 Y106.632 E1.09901
G1 X104.859 Y106.029 E1.11850
G1 X104.817 Y105.878 E1.12316
G1 X99.774 Y97.483 E1.41392
G1 X99.559 Y97.264 E1.42303
G1 X99.234 Y96.824 E1.43927
G1 X98.888 Y96.104 E1.46299
G1 X98.830 Y95.913 E1.46892
G1 X93.691 Y87.360 E1.76519
G1 X93.141 Y86.671 E1.79137
G1 X92.863 Y86.038 E1.81187
G1 X92.826 Y85.912 E1.81578
G1 X92.108 Y84.619 E1.85970
G1 X91.817 Y83.381 E1.89746
G1 X91.883 Y70.391 E2.28316
G1 X92.341 Y69.228 E2.32027
G1 X92.887 Y68.534 E2.34648
G1 X93.532 Y67.996 E2.37144
G1 X95.372 Y67.340 E2.42944
G1 X96.833 Y67.341 E2.47279
G1 X98.094 Y67.848 E2.51315
G1 X99.093 Y68.755 E2.55323
G1 X137.081 Y131.978 E4.74319
G1 X137.407 Y133.051 E4.77649
G1 X137.465 Y133.586 E4.79248
G1 X137.386 Y134.249 E4.81231
G1 X137.341 Y140.473 E4.99711
G1 X137.115 Y141.245 E5.02100
G1 X136.719 Y141.984 E5.04587
G1 X135.839 Y142.915 E5.08393
G1 X135.268 Y143.324 E5.10478
G1 X133.759 Y143.794 E5.15169
G1 X95.519 Y143.794 E6.28710
G1 X94.620 Y143.615 E6.31431
G1 X93.737 Y143.202 E6.34325
G1 X92.701 Y142.251 E6.38501
G1 X92.287 Y141.675 E6.40608
G1 X91.816 Y140.159 E6.45321
G1 X91.877 Y132.813 E6.67132
G1 X92.124 Y132.056 E6.69496
G1 X92.708 Y131.093 E6.72839
G1 X93.505 Y130.336 E6.76102
G1 X94.498 Y129.802 E6.79450
G1 X95.536 Y129.581 E6.82603
G1 X119.000 Y129.581 E7.52268
M204 S1000
G1 E7.22268 F3000.00000
G92 E0
G1 Z0.210 F6000.000
G1 X119.691 Y129.938 F6000.000
G1 Z0.200 F6000.000
G1 E0.30000 F3000.00000
M204 S900
G1 F1200
G1 X118.121 Y127.325 E0.39051
G1 X117.847 Y127.051 E0.40200
G1 X117.546 Y126.649 E0.41692
G1 X117.211 Y125.953 E0.43986
G1 X117.146 Y125.702 E0.44755
G1 X112.102 Y117.308 E0.73830
G1 X111.840 Y117.043 E0.74937
G1 X111.526 Y116.617 E0.76508
G1 X111.213 Y115.956 E0.78680
G1 X111.150 Y115.724 E0.79394
G1 X106.035 Y107.211 E1.08880
G1 X105.436 Y106.468 E1.11714
G1 X105.193 Y105.901 E1.13546
G1 X105.150 Y105.738 E1.14046
G1 X100.057 Y97.262 E1.43406
G1 X99.839 Y97.041 E1.44331
G1 X99.532 Y96.626 E1.45863
G1 X99.217 Y95.965 E1.48035
G1 X99.161 Y95.770 E1.48638
G1 X93.985 Y87.156 E1.78478
G1 X93.436 Y86.467 E1.81092
G1 X93.197 Y85.910 E1.82892
G1 X93.159 Y85.775 E1.83309
G1 X92.449 Y84.511 E1.87612
G1 X92.174 Y83.361 E1.91125
G1 X92.228 Y70.489 E2.29344
G1 X92.639 Y69.426 E2.32727
G1 X93.130 Y68.796 E2.35099
G1 X93.736 Y68.291 E2.37440
G1 X95.462 Y67.687 E2.42869
G1 X96.734 Y67.685 E2.46648
G1 X97.880 Y68.135 E2.50302
G1 X98.801 Y68.962 E2.53978
G1 X136.763 Y132.142 E4.72825
G1 X137.060 Y133.136 E4.75905
G1 X137.108 Y133.601 E4.77294
G1 X137.029 Y134.225 E4.79161
G1 X136.991 Y140.399 E4.97491
G1 X136.790 Y141.096 E4.99647
G1 X136.443 Y141.757 E5.01863
G1 X135.590 Y142.659 E5.05547
G1 X135.131 Y142.993 E5.07232
G1 X133.731 Y143.437 E5.11593
G1 X95.537 Y143.437 E6.24997
G1 X94.713 Y143.270 E6.27494
G1 X93.916 Y142.891 E6.30114
G1 X92.956 Y142.001 E6.34001
G1 X92.618 Y141.538 E6.35702
G1 X92.174 Y140.133 E6.40079
G1 X92.225 Y132.896 E6.61567
G1 X92.441 Y132.221 E6.63671
G1 X92.972 Y131.335 E6.66737
G1 X93.733 Y130.612 E6.69852
G1 X94.642 Y130.130 E6.72909
G1 X95.555 Y129.938 E6.75677
G1 X119.631 Y129.938 E7.47163
M204 S1000
G1 E7.17163 F3000.00000
G92 E0
G1 Z0.210 F6000.000
G1 X120.322 Y130.295 F6000.000
G1 Z0.200 F6000.000
G1 E0.30000 F3000.00000
M204 S900
G1 F1200
G1 X118.404 Y127.102 E0.41059
G1 X118.125 Y126.826 E0.42224
G1 X117.843 Y126.450 E0.43621
G1 X117.542 Y125.817 E0.45700
G1 X117.480 Y125.565 E0.46470
G1 X112.386 Y117.087 E0.75839
G1 X112.118 Y116.819 E0.76963
G1 X111.841 Y116.447 E0.78339
G1 X111.544 Y115.820 E0.80401
G1 X111.484 Y115.586 E0.81117
G1 X106.328 Y107.005 E1.10841
G1 X105.754 Y106.304 E1.13530
G1 X105.528 Y105.775 E1.15239
G1 X105.485 Y105.602 E1.15769
G1 X100.341 Y97.040 E1.45425
G1 X100.117 Y96.817 E1.46361
G1 X99.830 Y96.428 E1.47799
G1 X99.547 Y95.829 E1.49766
G1 X99.493 Y95.630 E1.50379
G1 X94.278 Y86.950 E1.80444
G1 X93.754 Y86.303 E1.82914
G1 X93.531 Y85.783 E1.84596
G1 X93.493 Y85.640 E1.85036
G1 X92.790 Y84.402 E1.89262
G1 X92.531 Y83.340 E1.92508
G1 X92.573 Y70.585 E2.30379
G1 X92.939 Y69.623 E2.33436
G1 X93.374 Y69.058 E2.35555
G1 X93.939 Y68.587 E2.37738
G1 X95.550 Y68.034 E2.42793
G1 X96.638 Y68.031 E2.46026
G1 X97.668 Y68.425 E2.49300
G1 X98.509 Y69.170 E2.52637
G1 X136.445 Y132.306 E4.71332
G1 X136.712 Y133.219 E4.74157
G1 X136.751 Y133.614 E4.75336
G1 X136.672 Y134.200 E4.77091
G1 X136.640 Y140.325 E4.95278
G1 X136.465 Y140.947 E4.97196
G1 X136.138 Y141.568 E4.99279
G1 X135.344 Y142.400 E5.02694
G1 X134.946 Y142.687 E5.04150
G1 X133.704 Y143.079 E5.08019
G1 X95.555 Y143.079 E6.21286
G1 X94.807 Y142.925 E6.23554
G1 X94.096 Y142.582 E6.25898
G1 X93.213 Y141.753 E6.29494
G1 X92.924 Y141.353 E6.30960
G1 X92.531 Y140.107 E6.34840
G1 X92.574 Y132.976 E6.56011
G1 X92.760 Y132.384 E6.57855
G1 X93.238 Y131.575 E6.60645
G1 X93.922 Y130.916 E6.63466
G1 X94.787 Y130.457 E6.66372
G1 X95.573 Y130.295 E6.68754
G1 X120.262 Y130.295 E7.42060
M204 S1000
G1 E7.12060 F3000.00000
G92 E0
G1 Z0.210 F6000.000
G1 X120.953 Y130.652 F6000.000
G1 Z0.200 F6000.000
G1 E0.30000 F3000.00000
M204 S900
G1 F1200
G1 X118.686 Y126.879 E0.43070
G1 X118.402 Y126.601 E0.44250
G1 X118.140 Y126.250 E0.45549
G1 X117.874 Y125.684 E0.47405
G1 X117.816 Y125.431 E0.48177
G1 X112.668 Y116.864 E0.77852
G1 X112.396 Y116.594 E0.78991
G1 X112.139 Y116.249 E0.80270
G1 X111.875 Y115.687 E0.82113
G1 X111.819 Y115.451 E0.82833
G1 X106.621 Y106.799 E1.12802
G1 X106.048 Y106.099 E1.15487
G1 X105.864 Y105.654 E1.16915
G1 X105.821 Y105.467 E1.17485
G1 X100.623 Y96.817 E1.47449
G1 X100.394 Y96.592 E1.48403
G1 X100.145 Y96.259 E1.49638
G1 X99.878 Y95.693 E1.51494
G1 X99.827 Y95.492 E1.52112
G1 X94.571 Y86.744 E1.82411
G1 X94.048 Y86.099 E1.84876
G1 X93.866 Y85.660 E1.86286
G1 X93.828 Y85.506 E1.86761
G1 X93.130 Y84.291 E1.90920
G1 X92.888 Y83.318 E1.93896
G1 X92.919 Y70.679 E2.31424
G1 X93.238 Y69.819 E2.34148
G1 X93.645 Y69.292 E2.36124
G1 X94.140 Y68.884 E2.38030
G1 X95.636 Y68.381 E2.42714
G1 X96.545 Y68.377 E2.45415
G1 X97.459 Y68.716 E2.48309
G1 X98.218 Y69.379 E2.51300
G1 X136.127 Y132.469 E4.69839
G1 X136.364 Y133.300 E4.72405
G1 X136.393 Y133.624 E4.73371
G1 X136.315 Y134.174 E4.75019
G1 X136.290 Y140.254 E4.93072
G1 X136.140 Y140.798 E4.94749
G1 X135.834 Y141.379 E4.96697
G1 X135.099 Y142.139 E4.99836
G1 X134.762 Y142.379 E5.01066
G1 X133.676 Y142.722 E5.04446
G1 X95.574 Y142.722 E6.17576
G1 X94.904 Y142.580 E6.19612
G1 X94.279 Y142.274 E6.21678
G1 X93.473 Y141.507 E6.24982
G1 X93.231 Y141.169 E6.26216
G1 X92.888 Y140.081 E6.29603
G1 X92.923 Y133.055 E6.50463
G1 X93.079 Y132.544 E6.52049
G1 X93.504 Y131.814 E6.54557
G1 X94.151 Y131.191 E6.57224
G1 X94.929 Y130.786 E6.59828
G1 X95.590 Y130.652 E6.61831
G1 X120.893 Y130.652 E7.36959
M204 S1000
G1 E7.06959 F3000.00000
G92 E0
G1 Z0.210 F6000.000
G1 X121.584 Y131.009 F6000.000
G1 Z0.200 F6000.000
G1 E0.30000 F3000.00000
M204 S900
G1 F1200
G1 X118.968 Y126.655 E0.45084
G1 X118.677 Y126.373 E0.46286
G1 X118.455 Y126.081 E0.47375
G1 X118.207 Y125.553 E0.49106
G1 X118.154 Y125.300 E0.49873
G1 X112.951 Y116.641 E0.79868
G1 X112.672 Y116.367 E0.81029
G1 X112.454 Y116.079 E0.82101
G1 X112.208 Y115.555 E0.83821
G1 X112.156 Y115.319 E0.84539
G1 X106.912 Y106.591 E1.14771
G1 X106.367 Y105.937 E1.17299
G1 X106.201 Y105.534 E1.18592
G1 X106.158 Y105.336 E1.19195
G1 X100.905 Y96.593 E1.49479
G1 X100.671 Y96.366 E1.50447
G1 X100.442 Y96.060 E1.51582
G1 X100.211 Y95.561 E1.53213
G1 X100.162 Y95.357 E1.53837
G1 X94.863 Y86.537 E1.84388
G1 X94.368 Y85.937 E1.86697
G1 X94.203 Y85.539 E1.87978
G1 X94.164 Y85.373 E1.88482
G1 X93.470 Y84.178 E1.92586
G1 X93.245 Y83.296 E1.95289
G1 X93.265 Y70.771 E2.32479
G1 X93.540 Y70.012 E2.34873
G1 X93.888 Y69.554 E2.36583
G1 X94.341 Y69.181 E2.38325
G1 X95.720 Y68.729 E2.42634
G1 X96.456 Y68.723 E2.44819
G1 X97.253 Y69.009 E2.47332
G1 X97.927 Y69.588 E2.49970
G1 X135.808 Y132.632 E4.68348
G1 X136.015 Y133.378 E4.70647
G1 X136.036 Y133.631 E4.71401
G1 X135.958 Y134.146 E4.72946
G1 X135.939 Y140.184 E4.90876
G1 X135.814 Y140.650 E4.92308
G1 X135.531 Y141.189 E4.94116
G1 X134.857 Y141.876 E4.96974
G1 X134.580 Y142.071 E4.97980
G1 X133.649 Y142.365 E5.00878
G1 X95.594 Y142.365 E6.13867
G1 X95.002 Y142.237 E6.15665
G1 X94.464 Y141.968 E6.17454
G1 X93.734 Y141.263 E6.20466
G1 X93.539 Y140.986 E6.21469
G1 X93.245 Y140.054 E6.24371
G1 X93.273 Y133.132 E6.44926
G1 X93.400 Y132.702 E6.46255
G1 X93.772 Y132.051 E6.48482
G1 X94.340 Y131.496 E6.50841
G1 X95.071 Y131.115 E6.53288
G1 X95.607 Y131.009 E6.54910
G1 X121.524 Y131.009 E7.31862
M204 S1000
G1 E7.01862 F3000.00000
G92 E0
G1 Z0.210 F6000.000
G1 X122.215 Y131.366 F6000.000
G1 Z0.200 F6000.000
G1 E0.30000 F3000.00000
M204 S900
G1 F1200
G1 X119.250 Y126.431 E0.47096
G1 X118.936 Y126.126 E0.48394
G1 X118.752 Y125.882 E0.49303
G1 X118.542 Y125.426 E0.50793
G1 X118.494 Y125.173 E0.51558
G1 X113.234 Y116.418 E0.81884
G1 X112.932 Y116.122 E0.83139
G1 X112.751 Y115.881 E0.84033
G1 X112.542 Y115.427 E0.85516
G1 X112.496 Y115.190 E0.86233
G1 X107.203 Y106.381 E1.16748
G1 X106.686 Y105.773 E1.19116
G1 X106.538 Y105.416 E1.20265
G1 X106.497 Y105.207 E1.20896
G1 X101.186 Y96.368 E1.51515
G1 X100.945 Y96.136 E1.52506
G1 X100.757 Y95.891 E1.53424
G1 X100.544 Y95.431 E1.54929
G1 X100.500 Y95.226 E1.55553
G1 X95.154 Y86.328 E1.86375
G1 X94.687 Y85.774 E1.88524
G1 X94.539 Y85.419 E1.89667
G1 X94.502 Y85.243 E1.90199
G1 X93.809 Y84.063 E1.94264
G1 X93.602 Y83.273 E1.96690
G1 X93.612 Y70.859 E2.33546
G1 X93.841 Y70.205 E2.35604
G1 X94.159 Y69.788 E2.37163
G1 X94.539 Y69.480 E2.38613
G1 X95.800 Y69.078 E2.42545
G1 X96.421 Y69.080 E2.44388
G1 X97.097 Y69.332 E2.46531
G1 X97.635 Y69.796 E2.48640
G1 X135.489 Y132.794 E4.66858
G1 X135.666 Y133.452 E4.68882
G1 X135.678 Y133.633 E4.69422
G1 X135.601 Y134.116 E4.70873
G1 X135.588 Y140.117 E4.88691
G1 X135.486 Y140.507 E4.89888
G1 X135.256 Y140.959 E4.91395
G1 X134.614 Y141.614 E4.94115
G1 X134.399 Y141.762 E4.94891
G1 X133.622 Y142.008 E4.97313
G1 X95.614 Y142.008 E6.10161
G1 X95.104 Y141.893 E6.11715
G1 X94.651 Y141.663 E6.13224
G1 X93.997 Y141.021 E6.15945
G1 X93.849 Y140.806 E6.16720
G1 X93.602 Y140.028 E6.19144
G1 X93.623 Y133.205 E6.39401
G1 X93.722 Y132.857 E6.40476
G1 X94.041 Y132.288 E6.42412
G1 X94.570 Y131.770 E6.44610
G1 X95.209 Y131.445 E6.46739
G1 X95.623 Y131.366 E6.47991
G1 X122.155 Y131.366 E7.26769
M204 S1000
G1 E6.96769 F3000.00000
G92 E0
G1 Z0.210 F6000.000
G1 X122.846 Y131.723 F6000.000
G1 Z0.200 F6000.000
G1 E0.30000 F3000.00000
M204 S900
G1 F1200
G1 X119.532 Y126.207 E0.49108
G1 X119.196 Y125.880 E0.50500
G1 X119.050 Y125.685 E0.51222
G1 X118.878 Y125.303 E0.52466
G1 X118.837 Y125.050 E0.53229
G1 X113.516 Y116.195 E0.83901
G1 X113.193 Y115.877 E0.85247
G1 X113.050 Y115.685 E0.85959
G1 X112.878 Y115.304 E0.87199
G1 X112.838 Y115.066 E0.87916
G1 X107.492 Y106.169 E1.18733
G1 X107.005 Y105.609 E1.20938
G1 X106.876 Y105.299 E1.21934
G1 X106.839 Y105.083 E1.22587
G1 X101.468 Y96.143 E1.53552
G1 X101.203 Y95.889 E1.54641
G1 X101.054 Y95.693 E1.55373
G1 X100.879 Y95.306 E1.56632
G1 X100.840 Y95.099 E1.57258
G1 X95.443 Y86.116 E1.88373
G1 X95.005 Y85.610 E1.90360
G1 X94.877 Y85.301 E1.91354
G1 X94.842 Y85.117 E1.91911
G1 X94.147 Y83.946 E1.95954
G1 X93.959 Y83.248 E1.98099
G1 X93.959 Y70.945 E2.34630
G1 X94.144 Y70.398 E2.36345
G1 X94.429 Y70.022 E2.37744
G1 X94.733 Y69.781 E2.38896
G1 X95.880 Y69.427 E2.42458
G1 X96.332 Y69.427 E2.43802
G1 X96.894 Y69.627 E2.45574
G1 X97.345 Y70.006 E2.47323
G1 X135.169 Y132.955 E4.65371
G1 X135.315 Y133.522 E4.67109
G1 X135.321 Y133.630 E4.67432
G1 X135.244 Y134.085 E4.68802
G1 X135.236 Y140.053 E4.86521
G1 X135.159 Y140.364 E4.87472
G1 X134.951 Y140.772 E4.88830
G1 X134.375 Y141.348 E4.91249
G1 X134.222 Y141.452 E4.91799
G1 X133.594 Y141.651 E4.93755
G1 X95.634 Y141.651 E6.06463
G1 X95.246 Y141.565 E6.07644
G1 X94.839 Y141.358 E6.08999
G1 X94.263 Y140.782 E6.11418
G1 X94.159 Y140.628 E6.11968
