; generated by Slic3r Prusa Edition 1.39.0 on 2018-12-06 at 16:41:10

; 

; external perimeters extrusion width = 0.50mm
; perimeters extrusion width = 0.40mm
; infill extrusion width = 0.40mm
; solid infill extrusion width = 0.40mm
; top infill extrusion width = 0.40mm
; first layer extrusion width = 0.50mm

M107
M190 S60 ; set bed temperature and wait for it to be reached
M104 S215 ; set temperature
G28
;G29
G1 X0 F2000
G1 Y0 F2000
G92 E0
G1 E20 F400
G92 E0
; Filament gcode
M109 S215 ; set temperature and wait for it to be reached
G21 ; set units to millimeters
G90 ; use absolute coordinates
M82 ; use absolute distances for extrusion
G92 E0
G1 E-1.20000 F6000.00000
G92 E0
G1 Z0.010 F6000.000
G1 Z0.200 F6000.000
G1 Z0.210 F6000.000
G1 X64.381 Y110.196 F6000.000
G1 Z0.200 F6000.000
G1 E1.20000 F6000.00000
M204 S900
G1 F1200
G1 X70.111 Y106.899 E1.45124
G1 X71.162 Y106.425 E1.49506
G1 X74.182 Y105.329 E1.61718
G1 X77.202 Y104.530 E1.73592
G1 X80.600 Y103.965 E1.86681
G1 X87.712 Y103.903 E2.13713
G1 X89.218 Y104.014 E2.19453
G1 X92.660 Y104.635 E2.32746
G1 X95.673 Y105.469 E2.44627
G1 X98.356 Y106.465 E2.55504
G1 X99.457 Y106.983 E2.60128
G1 X105.015 Y110.184 E2.84505
G1 X106.160 Y110.974 E2.89793
G1 X108.853 Y113.256 E3.03207
G1 X110.858 Y115.278 E3.14031
G1 X112.728 Y117.518 E3.25118
G1 X113.606 Y118.766 E3.30919
G1 X116.911 Y124.511 E3.56110
G1 X117.389 Y125.578 E3.60552
G1 X118.516 Y128.713 E3.73215
G1 X119.287 Y131.652 E3.84764
G1 X119.852 Y135.122 E3.98126
G1 X119.899 Y142.090 E4.24609
G1 X119.848 Y143.123 E4.28538
G1 X119.284 Y146.551 E4.41742
G1 X118.499 Y149.536 E4.53473
G1 X117.349 Y152.713 E4.66313
G1 X116.719 Y154.024 E4.71842
G1 X113.606 Y159.422 E4.95524
G1 X112.794 Y160.590 E5.00932
G1 X110.845 Y162.927 E5.12500
G1 X108.791 Y164.989 E5.23560
G1 X106.067 Y167.284 E5.37095
G1 X104.881 Y168.098 E5.42564
G1 X99.129 Y171.371 E5.67718
G1 X98.081 Y171.834 E5.72070
G1 X94.978 Y172.936 E5.84587
G1 X92.089 Y173.687 E5.95929
G1 X88.641 Y174.243 E6.09204
G1 X81.706 Y174.286 E6.35564
G1 X80.681 Y174.234 E6.39463
G1 X77.252 Y173.671 E6.52672
G1 X74.267 Y172.885 E6.64403
G1 X71.075 Y171.730 E6.77302
G1 X69.770 Y171.105 E6.82801
G1 X64.382 Y167.993 E7.06451
G1 X63.220 Y167.186 E7.11829
G1 X60.915 Y165.267 E7.23225
G1 X58.876 Y163.245 E7.34138
G1 X56.593 Y160.552 E7.47558
G1 X55.794 Y159.394 E7.52906
G1 X52.491 Y153.650 E7.78091
G1 X52.025 Y152.604 E7.82443
G1 X50.902 Y149.475 E7.95076
G1 X50.134 Y146.553 E8.06557
G1 X49.561 Y143.045 E8.20068
G1 X49.517 Y136.092 E8.46495
G1 X49.569 Y135.067 E8.50394
G1 X50.132 Y131.638 E8.63602
G1 X50.915 Y128.661 E8.75303
G1 X52.070 Y125.469 E8.88202
G1 X52.690 Y124.170 E8.93671
G1 X55.810 Y118.768 E9.17381
G1 X56.602 Y117.625 E9.22669
G1 X58.870 Y114.950 E9.35996
G1 X60.909 Y112.928 E9.46910
G1 X63.145 Y111.064 E9.57975
G1 X64.332 Y110.231 E9.63487
M204 S1000
G1 X64.594 Y110.604 F6000.000
M204 S900
G1 F1200
G1 X70.323 Y107.303 E9.88617
G1 X71.330 Y106.850 E9.92813
G1 X74.311 Y105.768 E10.04866
G1 X77.302 Y104.976 E10.16625
G1 X80.654 Y104.418 E10.29541
G1 X87.712 Y104.360 E10.56366
G1 X89.161 Y104.468 E10.61889
G1 X92.549 Y105.078 E10.74971
G1 X95.524 Y105.901 E10.86705
G1 X98.184 Y106.889 E10.97488
G1 X99.246 Y107.389 E11.01950
G1 X104.777 Y110.575 E11.26209
G1 X105.872 Y111.329 E11.31260
G1 X108.528 Y113.578 E11.44490
G1 X110.517 Y115.582 E11.55219
G1 X112.380 Y117.814 E11.66270
G1 X113.219 Y119.010 E11.71823
G1 X116.506 Y124.723 E11.96874
G1 X116.961 Y125.738 E12.01100
G1 X118.077 Y128.839 E12.13626
G1 X118.839 Y131.743 E12.25036
G1 X119.397 Y135.166 E12.38217
G1 X119.392 Y143.084 E12.68312
G1 X118.837 Y146.458 E12.81307
G1 X118.061 Y149.406 E12.92894
G1 X116.925 Y152.541 E13.05567
G1 X116.319 Y153.802 E13.10884
G1 X113.216 Y159.183 E13.34493
G1 X112.435 Y160.307 E13.39692
G1 X110.510 Y162.616 E13.51119
G1 X108.469 Y164.665 E13.62112
G1 X105.780 Y166.928 E13.75467
G1 X104.646 Y167.706 E13.80696
G1 X98.919 Y170.966 E14.05741
G1 X97.916 Y171.408 E14.09907
G1 X94.854 Y172.496 E14.22258
G1 X92.000 Y173.238 E14.33464
G1 X88.598 Y173.788 E14.46561
G1 X80.720 Y173.779 E14.76505
G1 X77.345 Y173.223 E14.89505
G1 X74.397 Y172.447 E15.01091
G1 X71.246 Y171.306 E15.13825
G1 X69.991 Y170.705 E15.19113
G1 X64.620 Y167.603 E15.42686
G1 X63.509 Y166.832 E15.47827
G1 X61.226 Y164.932 E15.59113
G1 X59.200 Y162.922 E15.69962
G1 X56.948 Y160.264 E15.83202
G1 X56.185 Y159.157 E15.88312
G1 X52.899 Y153.445 E16.13358
G1 X52.450 Y152.436 E16.17554
G1 X51.342 Y149.349 E16.30020
G1 X50.584 Y146.470 E16.41334
G1 X50.016 Y143.001 E16.54695
G1 X50.024 Y135.106 E16.84702
G1 X50.580 Y131.731 E16.97702
G1 X51.354 Y128.790 E17.09259
G1 X52.494 Y125.640 E17.21993
G1 X53.090 Y124.391 E17.27251
G1 X56.200 Y119.006 E17.50884
G1 X56.961 Y117.908 E17.55965
G1 X59.197 Y115.269 E17.69111
G1 X61.218 Y113.264 E17.79930
G1 X63.435 Y111.417 E17.90897
G1 X64.545 Y110.639 E17.96049
M204 S1000
G1 X64.807 Y111.013 F6000.000
M204 S900
G1 F1200
G1 X70.536 Y107.708 E18.21187
G1 X71.499 Y107.275 E18.25199
G1 X74.447 Y106.204 E18.37121
G1 X77.394 Y105.424 E18.48705
G1 X80.709 Y104.872 E18.61478
G1 X87.712 Y104.817 E18.88095
G1 X89.097 Y104.921 E18.93374
G1 X92.438 Y105.522 E19.06274
G1 X95.369 Y106.331 E19.17831
G1 X98.006 Y107.310 E19.28521
G1 X99.036 Y107.795 E19.32850
G1 X104.540 Y110.965 E19.56989
G1 X105.590 Y111.689 E19.61837
G1 X108.210 Y113.906 E19.74881
G1 X110.181 Y115.892 E19.85515
G1 X112.032 Y118.111 E19.96496
G1 X112.829 Y119.248 E20.01776
G1 X116.102 Y124.936 E20.26716
G1 X116.536 Y125.906 E20.30756
G1 X117.638 Y128.965 E20.43114
G1 X118.393 Y131.841 E20.54415
G1 X118.942 Y135.210 E20.67385
G1 X118.937 Y143.046 E20.97169
G1 X118.388 Y146.373 E21.09984
G1 X117.622 Y149.277 E21.21397
G1 X116.504 Y152.364 E21.33875
G1 X115.919 Y153.582 E21.39011
G1 X112.830 Y158.939 E21.62515
G1 X112.081 Y160.018 E21.67507
G1 X110.170 Y162.311 E21.78851
G1 X108.146 Y164.341 E21.89747
G1 X105.499 Y166.568 E22.02891
G1 X104.410 Y167.315 E22.07912
G1 X98.715 Y170.556 E22.32817
G1 X97.749 Y170.983 E22.36829
G1 X94.729 Y172.057 E22.49012
G1 X91.910 Y172.790 E22.60083
G1 X88.555 Y173.333 E22.73000
G1 X80.758 Y173.323 E23.02634
G1 X77.430 Y172.774 E23.15454
G1 X74.526 Y172.008 E23.26867
G1 X71.417 Y170.882 E23.39435
G1 X70.212 Y170.305 E23.44513
G1 X64.858 Y167.213 E23.68010
G1 X63.798 Y166.477 E23.72915
G1 X61.531 Y164.592 E23.84120
G1 X59.528 Y162.605 E23.94844
G1 X57.303 Y159.977 E24.07932
G1 X56.575 Y158.920 E24.12808
G1 X53.304 Y153.233 E24.37743
G1 X52.875 Y152.268 E24.41755
G1 X51.781 Y149.224 E24.54051
G1 X51.031 Y146.379 E24.65231
G1 X50.471 Y142.957 E24.78410
G1 X50.480 Y135.144 E25.08104
G1 X51.029 Y131.816 E25.20925
G1 X51.794 Y128.912 E25.32338
G1 X52.918 Y125.810 E25.44877
G1 X53.491 Y124.611 E25.49926
G1 X56.586 Y119.251 E25.73452
G1 X57.316 Y118.196 E25.78328
G1 X59.520 Y115.593 E25.91291
G1 X61.522 Y113.605 E26.02015
G1 X63.731 Y111.765 E26.12941
G1 X64.758 Y111.047 E26.17702
M204 S1000
G1 E24.97702 F6000.00000
G92 E0
G1 Z0.210 F6000.000
G1 X78.432 Y129.868 F6000.000
G1 Z0.200 F6000.000
G1 E1.20000 F6000.00000
M204 S900
G1 F1200
G1 X79.417 Y129.262 E1.24397
G1 X80.320 Y128.828 E1.28204
G1 X81.258 Y128.476 E1.32012
G1 X82.224 Y128.209 E1.35820
G1 X83.209 Y128.030 E1.39627
G1 X84.207 Y127.940 E1.43435
G1 X85.209 Y127.940 E1.47243
G1 X86.207 Y128.030 E1.51050
G1 X87.193 Y128.209 E1.54858
G1 X88.159 Y128.476 E1.58666
G1 X89.096 Y128.828 E1.62474
G1 X89.999 Y129.262 E1.66281
G1 X90.859 Y129.776 E1.70089
G1 X91.670 Y130.365 E1.73897
G1 X92.424 Y131.024 E1.77704
G1 X93.117 Y131.748 E1.81512
G1 X93.741 Y132.532 E1.85320
G1 X94.293 Y133.368 E1.89128
G1 X94.768 Y134.250 E1.92935
G1 X95.162 Y135.171 E1.96743
G1 X95.471 Y136.124 E2.00551
G1 X95.694 Y137.101 E2.04358
G1 X95.829 Y138.094 E2.08166
G1 X95.874 Y139.094 E2.11974
G1 X95.829 Y140.095 E2.15781
G1 X95.694 Y141.088 E2.19589
G1 X95.471 Y142.065 E2.23397
G1 X95.162 Y143.018 E2.27205
G1 X94.768 Y143.939 E2.31012
G1 X94.293 Y144.821 E2.34820
G1 X93.741 Y145.657 E2.38628
G1 X93.117 Y146.441 E2.42435
G1 X92.424 Y147.165 E2.46243
G1 X91.670 Y147.824 E2.50051
G1 X90.859 Y148.413 E2.53859
G1 X89.999 Y148.927 E2.57666
G1 X89.096 Y149.361 E2.61474
G1 X88.159 Y149.713 E2.65282
G1 X87.193 Y149.980 E2.69089
G1 X86.207 Y150.159 E2.72897
G1 X85.209 Y150.249 E2.76705
G1 X84.207 Y150.249 E2.80513
G1 X83.209 Y150.159 E2.84320
G1 X82.224 Y149.980 E2.88128
G1 X81.257 Y149.713 E2.91940
G1 X80.299 Y149.351 E2.95833
G1 X79.417 Y148.927 E2.99551
G1 X78.557 Y148.413 E3.03358
G1 X77.747 Y147.824 E3.07166
G1 X76.992 Y147.165 E3.10974
G1 X76.299 Y146.440 E3.14786
G1 X75.662 Y145.637 E3.18679
G1 X75.123 Y144.821 E3.22397
G1 X74.649 Y143.939 E3.26204
G1 X74.255 Y143.018 E3.30012
G1 X73.945 Y142.065 E3.33820
G1 X73.722 Y141.088 E3.37627
G1 X73.588 Y140.095 E3.41435
G1 X73.543 Y139.094 E3.45243
G1 X73.588 Y138.094 E3.49051
G1 X73.722 Y137.101 E3.52858
G1 X73.945 Y136.124 E3.56666
G1 X74.255 Y135.171 E3.60474
G1 X74.649 Y134.250 E3.64281
G1 X75.123 Y133.368 E3.68089
G1 X75.675 Y132.532 E3.71897
G1 X76.300 Y131.748 E3.75705
G1 X76.992 Y131.024 E3.79512
G1 X77.747 Y130.365 E3.83320
G1 X78.383 Y129.903 E3.86309
M204 S1000
G1 X78.652 Y130.273 F6000.000
M204 S900
G1 F1200
G1 X78.809 Y130.158 E3.87050
G1 X79.634 Y129.665 E3.90701
G1 X80.500 Y129.248 E3.94353
G1 X81.399 Y128.911 E3.98005
G1 X82.326 Y128.655 E4.01656
G1 X83.271 Y128.484 E4.05308
G1 X84.228 Y128.397 E4.08960
G1 X85.189 Y128.397 E4.12611
G1 X86.146 Y128.484 E4.16263
G1 X87.091 Y128.655 E4.19915
G1 X88.017 Y128.911 E4.23566
G1 X88.917 Y129.248 E4.27218
G1 X89.782 Y129.665 E4.30870
G1 X90.607 Y130.158 E4.34521
G1 X91.384 Y130.723 E4.38173
G1 X92.108 Y131.355 E4.41825
G1 X92.772 Y132.049 E4.45476
G1 X93.371 Y132.801 E4.49128
G1 X93.900 Y133.602 E4.52780
G1 X94.356 Y134.448 E4.56431
G1 X94.733 Y135.332 E4.60083
G1 X95.030 Y136.246 E4.63735
G1 X95.244 Y137.182 E4.67386
G1 X95.373 Y138.135 E4.71038
G1 X95.416 Y139.094 E4.74690
G1 X95.373 Y140.054 E4.78341
G1 X95.244 Y141.006 E4.81993
G1 X95.030 Y141.943 E4.85645
G1 X94.733 Y142.857 E4.89296
G1 X94.356 Y143.740 E4.92948
G1 X93.900 Y144.586 E4.96600
G1 X93.371 Y145.388 E5.00251
G1 X92.772 Y146.139 E5.03903
G1 X92.108 Y146.834 E5.07555
G1 X91.384 Y147.466 E5.11207
G1 X90.607 Y148.031 E5.14858
G1 X89.782 Y148.524 E5.18510
G1 X88.917 Y148.941 E5.22162
G1 X88.017 Y149.278 E5.25813
G1 X87.091 Y149.534 E5.29465
G1 X86.146 Y149.705 E5.33117
G1 X85.189 Y149.791 E5.36768
G1 X84.228 Y149.791 E5.40420
G1 X83.271 Y149.705 E5.44072
G1 X82.326 Y149.534 E5.47723
G1 X81.399 Y149.278 E5.51378
G1 X80.479 Y148.930 E5.55114
G1 X79.634 Y148.524 E5.58678
G1 X78.809 Y148.031 E5.62330
G1 X78.032 Y147.466 E5.65981
G1 X77.308 Y146.834 E5.69633
G1 X76.644 Y146.139 E5.73288
G1 X76.033 Y145.369 E5.77024
G1 X75.516 Y144.586 E5.80588
G1 X75.061 Y143.740 E5.84239
G1 X74.683 Y142.857 E5.87891
G1 X74.386 Y141.943 E5.91543
G1 X74.173 Y141.006 E5.95194
G1 X74.044 Y140.054 E5.98846
G1 X74.000 Y139.094 E6.02498
G1 X74.044 Y138.135 E6.06149
G1 X74.173 Y137.182 E6.09801
G1 X74.386 Y136.246 E6.13453
G1 X74.683 Y135.332 E6.17104
G1 X75.061 Y134.448 E6.20756
G1 X75.516 Y133.602 E6.24408
G1 X76.045 Y132.801 E6.28059
G1 X76.644 Y132.049 E6.31711
G1 X77.308 Y131.355 E6.35363
G1 X78.032 Y130.723 E6.39014
G1 X78.603 Y130.308 E6.41697
M204 S1000
G1 E5.21697 F6000.00000
G92 E0
G1 Z0.210 F6000.000
G1 X79.061 Y130.540 F6000.000
G1 Z0.200 F6000.000
G1 E1.20000 F6000.00000
M204 S900
G1 F600
G1 X79.851 Y130.068 E1.23496
G1 X80.680 Y129.669 E1.26991
G1 X81.541 Y129.346 E1.30487
G1 X82.427 Y129.101 E1.33983
G1 X83.332 Y128.937 E1.37478
G1 X84.248 Y128.854 E1.40974
G1 X85.168 Y128.854 E1.44469
G1 X86.084 Y128.937 E1.47965
G1 X86.989 Y129.101 E1.51461
G1 X87.876 Y129.346 E1.54956
G1 X88.737 Y129.669 E1.58452
G1 X89.566 Y130.068 E1.61948
G1 X90.355 Y130.540 E1.65443
G1 X91.099 Y131.080 E1.68939
G1 X91.792 Y131.686 E1.72435
G1 X92.427 Y132.350 E1.75930
G1 X93.001 Y133.069 E1.79426
G1 X93.508 Y133.837 E1.82921
G1 X93.943 Y134.647 E1.86417
G1 X94.305 Y135.493 E1.89913
G1 X94.589 Y136.367 E1.93408
G1 X94.794 Y137.264 E1.96904
G1 X94.917 Y138.176 E2.00400
G1 X94.958 Y139.094 E2.03895
G1 X94.917 Y140.013 E2.07391
G1 X94.794 Y140.925 E2.10887
G1 X94.589 Y141.821 E2.14382
G1 X94.305 Y142.696 E2.17878
G1 X93.943 Y143.542 E2.21374
G1 X93.508 Y144.352 E2.24869
G1 X93.001 Y145.119 E2.28365
G1 X92.427 Y145.838 E2.31860
G1 X91.792 Y146.503 E2.35356
G1 X91.099 Y147.108 E2.38852
G1 X90.355 Y147.649 E2.42347
G1 X89.566 Y148.121 E2.45843
G1 X88.737 Y148.520 E2.49339
G1 X87.876 Y148.843 E2.52834
G1 X86.989 Y149.088 E2.56330
G1 X86.084 Y149.252 E2.59826
G1 X85.168 Y149.334 E2.63321
G1 X84.248 Y149.334 E2.66817
G1 X83.332 Y149.252 E2.70312
G1 X82.427 Y149.088 E2.73808
G1 X81.540 Y148.843 E2.77305
G1 X80.659 Y148.510 E2.80885
G1 X79.851 Y148.121 E2.84295
G1 X79.061 Y147.649 E2.87790
G1 X78.317 Y147.108 E2.91286
G1 X77.625 Y146.503 E2.94782
G1 X76.989 Y145.838 E2.98278
G1 X76.403 Y145.100 E3.01859
G1 X75.909 Y144.352 E3.05268
G1 X75.473 Y143.542 E3.08764
G1 X75.112 Y142.696 E3.12259
G1 X74.827 Y141.821 E3.15755
G1 X74.623 Y140.925 E3.19251
G1 X74.499 Y140.013 E3.22746
G1 X74.458 Y139.094 E3.26242
G1 X74.499 Y138.176 E3.29738
G1 X74.623 Y137.264 E3.33233
G1 X74.827 Y136.367 E3.36729
G1 X75.112 Y135.493 E3.40225
G1 X75.473 Y134.647 E3.43720
G1 X75.909 Y133.837 E3.47216
G1 X76.416 Y133.069 E3.50711
G1 X76.989 Y132.350 E3.54207
G1 X77.625 Y131.686 E3.57703
G1 X78.317 Y131.080 E3.61198
G1 X79.013 Y130.575 E3.64466
M204 S1000
G1 X79.037 Y130.141 F6000.000
G1 E2.44466 F6000.00000
G92 E0
G1 Z0.210 F6000.000
G1 X76.327 Y116.810 F6000.000
G1 Z0.200 F6000.000
G1 E1.20000 F6000.00000
M204 S900
G1 F1200
G1 X77.459 Y116.389 E1.24591
G1 X79.634 Y115.806 E1.33147
G1 X80.842 Y115.602 E1.37807
G1 X81.180 Y116.324 E1.40836
G1 X81.847 Y117.133 E1.44820
G1 X82.694 Y117.750 E1.48803
G1 X83.668 Y118.136 E1.52786
G1 X84.708 Y118.268 E1.56770
G1 X85.748 Y118.136 E1.60753
G1 X86.722 Y117.750 E1.64736
G1 X87.569 Y117.133 E1.68720
G1 X88.236 Y116.324 E1.72703
G1 X88.574 Y115.602 E1.75732
G1 X89.760 Y115.803 E1.80305
G1 X91.958 Y116.389 E1.88950
G1 X93.106 Y116.817 E1.93608
G1 X93.038 Y117.611 E1.96637
G1 X93.211 Y118.644 E2.00620
G1 X93.636 Y119.602 E2.04603
G1 X94.287 Y120.424 E2.08587
G1 X95.122 Y121.058 E2.12570
G1 X96.088 Y121.464 E2.16553
G1 X97.125 Y121.616 E2.20537
G1 X98.167 Y121.506 E2.24520
G1 X99.149 Y121.139 E2.28503
G1 X99.802 Y120.682 E2.31533
G1 X100.747 Y121.464 E2.36193
G1 X102.323 Y123.039 E2.44661
G1 X103.120 Y124.001 E2.49409
G1 X102.664 Y124.654 E2.52434
G1 X102.297 Y125.636 E2.56418
G1 X102.186 Y126.678 E2.60401
G1 X102.339 Y127.715 E2.64384
G1 X102.745 Y128.681 E2.68368
G1 X103.378 Y129.516 E2.72351
G1 X104.200 Y130.166 E2.76334
G1 X105.160 Y130.592 E2.80323
G1 X106.201 Y130.764 E2.84334
G1 X106.986 Y130.696 E2.87329
G1 X107.414 Y131.845 E2.91989
G1 X107.996 Y134.020 E3.00545
G1 X108.200 Y135.229 E3.05205
G1 X107.479 Y135.566 E3.08234
G1 X106.669 Y136.234 E3.12223
G1 X106.050 Y137.089 E3.16234
G1 X105.666 Y138.055 E3.20183
G1 X105.535 Y139.094 E3.24167
G1 X105.666 Y140.134 E3.28150
G1 X106.050 Y141.100 E3.32099
G1 X106.669 Y141.955 E3.36110
G1 X107.479 Y142.622 E3.40099
G1 X108.200 Y142.960 E3.43128
G1 X107.996 Y144.169 E3.47788
G1 X107.414 Y146.344 E3.56344
G1 X106.986 Y147.493 E3.61004
G1 X106.192 Y147.424 E3.64033
G1 X105.158 Y147.597 E3.68016
G1 X104.200 Y148.023 E3.72000
G1 X103.385 Y148.667 E3.75949
G1 X102.744 Y149.508 E3.79966
G1 X102.337 Y150.483 E3.83982
G1 X102.186 Y151.511 E3.87931
G1 X102.297 Y152.553 E3.91915
G1 X102.664 Y153.535 E3.95898
G1 X103.120 Y154.188 E3.98924
G1 X102.314 Y155.160 E4.03724
G1 X100.693 Y156.774 E4.12419
G1 X99.716 Y157.575 E4.17219
G1 X99.073 Y157.122 E4.20210
G1 X98.087 Y156.745 E4.24222
G1 X97.044 Y156.630 E4.28210
G1 X96.006 Y156.777 E4.32194
G1 X95.037 Y157.179 E4.36183
G1 X94.195 Y157.816 E4.40194
G1 X93.546 Y158.627 E4.44143
G1 X93.117 Y159.583 E4.48126
G1 X92.939 Y160.616 E4.52110
G1 X93.004 Y161.412 E4.55142
G1 X91.888 Y161.822 E4.59662
G1 X89.747 Y162.390 E4.68079
G1 X88.574 Y162.587 E4.72599
G1 X88.236 Y161.865 E4.75631
