; generated by Slic3r Prusa Edition 1.39.0 on 2018-12-08 at 13:59:53

; 

; external perimeters extrusion width = 0.40mm
; perimeters extrusion width = 0.40mm
; infill extrusion width = 0.40mm
; solid infill extrusion width = 0.40mm
; top infill extrusion width = 0.40mm

M107
M190 S60 ; set bed temperature and wait for it to be reached
M104 S215 ; set temperature
G28
;G29
G1 X0 F2000
G1 Y0 F2000
G92 E0
G1 E20 F400
G92 E0
; Filament gcode
M109 S215 ; set temperature and wait for it to be reached
G21 ; set units to millimeters
G90 ; use absolute coordinates
M82 ; use absolute distances for extrusion
G92 E0
G1 E-0.30000 F3000.00000
G92 E0
G1 Z0.010 F6000.000
G1 Z0.200 F6000.000
G1 Z0.210 F6000.000
G1 X76.861 Y91.155 F6000.000
G1 Z0.200 F6000.000
G1 E0.30000 F3000.00000
M204 S900
G1 F1200
G1 X79.444 Y89.028 E0.39934
G1 X81.055 Y87.927 E0.45730
G1 X82.667 Y86.971 E0.51295
G1 X84.323 Y86.127 E0.56813
G1 X86.086 Y85.363 E0.62519
G1 X87.798 Y84.748 E0.67920
G1 X89.658 Y84.207 E0.73672
G1 X91.488 Y83.802 E0.79235
G1 X93.531 Y83.491 E0.85372
G1 X96.918 Y83.287 E0.95445
G1 X137.007 Y83.286 E2.14477
G1 X138.784 Y83.451 E2.19773
G1 X140.500 Y83.938 E2.25070
G1 X142.098 Y84.731 E2.30367
G1 X143.518 Y85.797 E2.35641
G1 X144.725 Y87.111 E2.40937
G1 X145.672 Y88.623 E2.46234
G1 X146.326 Y90.282 E2.51530
G1 X146.666 Y92.034 E2.56827
G1 X146.683 Y133.777 E3.80768
G1 X146.545 Y134.807 E3.83853
G1 X146.299 Y135.808 E3.86915
G1 X145.946 Y136.785 E3.90000
G1 X145.491 Y137.719 E3.93085
G1 X144.943 Y138.593 E3.96147
G1 X144.300 Y139.409 E3.99232
G1 X143.573 Y140.152 E4.02317
G1 X142.772 Y140.813 E4.05402
G1 X141.534 Y141.591 E4.09742
G1 X140.194 Y142.174 E4.14081
G1 X138.781 Y142.549 E4.18421
G1 X137.321 Y142.709 E4.22784
G1 X96.946 Y142.714 E5.42662
G1 X95.124 Y142.654 E5.48073
G1 X93.082 Y142.453 E5.54167
G1 X91.414 Y142.184 E5.59182
G1 X89.661 Y141.793 E5.64517
G1 X87.904 Y141.287 E5.69946
G1 X86.361 Y140.740 E5.74805
G1 X84.194 Y139.810 E5.81806
G1 X81.325 Y138.240 E5.91517
G1 X79.341 Y136.895 E5.98635
G1 X76.731 Y134.727 E6.08708
G1 X75.137 Y133.118 E6.15433
G1 X73.028 Y130.556 E6.25284
G1 X71.765 Y128.683 E6.31995
G1 X70.945 Y127.285 E6.36804
G1 X70.119 Y125.663 E6.42210
G1 X68.850 Y122.500 E6.52329
G1 X68.213 Y120.364 E6.58948
G1 X67.819 Y118.603 E6.64306
G1 X67.562 Y117.019 E6.69071
G1 X67.344 Y114.848 E6.75548
G1 X67.286 Y113.035 E6.80934
G1 X67.332 Y111.393 E6.85812
G1 X67.557 Y109.014 E6.92907
G1 X68.169 Y105.817 E7.02572
G1 X68.839 Y103.529 E7.09649
G1 X69.385 Y102.030 E7.14386
G1 X70.103 Y100.375 E7.19744
G1 X70.937 Y98.729 E7.25221
G1 X71.764 Y97.319 E7.30076
G1 X73.123 Y95.318 E7.37256
G1 X75.273 Y92.731 E7.47244
G1 X76.818 Y91.198 E7.53708
M204 S1000
G1 X77.070 Y91.451 F6000.000
M204 S900
G1 F1200
G1 X79.690 Y89.291 E7.63791
G1 X81.258 Y88.221 E7.69427
G1 X82.851 Y87.277 E7.74925
G1 X84.480 Y86.448 E7.80353
G1 X86.223 Y85.693 E7.85991
G1 X87.914 Y85.086 E7.91326
G1 X89.745 Y84.554 E7.96987
G1 X91.552 Y84.153 E8.02483
G1 X93.577 Y83.846 E8.08564
G1 X96.924 Y83.644 E8.18522
G1 X137.007 Y83.643 E9.37534
G1 X138.721 Y83.802 E9.42642
G1 X140.376 Y84.273 E9.47751
G1 X141.916 Y85.039 E9.52860
G1 X143.291 Y86.073 E9.57968
G1 X144.453 Y87.342 E9.63077
G1 X145.363 Y88.803 E9.68186
G1 X145.990 Y90.405 E9.73295
G1 X146.313 Y92.095 E9.78403
G1 X146.328 Y133.732 E11.02030
G1 X146.196 Y134.728 E11.05013
G1 X145.958 Y135.704 E11.07996
G1 X145.616 Y136.649 E11.10978
G1 X145.172 Y137.558 E11.13984
G1 X144.636 Y138.408 E11.16966
G1 X144.012 Y139.196 E11.19949
G1 X143.308 Y139.912 E11.22932
G1 X142.530 Y140.548 E11.25915
G1 X141.338 Y141.291 E11.30085
G1 X140.049 Y141.847 E11.34254
G1 X138.690 Y142.203 E11.38424
G1 X137.294 Y142.352 E11.42593
G1 X96.947 Y142.357 E12.62389
G1 X95.142 Y142.297 E12.67751
G1 X93.124 Y142.099 E12.73771
G1 X91.476 Y141.833 E12.78728
G1 X89.744 Y141.445 E12.83998
G1 X88.008 Y140.945 E12.89363
G1 X86.474 Y140.402 E12.94193
G1 X84.345 Y139.486 E13.01075
G1 X81.501 Y137.929 E13.10702
G1 X79.556 Y136.610 E13.17680
G1 X76.971 Y134.462 E13.27659
G1 X75.401 Y132.877 E13.34283
G1 X73.291 Y130.310 E13.44149
G1 X72.066 Y128.491 E13.50661
G1 X71.256 Y127.109 E13.55417
G1 X70.440 Y125.506 E13.60758
G1 X69.185 Y122.379 E13.70761
G1 X68.557 Y120.270 E13.77295
G1 X67.915 Y116.963 E13.87298
G1 X67.701 Y114.829 E13.93667
G1 X67.643 Y113.036 E13.98991
G1 X67.689 Y111.405 E14.03836
G1 X67.913 Y109.050 E14.10859
G1 X68.564 Y105.705 E14.20978
G1 X69.068 Y103.963 E14.26362
G1 X69.601 Y102.468 E14.31075
G1 X70.514 Y100.345 E14.37937
G1 X72.075 Y97.494 E14.47587
G1 X73.409 Y95.532 E14.54633
G1 X75.543 Y92.965 E14.64544
G1 X77.027 Y91.493 E14.70749
M204 S1000
G1 E14.40749 F3000.00000
G92 E0
G1 Z0.210 F6000.000
G1 X118.160 Y97.373 F6000.000
G1 Z0.200 F6000.000
G1 E0.30000 F3000.00000
M204 S900
G1 F1200
G1 X118.398 Y96.801 E0.31840
G1 X118.785 Y96.289 E0.33745
G1 X119.291 Y95.901 E0.35640
G1 X119.886 Y95.659 E0.37545
G1 X120.500 Y95.578 E0.39385
G1 X121.127 Y95.660 E0.41262
G1 X121.711 Y95.902 E0.43139
G1 X122.213 Y96.287 E0.45017
G1 X122.598 Y96.789 E0.46894
G1 X122.840 Y97.373 E0.48771
G1 X122.914 Y97.940 E0.50469
G1 X122.914 Y128.060 E1.39899
G1 X122.840 Y128.627 E1.41597
G1 X122.598 Y129.211 E1.43474
G1 X122.213 Y129.713 E1.45351
G1 X121.711 Y130.098 E1.47229
G1 X121.127 Y130.340 E1.49106
G1 X120.500 Y130.422 E1.50983
G1 X119.873 Y130.340 E1.52861
G1 X119.289 Y130.098 E1.54738
G1 X118.785 Y129.711 E1.56624
G1 X118.398 Y129.199 E1.58530
G1 X118.160 Y128.627 E1.60369
G1 X118.086 Y128.060 E1.62067
G1 X118.086 Y97.940 E2.51497
G1 X118.153 Y97.433 E2.53016
M204 S1000
G1 X118.507 Y97.479 F6000.000
M204 S900
G1 F1200
G1 X118.710 Y96.980 E2.54617
G1 X119.041 Y96.543 E2.56244
G1 X119.470 Y96.213 E2.57853
G1 X119.978 Y96.007 E2.59479
G1 X120.500 Y95.938 E2.61043
G1 X121.034 Y96.008 E2.62641
G1 X121.531 Y96.214 E2.64239
G1 X121.958 Y96.542 E2.65837
G1 X122.286 Y96.969 E2.67435
G1 X122.492 Y97.466 E2.69033
G1 X122.557 Y97.963 E2.70522
G1 X122.557 Y128.037 E3.59813
G1 X122.492 Y128.534 E3.61302
G1 X122.286 Y129.031 E3.62900
G1 X121.958 Y129.458 E3.64498
G1 X121.531 Y129.786 E3.66096
G1 X121.034 Y129.992 E3.67694
G1 X120.500 Y130.062 E3.69293
G1 X119.966 Y129.992 E3.70891
G1 X119.469 Y129.786 E3.72489
G1 X119.041 Y129.457 E3.74092
G1 X118.710 Y129.020 E3.75719
G1 X118.508 Y128.534 E3.77282
G1 X118.443 Y128.037 E3.78771
G1 X118.443 Y97.963 E4.68062
G1 X118.499 Y97.539 E4.69334
M204 S1000
G1 E4.39334 F3000.00000
G92 E0
G1 Z0.210 F6000.000
G1 X119.296 Y96.797 F6000.000
G1 Z0.200 F6000.000
G1 E0.30000 F3000.00000
M204 S900
G1 F600
G1 X119.650 Y96.526 E0.31323
G1 X120.070 Y96.355 E0.32670
G1 X120.500 Y96.298 E0.33958
G1 X120.940 Y96.356 E0.35277
G1 X121.351 Y96.526 E0.36596
G1 X121.703 Y96.797 E0.37915
G1 X121.974 Y97.149 E0.39234
G1 X122.144 Y97.560 E0.40553
G1 X122.200 Y97.987 E0.41833
G1 X122.200 Y128.013 E1.30984
G1 X122.144 Y128.440 E1.32264
G1 X121.974 Y128.851 E1.33583
G1 X121.703 Y129.203 E1.34902
G1 X121.351 Y129.474 E1.36221
G1 X120.940 Y129.644 E1.37540
G1 X120.500 Y129.702 E1.38859
G1 X120.060 Y129.644 E1.40178
G1 X119.649 Y129.474 E1.41497
G1 X119.296 Y129.203 E1.42818
G1 X119.022 Y128.841 E1.44165
G1 X118.856 Y128.440 E1.45453
G1 X118.800 Y128.013 E1.46733
G1 X118.800 Y97.987 E2.35885
G1 X118.856 Y97.560 E2.37165
G1 X119.022 Y97.159 E2.38453
G1 X119.260 Y96.845 E2.39622
M204 S1000
G1 X119.193 Y96.411 F6000.000
G1 E2.09622 F3000.00000
G92 E0
G1 Z0.210 F6000.000
G1 X113.912 Y114.586 F6000.000
G1 Z0.200 F6000.000
G1 E0.30000 F3000.00000
M204 S900
G1 F1200
G1 X113.482 Y116.802 E0.36704
G1 X113.176 Y117.944 E0.40213
G1 X112.781 Y119.086 E0.43802
G1 X112.331 Y120.147 E0.47223
G1 X111.795 Y121.199 E0.50729
G1 X111.186 Y122.212 E0.54236
G1 X110.509 Y123.179 E0.57742
G1 X109.766 Y124.097 E0.61249
G1 X108.961 Y124.961 E0.64755
G1 X108.096 Y125.766 E0.68264
G1 X107.155 Y126.526 E0.71853
G1 X106.212 Y127.186 E0.75275
G1 X105.199 Y127.795 E0.78781
G1 X104.147 Y128.331 E0.82288
G1 X103.060 Y128.792 E0.85794
G1 X101.943 Y129.176 E0.89301
G1 X100.802 Y129.482 E0.92807
G1 X98.586 Y129.912 E0.99511
G1 X98.586 Y125.037 E1.13987
G1 X100.317 Y124.621 E1.19274
G1 X101.287 Y124.299 E1.22307
G1 X102.226 Y123.897 E1.25340
G1 X103.127 Y123.416 E1.28373
G1 X103.985 Y122.862 E1.31406
G1 X104.793 Y122.237 E1.34439
G1 X105.545 Y121.545 E1.37473
G1 X106.237 Y120.793 E1.40506
G1 X106.862 Y119.985 E1.43539
G1 X107.416 Y119.127 E1.46572
G1 X107.897 Y118.226 E1.49605
G1 X108.299 Y117.287 E1.52638
G1 X108.621 Y116.317 E1.55671
G1 X109.037 Y114.586 E1.60958
G1 X113.852 Y114.586 E1.75256
M204 S1000
G1 E1.45256 F3000.00000
G92 E0
G1 Z0.210 F6000.000
G1 X113.479 Y114.943 F6000.000
G1 Z0.200 F6000.000
G1 E0.30000 F3000.00000
M204 S900
G1 F1200
G1 X113.134 Y116.722 E0.35381
G1 X112.835 Y117.839 E0.38815
G1 X112.447 Y118.958 E0.42330
G1 X112.007 Y119.996 E0.45678
G1 X111.482 Y121.026 E0.49110
G1 X110.887 Y122.017 E0.52543
G1 X110.224 Y122.964 E0.55975
G1 X109.496 Y123.862 E0.59407
G1 X108.708 Y124.708 E0.62840
G1 X107.862 Y125.497 E0.66274
G1 X106.941 Y126.240 E0.69789
G1 X106.017 Y126.887 E0.73137
G1 X105.026 Y127.482 E0.76569
G1 X103.996 Y128.007 E0.80002
G1 X102.932 Y128.458 E0.83434
G1 X101.839 Y128.835 E0.86867
G1 X100.722 Y129.134 E0.90299
G1 X98.943 Y129.479 E0.95680
G1 X98.943 Y125.318 E1.08034
G1 X100.415 Y124.964 E1.12531
G1 X101.414 Y124.633 E1.15653
G1 X102.380 Y124.219 E1.18776
G1 X103.309 Y123.724 E1.21899
G1 X104.192 Y123.153 E1.25022
G1 X105.024 Y122.510 E1.28145
G1 X105.798 Y121.798 E1.31267
G1 X106.510 Y121.024 E1.34390
G1 X107.153 Y120.192 E1.37513
G1 X107.724 Y119.309 E1.40636
G1 X108.219 Y118.380 E1.43759
G1 X108.633 Y117.414 E1.46881
G1 X108.964 Y116.415 E1.50004
G1 X109.318 Y114.943 E1.54501
G1 X113.419 Y114.943 E1.66677
M204 S1000
G1 E1.36677 F3000.00000
G92 E0
G1 Z0.210 F6000.000
G1 X113.046 Y115.300 F6000.000
G1 Z0.200 F6000.000
G1 E0.30000 F3000.00000
M204 S900
G1 F600
G1 X112.786 Y116.642 E0.34058
G1 X112.493 Y117.734 E0.37417
G1 X112.114 Y118.830 E0.40858
G1 X111.683 Y119.845 E0.44133
G1 X111.170 Y120.853 E0.47491
G1 X110.587 Y121.822 E0.50849
G1 X109.938 Y122.749 E0.54208
G1 X109.227 Y123.628 E0.57566
G1 X108.455 Y124.455 E0.60924
G1 X107.628 Y125.227 E0.64283
G1 X106.726 Y125.955 E0.67724
G1 X105.822 Y126.587 E0.70999
G1 X104.853 Y127.170 E0.74358
G1 X103.845 Y127.683 E0.77716
G1 X102.804 Y128.125 E0.81074
G1 X101.734 Y128.493 E0.84433
G1 X100.642 Y128.786 E0.87791
G1 X99.300 Y129.046 E0.91849
G1 X99.300 Y125.600 E1.02081
G1 X100.514 Y125.308 E1.05787
G1 X101.540 Y124.967 E1.09000
G1 X102.535 Y124.541 E1.12212
G1 X103.490 Y124.033 E1.15425
G1 X104.398 Y123.445 E1.18637
G1 X105.254 Y122.783 E1.21850
G1 X106.051 Y122.051 E1.25062
G1 X106.783 Y121.254 E1.28275
G1 X107.445 Y120.398 E1.31487
G1 X108.033 Y119.490 E1.34700
G1 X108.541 Y118.535 E1.37912
G1 X108.967 Y117.540 E1.41125
G1 X109.308 Y116.514 E1.44337
G1 X109.600 Y115.300 E1.48043
G1 X112.986 Y115.300 E1.58097
M204 S1000
G1 X113.446 Y115.309 F6000.000
G1 E1.28097 F3000.00000
G92 E0
G1 Z0.210 F6000.000
G1 X98.586 Y100.963 F6000.000
G1 Z0.200 F6000.000
G1 E0.30000 F3000.00000
M204 S900
G1 F1200
G1 X98.586 Y96.086 E0.44481
G1 X100.830 Y96.526 E0.51271
G1 X101.943 Y96.824 E0.54693
G1 X103.060 Y97.208 E0.58199
G1 X104.147 Y97.669 E0.61706
G1 X105.199 Y98.205 E0.65212
G1 X106.212 Y98.814 E0.68719
G1 X107.179 Y99.491 E0.72225
G1 X108.097 Y100.234 E0.75732
G1 X108.961 Y101.039 E0.79238
G1 X109.766 Y101.903 E0.82744
G1 X110.510 Y102.822 E0.86253
G1 X111.201 Y103.813 E0.89842
G1 X111.795 Y104.801 E0.93264
G1 X112.331 Y105.853 E0.96770
G1 X112.792 Y106.940 E1.00277
G1 X113.176 Y108.057 E1.03783
G1 X113.482 Y109.198 E1.07290
G1 X113.912 Y111.414 E1.13993
G1 X109.037 Y111.414 E1.28469
G1 X108.621 Y109.683 E1.33757
G1 X108.299 Y108.713 E1.36790
G1 X107.897 Y107.774 E1.39823
G1 X107.416 Y106.873 E1.42856
G1 X106.862 Y106.015 E1.45889
G1 X106.237 Y105.207 E1.48922
G1 X105.545 Y104.455 E1.51955
G1 X104.793 Y103.763 E1.54988
G1 X103.985 Y103.138 E1.58021
G1 X103.127 Y102.584 E1.61054
G1 X102.227 Y102.104 E1.64085
G1 X101.262 Y101.693 E1.67199
G1 X100.317 Y101.379 E1.70153
G1 X98.644 Y100.977 E1.75263
M204 S1000
G1 X98.943 Y100.682 F6000.000
M204 S900
G1 F1200
G1 X98.943 Y96.520 E1.87620
G1 X100.749 Y96.874 E1.93086
G1 X101.839 Y97.165 E1.96434
G1 X102.932 Y97.542 E1.99866
G1 X103.996 Y97.993 E2.03299
G1 X105.026 Y98.518 E2.06731
G1 X106.017 Y99.113 E2.10164
G1 X106.964 Y99.776 E2.13596
G1 X107.862 Y100.504 E2.17028
G1 X108.708 Y101.292 E2.20461
G1 X109.496 Y102.138 E2.23893
G1 X110.224 Y103.036 E2.27327
G1 X110.901 Y104.007 E2.30842
G1 X111.482 Y104.974 E2.34190
G1 X112.007 Y106.004 E2.37623
G1 X112.458 Y107.068 E2.41055
G1 X112.835 Y108.161 E2.44488
G1 X113.134 Y109.278 E2.47920
G1 X113.479 Y111.057 E2.53301
G1 X109.318 Y111.057 E2.65655
G1 X108.964 Y109.585 E2.70152
G1 X108.633 Y108.586 E2.73274
G1 X108.219 Y107.620 E2.76397
G1 X107.724 Y106.691 E2.79520
G1 X107.153 Y105.808 E2.82643
G1 X106.510 Y104.976 E2.85765
G1 X105.798 Y104.202 E2.88888
G1 X105.024 Y103.490 E2.92011
G1 X104.192 Y102.847 E2.95134
G1 X103.309 Y102.276 E2.98257
G1 X102.381 Y101.781 E3.01378
G1 X101.388 Y101.358 E3.04582
G1 X100.415 Y101.036 E3.07625
G1 X99.001 Y100.696 E3.11943
M204 S1000
G1 X99.300 Y100.400 F6000.000
M204 S900
G1 F600
G1 X99.300 Y96.954 E3.22177
G1 X100.669 Y97.222 E3.26318
G1 X101.734 Y97.507 E3.29593
G1 X102.804 Y97.875 E3.32952
G1 X103.845 Y98.317 E3.36310
G1 X104.853 Y98.830 E3.39668
G1 X105.822 Y99.413 E3.43027
G1 X106.749 Y100.062 E3.46385
G1 X107.628 Y100.773 E3.49743
G1 X108.455 Y101.545 E3.53102
G1 X109.227 Y102.372 E3.56460
G1 X109.939 Y103.251 E3.59819
G1 X110.602 Y104.202 E3.63260
G1 X111.170 Y105.147 E3.66535
G1 X111.683 Y106.155 E3.69893
G1 X112.125 Y107.196 E3.73252
G1 X112.493 Y108.266 E3.76610
G1 X112.786 Y109.358 E3.79968
G1 X113.046 Y110.700 E3.84026
G1 X109.600 Y110.700 E3.94259
G1 X109.308 Y109.486 E3.97964
G1 X108.967 Y108.460 E4.01177
G1 X108.541 Y107.465 E4.04389
G1 X108.033 Y106.510 E4.07602
G1 X107.445 Y105.602 E4.10814
G1 X106.783 Y104.746 E4.14027
G1 X106.051 Y103.949 E4.17239
G1 X105.254 Y103.217 E4.20452
G1 X104.398 Y102.555 E4.23664
G1 X103.490 Y101.967 E4.26877
G1 X102.535 Y101.459 E4.30089
G1 X101.515 Y101.024 E4.33383
G1 X100.514 Y100.692 E4.36514
G1 X99.358 Y100.414 E4.40042
M204 S1000
G1 X98.902 Y100.364 F6000.000
G1 E4.10042 F3000.00000
G92 E0
G1 Z0.210 F6000.000
G1 X95.414 Y96.088 F6000.000
G1 Z0.200 F6000.000
G1 E0.30000 F3000.00000
M204 S900
G1 F1200
G1 X95.414 Y100.963 E0.44476
G1 X93.683 Y101.379 E0.49763
G1 X92.713 Y101.701 E0.52796
G1 X91.774 Y102.103 E0.55829
G1 X90.873 Y102.584 E0.58862
G1 X90.015 Y103.138 E0.61895
G1 X89.228 Y103.747 E0.64850
G1 X88.454 Y104.455 E0.67964
G1 X87.763 Y105.207 E0.70994
G1 X87.139 Y106.014 E0.74025
G1 X86.571 Y106.896 E0.77139
G1 X86.103 Y107.774 E0.80093
G1 X85.701 Y108.713 E0.83127
G1 X85.379 Y109.683 E0.86160
G1 X84.963 Y111.414 E0.91447
G1 X80.088 Y111.414 E1.05923
G1 X80.518 Y109.198 E1.12626
G1 X80.824 Y108.057 E1.16133
G1 X81.208 Y106.940 E1.19639
G1 X81.669 Y105.853 E1.23146
G1 X82.205 Y104.801 E1.26652
G1 X82.814 Y103.788 E1.30159
G1 X83.491 Y102.821 E1.33665
G1 X84.234 Y101.903 E1.37172
G1 X85.039 Y101.039 E1.40678
G1 X85.903 Y100.234 E1.44185
G1 X86.821 Y99.491 E1.47691
G1 X87.788 Y98.814 E1.51198
G1 X88.801 Y98.205 E1.54704
G1 X89.853 Y97.669 E1.58211
G1 X90.940 Y97.208 E1.61717
G1 X92.057 Y96.824 E1.65224
G1 X93.198 Y96.518 E1.68730
G1 X95.355 Y96.099 E1.75256
M204 S1000
G1 E1.45256 F3000.00000
G92 E0
G1 Z0.210 F6000.000
G1 X95.057 Y96.521 F6000.000
G1 Z0.200 F6000.000
G1 E0.30000 F3000.00000
M204 S900
G1 F1200
G1 X95.057 Y100.682 E0.42354
G1 X93.585 Y101.036 E0.46851
G1 X92.586 Y101.367 E0.49973
G1 X91.620 Y101.781 E0.53096
G1 X90.691 Y102.276 E0.56219
G1 X89.808 Y102.847 E0.59342
G1 X88.998 Y103.474 E0.62385
G1 X88.201 Y104.202 E0.65589
G1 X87.490 Y104.976 E0.68710
G1 X86.847 Y105.808 E0.71831
G1 X86.263 Y106.715 E0.75035
G1 X85.781 Y107.620 E0.78078
G1 X85.367 Y108.586 E0.81201
G1 X85.036 Y109.585 E0.84324
G1 X84.682 Y111.057 E0.88820
G1 X80.521 Y111.057 E1.01174
G1 X80.866 Y109.278 E1.06555
