; generated by Slic3r Prusa Edition 1.39.0 on 2018-12-06 at 22:44:16

; 

; external perimeters extrusion width = 0.40mm
; perimeters extrusion width = 0.40mm
; infill extrusion width = 0.40mm
; solid infill extrusion width = 0.40mm
; top infill extrusion width = 0.40mm

M107
M190 S60 ; set bed temperature and wait for it to be reached
M104 S215 ; set temperature
G28
;G29
G1 X0 F2000
G1 Y0 F2000
G92 E0
G1 E20 F400
G92 E0
; Filament gcode
M109 S215 ; set temperature and wait for it to be reached
G21 ; set units to millimeters
G90 ; use absolute coordinates
M82 ; use absolute distances for extrusion
G92 E0
G1 E-0.30000 F3000.00000
G92 E0
G1 Z0.010 F6000.000
G1 Z0.200 F6000.000
G1 Z0.210 F6000.000
G1 X75.070 Y90.054 F6000.000
G1 Z0.200 F6000.000
G1 E0.30000 F3000.00000
M204 S900
G1 F1200
G1 X76.497 Y88.913 E0.35426
G1 X78.132 Y87.775 E0.41340
G1 X80.028 Y86.641 E0.47900
G1 X81.719 Y85.784 E0.53528
G1 X84.295 Y84.717 E0.61808
G1 X86.070 Y84.135 E0.67355
G1 X88.141 Y83.609 E0.73699
G1 X90.212 Y83.236 E0.79945
G1 X92.278 Y83.011 E0.86116
G1 X94.485 Y82.929 E0.92675
G1 X139.508 Y82.929 E2.26353
G1 X141.348 Y83.100 E2.31839
G1 X143.133 Y83.607 E2.37348
G1 X144.794 Y84.433 E2.42858
G1 X146.276 Y85.549 E2.48367
G1 X147.528 Y86.919 E2.53876
G1 X148.507 Y88.495 E2.59385
G1 X149.181 Y90.224 E2.64895
G1 X149.526 Y92.047 E2.70404
G1 X149.530 Y133.908 E3.94696
G1 X149.366 Y135.025 E3.98046
G1 X149.077 Y136.116 E4.01397
G1 X148.672 Y137.160 E4.04724
G1 X148.149 Y138.160 E4.08074
G1 X147.517 Y139.095 E4.11425
G1 X146.785 Y139.954 E4.14775
G1 X145.962 Y140.725 E4.18126
G1 X145.057 Y141.400 E4.21476
G1 X143.829 Y142.093 E4.25663
G1 X142.524 Y142.606 E4.29826
G1 X141.153 Y142.935 E4.34013
G1 X139.749 Y143.068 E4.38200
G1 X94.437 Y143.071 E5.72736
G1 X92.322 Y142.992 E5.79020
G1 X90.072 Y142.743 E5.85742
G1 X88.130 Y142.389 E5.91604
G1 X86.352 Y141.942 E5.97047
G1 X83.968 Y141.167 E6.04490
G1 X82.054 Y140.374 E6.10642
G1 X80.402 Y139.557 E6.16114
G1 X78.245 Y138.299 E6.23527
G1 X76.201 Y136.858 E6.30953
G1 X74.774 Y135.697 E6.36413
G1 X73.254 Y134.281 E6.42584
G1 X71.564 Y132.442 E6.49997
G1 X70.416 Y131.006 E6.55457
G1 X69.278 Y129.374 E6.61365
G1 X67.976 Y127.163 E6.68984
G1 X67.149 Y125.498 E6.74502
G1 X66.446 Y123.818 E6.79909
G1 X65.647 Y121.473 E6.87266
G1 X65.051 Y119.068 E6.94622
G1 X64.735 Y117.278 E7.00018
G1 X64.532 Y115.449 E7.05484
G1 X64.429 Y112.952 E7.12904
G1 X64.502 Y110.901 E7.18999
G1 X64.690 Y109.081 E7.24429
G1 X65.106 Y106.655 E7.31739
G1 X65.738 Y104.235 E7.39165
G1 X66.324 Y102.494 E7.44618
G1 X67.023 Y100.789 E7.50090
G1 X68.108 Y98.587 E7.57377
G1 X69.386 Y96.467 E7.64727
G1 X70.427 Y94.978 E7.70123
G1 X71.578 Y93.541 E7.75589
G1 X73.259 Y91.714 E7.82963
G1 X75.026 Y90.095 E7.90076
M204 S1000
G1 X75.267 Y90.358 F6000.000
M204 S900
G1 F1200
G1 X76.716 Y89.196 E7.95592
G1 X78.364 Y88.049 E8.01553
G1 X80.212 Y86.947 E8.07942
G1 X81.878 Y86.104 E8.13486
G1 X84.421 Y85.051 E8.21656
G1 X86.169 Y84.478 E8.27118
G1 X88.215 Y83.958 E8.33387
G1 X90.269 Y83.589 E8.39584
G1 X92.319 Y83.366 E8.45705
G1 X94.484 Y83.286 E8.52140
G1 X139.508 Y83.286 E9.85820
G1 X141.291 Y83.452 E9.91139
G1 X143.014 Y83.944 E9.96459
G1 X144.618 Y84.743 E10.01778
G1 X146.047 Y85.823 E10.07097
G1 X147.258 Y87.154 E10.12440
G1 X148.200 Y88.678 E10.17759
G1 X148.845 Y90.349 E10.23078
G1 X149.173 Y92.111 E10.28398
G1 X149.176 Y133.861 E11.52361
G1 X149.018 Y134.943 E11.55606
G1 X148.740 Y135.999 E11.58850
G1 X148.344 Y137.018 E11.62095
G1 X147.833 Y137.993 E11.65363
G1 X147.219 Y138.897 E11.68608
G1 X146.508 Y139.727 E11.71852
G1 X145.708 Y140.471 E11.75097
G1 X144.823 Y141.126 E11.78365
G1 X143.649 Y141.784 E11.82362
G1 X142.387 Y142.275 E11.86383
G1 X141.077 Y142.585 E11.90381
G1 X139.728 Y142.711 E11.94401
G1 X94.438 Y142.714 E13.28873
G1 X92.342 Y142.636 E13.35102
G1 X90.127 Y142.390 E13.41719
G1 X88.207 Y142.040 E13.47515
G1 X86.441 Y141.597 E13.52921
G1 X84.095 Y140.833 E13.60247
G1 X82.195 Y140.047 E13.66349
G1 X80.562 Y139.238 E13.71762
G1 X78.433 Y137.995 E13.79081
G1 X76.419 Y136.575 E13.86398
G1 X75.016 Y135.434 E13.91767
G1 X73.501 Y134.024 E13.97912
G1 X71.834 Y132.208 E14.05231
G1 X70.698 Y130.787 E14.10631
G1 X69.553 Y129.141 E14.16586
G1 X68.289 Y126.991 E14.23993
G1 X67.471 Y125.344 E14.29451
G1 X66.773 Y123.675 E14.34822
G1 X65.990 Y121.374 E14.42040
G1 X65.401 Y118.999 E14.49303
G1 X65.088 Y117.229 E14.54641
G1 X64.887 Y115.412 E14.60070
G1 X64.786 Y112.954 E14.67373
G1 X64.859 Y110.919 E14.73420
G1 X65.045 Y109.120 E14.78791
G1 X65.458 Y106.716 E14.86031
G1 X66.078 Y104.342 E14.93317
G1 X66.658 Y102.620 E14.98711
G1 X67.353 Y100.926 E15.04147
G1 X68.424 Y98.753 E15.11342
G1 X69.682 Y96.666 E15.18576
G1 X70.712 Y95.193 E15.23914
G1 X71.855 Y93.766 E15.29343
G1 X73.516 Y91.962 E15.36623
G1 X75.222 Y90.398 E15.43494
M204 S1000
G1 X75.447 Y90.675 F6000.000
M204 S900
G1 F1200
G1 X76.642 Y89.705 E15.48064
G1 X78.589 Y88.329 E15.55143
G1 X80.390 Y87.256 E15.61366
G1 X82.044 Y86.420 E15.66870
G1 X84.539 Y85.389 E15.74885
G1 X86.267 Y84.821 E15.80287
G1 X88.289 Y84.308 E15.86481
G1 X90.319 Y83.942 E15.92603
G1 X92.351 Y83.722 E15.98675
G1 X94.483 Y83.643 E16.05009
G1 X139.508 Y83.643 E17.38692
G1 X141.228 Y83.804 E17.43823
G1 X142.890 Y84.279 E17.48954
G1 X144.436 Y85.051 E17.54085
G1 X145.819 Y86.099 E17.59238
G1 X146.980 Y87.379 E17.64369
G1 X147.887 Y88.850 E17.69500
G1 X148.507 Y90.463 E17.74631
G1 X148.820 Y92.170 E17.79785
G1 X148.822 Y133.808 E19.03411
G1 X148.672 Y134.854 E19.06550
G1 X148.401 Y135.884 E19.09712
G1 X148.019 Y136.870 E19.12852
G1 X147.524 Y137.813 E19.16014
G1 X146.925 Y138.694 E19.19176
G1 X146.235 Y139.495 E19.22316
G1 X145.454 Y140.219 E19.25478
G1 X144.601 Y140.844 E19.28618
G1 X143.473 Y141.472 E19.32452
G1 X142.261 Y141.940 E19.36308
G1 X140.997 Y142.237 E19.40164
G1 X139.703 Y142.355 E19.44021
G1 X94.440 Y142.357 E20.78415
G1 X92.370 Y142.280 E20.84565
G1 X90.182 Y142.037 E20.91101
G1 X88.283 Y141.691 E20.96830
G1 X86.529 Y141.251 E21.02200
G1 X84.221 Y140.499 E21.09408
G1 X82.344 Y139.722 E21.15438
G1 X80.722 Y138.918 E21.20815
G1 X78.621 Y137.692 E21.28039
G1 X76.643 Y136.297 E21.35224
G1 X75.245 Y135.160 E21.40572
G1 X73.749 Y133.766 E21.46644
G1 X72.109 Y131.980 E21.53845
G1 X70.981 Y130.569 E21.59209
G1 X69.832 Y128.916 E21.65185
G1 X68.602 Y126.818 E21.72406
G1 X67.796 Y125.197 E21.77781
G1 X67.101 Y123.532 E21.83139
G1 X66.331 Y121.267 E21.90242
G1 X65.751 Y118.923 E21.97411
G1 X65.441 Y117.172 E22.02691
G1 X65.242 Y115.374 E22.08061
G1 X65.143 Y112.956 E22.15247
G1 X65.215 Y110.945 E22.21222
G1 X65.400 Y109.158 E22.26557
G1 X65.810 Y106.778 E22.33727
G1 X66.419 Y104.449 E22.40874
G1 X66.992 Y102.746 E22.46209
G1 X67.682 Y101.064 E22.51608
G1 X68.737 Y98.925 E22.58688
G1 X69.983 Y96.859 E22.65851
G1 X71.002 Y95.402 E22.71131
G1 X72.133 Y93.990 E22.76501
G1 X73.767 Y92.216 E22.83665
G1 X75.401 Y90.713 E22.90255
M204 S1000
G1 E22.60255 F3000.00000
G92 E0
G1 Z0.210 F6000.000
G1 X123.086 Y121.586 F6000.000
G1 Z0.200 F6000.000
G1 E0.30000 F3000.00000
M204 S900
G1 F450
G1 X130.914 Y121.586 E0.53243
G1 X130.914 Y129.414 E0.76487
G1 X123.086 Y129.414 E0.99730
G1 X123.086 Y121.646 E1.22795
M204 S1000
G1 X123.443 Y121.943 F6000.000
M204 S900
G1 F450
G1 X130.557 Y121.943 E1.43918
G1 X130.557 Y129.057 E1.65041
G1 X123.443 Y129.057 E1.86164
G1 X123.443 Y122.003 E2.07108
M204 S1000
G1 X123.800 Y122.300 F6000.000
M204 S900
G1 F450
G1 X130.200 Y122.300 E2.26111
G1 X130.200 Y128.700 E2.45113
G1 X123.800 Y128.700 E2.64116
G1 X123.800 Y122.360 E2.82940
M204 S1000
G1 X123.696 Y121.914 F6000.000
G1 E2.52940 F3000.00000
G92 E0
G1 Z0.210 F6000.000
G1 X123.086 Y96.586 F6000.000
G1 Z0.200 F6000.000
G1 E0.30000 F3000.00000
M204 S900
G1 F450
G1 X130.914 Y96.586 E0.53243
G1 X130.914 Y104.414 E0.76487
G1 X123.086 Y104.414 E0.99730
G1 X123.086 Y96.646 E1.22795
M204 S1000
G1 X123.443 Y96.943 F6000.000
M204 S900
G1 F450
G1 X130.557 Y96.943 E1.43918
G1 X130.557 Y104.057 E1.65041
G1 X123.443 Y104.057 E1.86164
G1 X123.443 Y97.003 E2.07108
M204 S1000
G1 X123.800 Y97.300 F6000.000
M204 S900
G1 F450
G1 X130.200 Y97.300 E2.26111
G1 X130.200 Y103.700 E2.45113
G1 X123.800 Y103.700 E2.64116
G1 X123.800 Y97.360 E2.82940
M204 S1000
G1 X123.696 Y96.914 F6000.000
G1 E2.52940 F3000.00000
G92 E0
G1 Z0.210 F6000.000
G1 X104.567 Y107.619 F6000.000
G1 Z0.200 F6000.000
G1 E0.30000 F3000.00000
M204 S900
G1 F1200
G1 X105.046 Y108.632 E0.33326
G1 X105.424 Y109.686 E0.36652
G1 X105.696 Y110.773 E0.39978
G1 X105.860 Y111.881 E0.43305
G1 X105.915 Y113.000 E0.46631
G1 X105.860 Y114.119 E0.49957
G1 X105.696 Y115.227 E0.53283
G1 X105.424 Y116.314 E0.56609
G1 X105.046 Y117.368 E0.59935
G1 X104.567 Y118.381 E0.63261
G1 X103.991 Y119.342 E0.66588
G1 X103.324 Y120.242 E0.69914
G1 X102.572 Y121.072 E0.73240
G1 X101.742 Y121.824 E0.76566
G1 X100.842 Y122.491 E0.79892
G1 X99.881 Y123.067 E0.83218
G1 X98.868 Y123.546 E0.86544
G1 X97.814 Y123.924 E0.89870
G1 X96.727 Y124.196 E0.93197
G1 X95.619 Y124.360 E0.96523
G1 X94.500 Y124.415 E0.99849
G1 X93.381 Y124.360 E1.03175
G1 X92.273 Y124.196 E1.06501
G1 X91.186 Y123.924 E1.09827
G1 X90.132 Y123.546 E1.13153
G1 X89.119 Y123.067 E1.16480
G1 X88.158 Y122.491 E1.19806
G1 X87.258 Y121.824 E1.23132
G1 X86.428 Y121.072 E1.26458
G1 X85.676 Y120.242 E1.29784
G1 X85.009 Y119.342 E1.33110
G1 X84.433 Y118.381 E1.36436
G1 X83.954 Y117.368 E1.39763
G1 X83.576 Y116.314 E1.43089
G1 X83.304 Y115.227 E1.46415
G1 X83.140 Y114.119 E1.49741
G1 X83.085 Y113.000 E1.53067
G1 X83.140 Y111.881 E1.56393
G1 X83.304 Y110.773 E1.59719
G1 X83.576 Y109.686 E1.63046
G1 X83.954 Y108.632 E1.66372
G1 X84.433 Y107.619 E1.69698
G1 X85.009 Y106.658 E1.73024
G1 X85.676 Y105.758 E1.76350
G1 X86.428 Y104.928 E1.79676
G1 X87.258 Y104.176 E1.83002
G1 X88.158 Y103.509 E1.86329
G1 X89.119 Y102.933 E1.89655
G1 X90.132 Y102.454 E1.92981
G1 X91.186 Y102.076 E1.96307
G1 X92.274 Y101.804 E1.99636
G1 X93.408 Y101.638 E2.03039
G1 X94.500 Y101.585 E2.06285
G1 X95.619 Y101.640 E2.09611
G1 X96.727 Y101.804 E2.12937
G1 X97.814 Y102.076 E2.16263
G1 X98.868 Y102.454 E2.19590
G1 X99.881 Y102.933 E2.22916
G1 X100.842 Y103.509 E2.26242
G1 X101.742 Y104.176 E2.29568
G1 X102.572 Y104.928 E2.32894
G1 X103.324 Y105.758 E2.36220
G1 X103.991 Y106.658 E2.39546
G1 X104.537 Y107.567 E2.42694
M204 S1000
G1 X104.230 Y107.751 F6000.000
M204 S900
G1 F1200
G1 X104.716 Y108.768 E2.46042
G1 X105.082 Y109.790 E2.49264
G1 X105.345 Y110.843 E2.52486
G1 X105.505 Y111.916 E2.55708
G1 X105.558 Y113.000 E2.58930
G1 X105.505 Y114.084 E2.62152
G1 X105.345 Y115.157 E2.65374
G1 X105.082 Y116.210 E2.68596
G1 X104.716 Y117.232 E2.71818
G1 X104.252 Y118.213 E2.75040
G1 X103.694 Y119.143 E2.78262
G1 X103.048 Y120.015 E2.81483
G1 X102.319 Y120.819 E2.84705
G1 X101.515 Y121.548 E2.87927
G1 X100.643 Y122.194 E2.91149
G1 X99.713 Y122.752 E2.94371
G1 X98.732 Y123.216 E2.97593
G1 X97.710 Y123.582 E3.00815
G1 X96.657 Y123.845 E3.04037
G1 X95.584 Y124.005 E3.07259
G1 X94.500 Y124.058 E3.10481
G1 X93.416 Y124.005 E3.13703
G1 X92.343 Y123.845 E3.16925
G1 X91.290 Y123.582 E3.20147
G1 X90.268 Y123.216 E3.23369
G1 X89.287 Y122.752 E3.26591
G1 X88.357 Y122.194 E3.29813
G1 X87.485 Y121.548 E3.33035
G1 X86.681 Y120.819 E3.36257
G1 X85.952 Y120.015 E3.39479
G1 X85.306 Y119.143 E3.42701
G1 X84.748 Y118.213 E3.45923
G1 X84.284 Y117.232 E3.49145
G1 X83.918 Y116.210 E3.52367
G1 X83.655 Y115.157 E3.55589
G1 X83.495 Y114.084 E3.58811
G1 X83.442 Y113.000 E3.62033
G1 X83.495 Y111.916 E3.65255
G1 X83.655 Y110.843 E3.68477
G1 X83.918 Y109.790 E3.71699
G1 X84.284 Y108.768 E3.74921
G1 X84.748 Y107.787 E3.78143
G1 X85.306 Y106.857 E3.81365
G1 X85.952 Y105.985 E3.84586
G1 X86.681 Y105.181 E3.87808
G1 X87.485 Y104.452 E3.91030
G1 X88.357 Y103.806 E3.94252
G1 X89.287 Y103.248 E3.97474
G1 X90.268 Y102.784 E4.00696
G1 X91.290 Y102.418 E4.03918
G1 X92.343 Y102.155 E4.07142
G1 X93.443 Y101.994 E4.10440
G1 X94.500 Y101.942 E4.13584
G1 X95.584 Y101.995 E4.16806
G1 X96.657 Y102.155 E4.20028
G1 X97.710 Y102.418 E4.23250
G1 X98.732 Y102.784 E4.26472
G1 X99.713 Y103.248 E4.29694
G1 X100.643 Y103.806 E4.32916
G1 X101.515 Y104.452 E4.36138
G1 X102.319 Y105.181 E4.39360
G1 X103.048 Y105.985 E4.42582
G1 X103.694 Y106.857 E4.45804
G1 X104.199 Y107.700 E4.48721
M204 S1000
G1 X103.893 Y107.883 F6000.000
M204 S900
G1 F600
G1 X104.386 Y108.905 E4.52090
G1 X104.739 Y109.894 E4.55208
G1 X104.995 Y110.912 E4.58326
G1 X105.149 Y111.951 E4.61444
G1 X105.200 Y113.000 E4.64561
G1 X105.149 Y114.049 E4.67679
G1 X104.995 Y115.088 E4.70797
G1 X104.739 Y116.106 E4.73915
G1 X104.386 Y117.095 E4.77033
G1 X103.937 Y118.044 E4.80150
G1 X103.397 Y118.945 E4.83268
G1 X102.771 Y119.788 E4.86386
G1 X102.066 Y120.566 E4.89504
G1 X101.288 Y121.271 E4.92622
G1 X100.445 Y121.897 E4.95739
G1 X99.544 Y122.437 E4.98857
G1 X98.595 Y122.886 E5.01975
G1 X97.606 Y123.239 E5.05093
G1 X96.588 Y123.495 E5.08211
G1 X95.549 Y123.649 E5.11328
G1 X94.500 Y123.700 E5.14446
G1 X93.451 Y123.649 E5.17564
G1 X92.412 Y123.495 E5.20682
G1 X91.394 Y123.239 E5.23800
G1 X90.405 Y122.886 E5.26917
G1 X89.456 Y122.437 E5.30035
G1 X88.555 Y121.897 E5.33153
G1 X87.712 Y121.271 E5.36271
G1 X86.934 Y120.566 E5.39388
G1 X86.229 Y119.788 E5.42506
G1 X85.603 Y118.945 E5.45624
G1 X85.063 Y118.044 E5.48742
G1 X84.614 Y117.095 E5.51860
G1 X84.261 Y116.106 E5.54977
G1 X84.005 Y115.088 E5.58095
G1 X83.851 Y114.049 E5.61213
G1 X83.800 Y113.000 E5.64331
G1 X83.851 Y111.951 E5.67449
G1 X84.005 Y110.912 E5.70566
G1 X84.261 Y109.894 E5.73684
G1 X84.614 Y108.905 E5.76802
G1 X85.063 Y107.956 E5.79920
G1 X85.603 Y107.055 E5.83038
G1 X86.229 Y106.212 E5.86155
G1 X86.934 Y105.434 E5.89273
G1 X87.712 Y104.729 E5.92391
G1 X88.555 Y104.103 E5.95509
G1 X89.456 Y103.563 E5.98627
G1 X90.405 Y103.114 E6.01744
G1 X91.394 Y102.761 E6.04862
G1 X92.413 Y102.505 E6.07981
G1 X93.477 Y102.350 E6.11175
G1 X94.500 Y102.300 E6.14215
G1 X95.549 Y102.351 E6.17333
G1 X96.588 Y102.505 E6.20451
G1 X97.606 Y102.761 E6.23569
G1 X98.595 Y103.114 E6.26687
G1 X99.544 Y103.563 E6.29804
G1 X100.445 Y104.103 E6.32922
G1 X101.288 Y104.729 E6.36040
G1 X102.066 Y105.434 E6.39158
G1 X102.771 Y106.212 E6.42276
G1 X103.397 Y107.055 E6.45393
G1 X103.862 Y107.832 E6.48081
M204 S1000
G1 X104.293 Y107.894 F6000.000
G1 E6.18081 F3000.00000
G92 E0
G1 Z0.210 F6000.000
G1 X138.586 Y93.914 F6000.000
G1 Z0.200 F6000.000
G1 E0.30000 F3000.00000
M204 S900
G1 F1200
G1 X138.586 Y132.086 E1.43337
G1 X94.516 Y132.086 E2.74184
G1 X93.134 Y132.036 E2.78291
G1 X91.784 Y131.891 E2.82323
G1 X90.443 Y131.649 E2.86369
G1 X89.123 Y131.312 E2.90414
G1 X87.830 Y130.882 E2.94459
G1 X86.572 Y130.361 E2.98504
G1 X85.353 Y129.751 E3.02549
G1 X84.185 Y129.058 E3.06582
G1 X83.063 Y128.278 E3.10640
G1 X82.002 Y127.424 E3.14684
G1 X81.005 Y126.495 E3.18730
G1 X80.079 Y125.501 E3.22763
G1 X79.221 Y124.437 E3.26820
G1 X78.444 Y123.318 E3.30865
G1 X77.749 Y122.147 E3.34910
G1 X77.139 Y120.928 E3.38955
G1 X76.618 Y119.670 E3.43000
G1 X76.188 Y118.377 E3.47045
G1 X75.851 Y117.057 E3.51091
G1 X75.609 Y115.716 E3.55136
G1 X75.463 Y114.362 E3.59181
G1 X75.415 Y113.000 E3.63226
G1 X75.463 Y111.638 E3.67271
G1 X75.609 Y110.284 E3.71316
G1 X75.851 Y108.943 E3.75361
G1 X76.188 Y107.623 E3.79406
G1 X76.617 Y106.334 E3.83439
G1 X77.139 Y105.072 E3.87497
G1 X77.749 Y103.853 E3.91542
G1 X78.442 Y102.685 E3.95575
G1 X79.222 Y101.563 E3.99632
G1 X80.076 Y100.502 E4.03677
G1 X81.005 Y99.505 E4.07722
G1 X82.002 Y98.576 E4.11767
G1 X83.063 Y97.721 E4.15813
G1 X84.182 Y96.944 E4.19858
G1 X85.353 Y96.249 E4.23903
G1 X86.572 Y95.639 E4.27948
G1 X87.830 Y95.118 E4.31993
G1 X89.119 Y94.689 E4.36026
G1 X90.443 Y94.351 E4.40083
G1 X91.788 Y94.109 E4.44141
G1 X93.138 Y93.963 E4.48173
G1 X94.516 Y93.914 E4.52267
G1 X138.526 Y93.914 E5.82937
M204 S1000
G1 E5.52937 F3000.00000
G92 E0
G1 Z0.210 F6000.000
G1 X138.943 Y93.557 F6000.000
G1 Z0.200 F6000.000
G1 E0.30000 F3000.00000
M204 S900
G1 F1200
G1 X138.943 Y132.443 E1.45457
G1 X94.510 Y132.443 E2.77384
G1 X93.109 Y132.393 E2.81547
G1 X91.733 Y132.245 E2.85656
G1 X90.367 Y131.998 E2.89776
G1 X89.022 Y131.655 E2.93897
G1 X87.706 Y131.217 E2.98018
