; generated by Slic3r Prusa Edition 1.39.0 on 2018-12-13 at 14:01:17

; 

; external perimeters extrusion width = 0.40mm
; perimeters extrusion width = 0.40mm
; infill extrusion width = 0.40mm
; solid infill extrusion width = 0.40mm
; top infill extrusion width = 0.40mm

M107
M190 S60 ; set bed temperature and wait for it to be reached
M104 S215 ; set temperature
G28
;G29
G1 X0 F2000
G1 Y0 F2000
G92 E0
G1 E20 F400
G92 E0
; Filament gcode
M109 S215 ; set temperature and wait for it to be reached
G21 ; set units to millimeters
G90 ; use absolute coordinates
M82 ; use absolute distances for extrusion
G92 E0
G1 E-0.30000 F3000.00000
G92 E0
G1 Z0.010 F6000.000
G1 Z0.200 F6000.000
G1 Z0.210 F6000.000
G1 X74.114 Y84.762 F6000.000
G1 Z0.200 F6000.000
G1 E0.30000 F3000.00000
M204 S900
G1 F1200
G1 X75.607 Y84.000 E0.34978
G1 X77.209 Y83.505 E0.39956
G1 X78.872 Y83.294 E0.44933
G1 X134.746 Y83.286 E2.10829
G1 X136.499 Y83.447 E2.16058
G1 X138.202 Y83.924 E2.21309
G1 X139.790 Y84.703 E2.26560
G1 X141.211 Y85.756 E2.31811
G1 X142.412 Y87.044 E2.37039
G1 X143.365 Y88.534 E2.42290
G1 X144.031 Y90.172 E2.47541
G1 X144.390 Y91.904 E2.52792
G1 X144.452 Y92.987 E2.56014
G1 X144.431 Y133.639 E3.76714
G1 X144.128 Y135.490 E3.82284
G1 X143.474 Y137.248 E3.87853
G1 X142.495 Y138.848 E3.93423
G1 X141.220 Y140.235 E3.99016
G1 X139.886 Y141.238 E4.03971
G1 X138.393 Y142.000 E4.08948
G1 X136.791 Y142.495 E4.13926
G1 X135.128 Y142.706 E4.18904
G1 X79.154 Y142.714 E5.85097
G1 X78.148 Y142.650 E5.88091
G1 X77.154 Y142.483 E5.91084
G1 X76.190 Y142.215 E5.94055
G1 X75.251 Y141.847 E5.97049
G1 X74.355 Y141.384 E6.00042
G1 X73.513 Y140.830 E6.03036
G1 X72.738 Y140.197 E6.06007
G1 X72.027 Y139.482 E6.09001
G1 X71.041 Y138.174 E6.13864
G1 X70.285 Y136.712 E6.18751
G1 X69.787 Y135.143 E6.23638
G1 X69.562 Y133.521 E6.28502
G1 X69.549 Y92.861 E7.49225
G1 X69.615 Y91.863 E7.52196
G1 X69.783 Y90.877 E7.55167
G1 X70.052 Y89.913 E7.58137
G1 X70.421 Y88.975 E7.61131
G1 X70.882 Y88.087 E7.64102
G1 X71.432 Y87.251 E7.67073
G1 X72.065 Y86.476 E7.70043
G1 X72.780 Y85.765 E7.73037
G1 X74.066 Y84.798 E7.77814
M204 S1000
G1 X74.280 Y85.086 F6000.000
M204 S900
G1 F1200
G1 X75.774 Y84.317 E7.82803
G1 X77.312 Y83.848 E7.87576
G1 X78.908 Y83.650 E7.92350
G1 X134.745 Y83.643 E9.58139
G1 X136.444 Y83.800 E9.63203
G1 X138.085 Y84.262 E9.68267
G1 X139.616 Y85.015 E9.73331
G1 X140.984 Y86.033 E9.78395
G1 X142.145 Y87.283 E9.83459
G1 X143.060 Y88.722 E9.88523
G1 X143.698 Y90.304 E9.93587
G1 X144.039 Y91.975 E9.98651
G1 X144.095 Y92.993 E10.01679
G1 X144.076 Y133.597 E11.22236
G1 X143.784 Y135.391 E11.27635
G1 X143.148 Y137.103 E11.33057
G1 X142.191 Y138.658 E11.38478
G1 X140.956 Y139.993 E11.43877
G1 X139.667 Y140.954 E11.48651
G1 X138.226 Y141.683 E11.53446
G1 X136.688 Y142.152 E11.58220
G1 X135.092 Y142.350 E11.62993
G1 X79.156 Y142.356 E13.29075
G1 X78.191 Y142.296 E13.31945
G1 X77.230 Y142.134 E13.34839
G1 X76.292 Y141.873 E13.37732
G1 X75.385 Y141.516 E13.40625
G1 X74.520 Y141.067 E13.43518
G1 X73.707 Y140.530 E13.46412
G1 X72.954 Y139.911 E13.49305
G1 X72.270 Y139.218 E13.52198
G1 X71.324 Y137.955 E13.56882
G1 X70.602 Y136.544 E13.61588
G1 X70.130 Y135.038 E13.66273
G1 X69.917 Y133.475 E13.70957
G1 X69.906 Y92.864 E14.91537
G1 X70.133 Y90.946 E14.97271
G1 X70.394 Y90.015 E15.00141
G1 X70.752 Y89.109 E15.03035
G1 X71.199 Y88.252 E15.05905
G1 X71.737 Y87.439 E15.08799
G1 X72.351 Y86.692 E15.11670
G1 X73.044 Y86.007 E15.14563
G1 X74.232 Y85.122 E15.18962
M204 S1000
G1 E14.88962 F3000.00000
G92 E0
G1 Z0.210 F6000.000
G1 X79.760 Y93.200 F6000.000
G1 Z0.200 F6000.000
G1 E0.30000 F3000.00000
M204 S900
G1 F600
G1 X134.240 Y93.200 E1.91760
G1 X133.512 Y93.899 E1.94757
G1 X132.480 Y95.004 E1.99248
G1 X131.511 Y96.166 E2.03738
G1 X130.609 Y97.379 E2.08229
G1 X129.775 Y98.641 E2.12720
G1 X129.013 Y99.948 E2.17210
G1 X128.324 Y101.294 E2.21701
G1 X127.711 Y102.677 E2.26192
G1 X127.176 Y104.092 E2.30682
G1 X126.721 Y105.534 E2.35173
G1 X126.346 Y106.999 E2.39664
G1 X126.054 Y108.483 E2.44154
G1 X125.844 Y109.981 E2.48645
G1 X125.719 Y111.474 E2.53095
G1 X125.676 Y113.000 E2.57626
G1 X125.718 Y114.512 E2.62117
G1 X125.844 Y116.019 E2.66607
G1 X126.054 Y117.517 E2.71098
G1 X126.346 Y119.001 E2.75589
G1 X126.721 Y120.466 E2.80079
G1 X127.176 Y121.908 E2.84570
G1 X127.717 Y123.336 E2.89101
G1 X128.324 Y124.706 E2.93551
G1 X129.013 Y126.052 E2.98042
G1 X129.775 Y127.359 E3.02532
G1 X130.609 Y128.621 E3.07023
G1 X131.511 Y129.834 E3.11514
G1 X132.480 Y130.996 E3.16004
G1 X133.512 Y132.101 E3.20495
G1 X134.240 Y132.800 E3.23492
G1 X79.760 Y132.800 E4.85252
G1 X80.488 Y132.101 E4.88249
G1 X81.520 Y130.996 E4.92740
G1 X82.489 Y129.834 E4.97230
G1 X83.391 Y128.621 E5.01721
G1 X84.225 Y127.359 E5.06211
G1 X84.987 Y126.052 E5.10702
G1 X85.676 Y124.706 E5.15193
G1 X86.289 Y123.323 E5.19683
G1 X86.824 Y121.908 E5.24174
G1 X87.279 Y120.466 E5.28665
G1 X87.656 Y118.987 E5.33196
G1 X87.946 Y117.517 E5.37646
G1 X88.156 Y116.019 E5.42136
G1 X88.282 Y114.512 E5.46627
G1 X88.324 Y113.000 E5.51118
G1 X88.281 Y111.474 E5.55649
G1 X88.156 Y109.981 E5.60099
G1 X87.946 Y108.483 E5.64590
G1 X87.654 Y106.999 E5.69080
G1 X87.279 Y105.534 E5.73571
G1 X86.824 Y104.092 E5.78062
G1 X86.289 Y102.677 E5.82552
G1 X85.676 Y101.294 E5.87043
G1 X84.987 Y99.948 E5.91533
G1 X84.225 Y98.641 E5.96024
G1 X83.391 Y97.379 E6.00515
G1 X82.489 Y96.166 E6.05005
G1 X81.520 Y95.004 E6.09496
G1 X80.488 Y93.899 E6.13987
G1 X79.803 Y93.242 E6.16805
M204 S1000
G1 X80.146 Y93.305 F6000.000
G1 E5.86805 F3000.00000
G92 E0
G1 Z0.210 F6000.000
G1 X80.658 Y93.557 F6000.000
G1 Z0.200 F6000.000
G1 E0.30000 F3000.00000
M204 S900
G1 F1200
G1 X133.342 Y93.557 E1.86426
G1 X132.212 Y94.768 E1.91344
G1 X131.231 Y95.945 E1.95894
G1 X130.316 Y97.174 E2.00443
G1 X129.471 Y98.453 E2.04993
G1 X128.699 Y99.776 E2.09543
G1 X128.001 Y101.140 E2.14092
G1 X127.381 Y102.541 E2.18642
G1 X126.839 Y103.975 E2.23191
G1 X126.377 Y105.436 E2.27741
G1 X125.998 Y106.920 E2.32291
G1 X125.702 Y108.424 E2.36840
G1 X125.489 Y109.941 E2.41390
G1 X125.363 Y111.455 E2.45898
G1 X125.319 Y113.000 E2.50489
G1 X125.362 Y114.532 E2.55039
G1 X125.489 Y116.059 E2.59588
G1 X125.702 Y117.576 E2.64138
G1 X125.998 Y119.080 E2.68687
G1 X126.377 Y120.564 E2.73237
G1 X126.839 Y122.025 E2.77787
G1 X127.386 Y123.471 E2.82377
G1 X128.001 Y124.860 E2.86886
G1 X128.699 Y126.224 E2.91435
G1 X129.471 Y127.547 E2.95985
G1 X130.316 Y128.826 E3.00535
G1 X131.231 Y130.055 E3.05084
G1 X132.212 Y131.232 E3.09634
G1 X133.342 Y132.443 E3.14552
G1 X80.658 Y132.443 E4.70978
G1 X81.788 Y131.232 E4.75896
G1 X82.769 Y130.055 E4.80445
G1 X83.684 Y128.826 E4.84995
G1 X84.529 Y127.547 E4.89544
G1 X85.301 Y126.224 E4.94094
G1 X85.999 Y124.860 E4.98644
G1 X86.619 Y123.459 E5.03193
G1 X87.161 Y122.025 E5.07743
G1 X87.623 Y120.564 E5.12293
G1 X88.005 Y119.066 E5.16883
G1 X88.298 Y117.576 E5.21392
G1 X88.511 Y116.059 E5.25941
G1 X88.638 Y114.532 E5.30491
G1 X88.681 Y113.000 E5.35041
G1 X88.637 Y111.455 E5.39631
G1 X88.511 Y109.941 E5.44140
G1 X88.298 Y108.424 E5.48689
G1 X88.002 Y106.920 E5.53239
G1 X87.623 Y105.436 E5.57788
G1 X87.161 Y103.975 E5.62338
G1 X86.619 Y102.541 E5.66888
G1 X85.999 Y101.140 E5.71437
G1 X85.301 Y99.776 E5.75987
G1 X84.529 Y98.453 E5.80537
G1 X83.684 Y97.174 E5.85086
G1 X82.769 Y95.945 E5.89636
G1 X81.788 Y94.768 E5.94185
G1 X80.699 Y93.601 E5.98925
M204 S1000
G1 E5.68925 F3000.00000
G92 E0
G1 Z0.210 F6000.000
G1 X81.479 Y93.914 F6000.000
G1 Z0.200 F6000.000
G1 E0.30000 F3000.00000
M204 S900
G1 F1200
G1 X132.521 Y93.914 E1.81548
G1 X131.944 Y94.532 E1.84056
G1 X130.950 Y95.724 E1.88665
G1 X130.024 Y96.969 E1.93273
G1 X129.168 Y98.264 E1.97882
G1 X128.386 Y99.605 E2.02490
G1 X127.679 Y100.987 E2.07099
G1 X127.050 Y102.406 E2.11707
G1 X126.501 Y103.858 E2.16316
G1 X126.034 Y105.338 E2.20925
G1 X125.650 Y106.842 E2.25533
G1 X125.349 Y108.364 E2.30142
G1 X125.134 Y109.902 E2.34750
G1 X125.006 Y111.435 E2.39318
G1 X124.962 Y113.000 E2.43967
G1 X125.005 Y114.552 E2.48576
G1 X125.134 Y116.098 E2.53185
G1 X125.349 Y117.636 E2.57793
G1 X125.650 Y119.158 E2.62402
G1 X126.034 Y120.662 E2.67010
G1 X126.501 Y122.143 E2.71620
G1 X127.056 Y123.607 E2.76269
G1 X127.679 Y125.013 E2.80836
G1 X128.386 Y126.395 E2.85445
G1 X129.168 Y127.736 E2.90053
G1 X130.024 Y129.031 E2.94662
G1 X130.950 Y130.276 E2.99270
G1 X131.944 Y131.468 E3.03879
G1 X132.521 Y132.086 E3.06387
G1 X81.479 Y132.086 E4.57935
G1 X82.056 Y131.468 E4.60443
G1 X83.050 Y130.276 E4.65052
G1 X83.976 Y129.031 E4.69660
G1 X84.832 Y127.736 E4.74269
G1 X85.614 Y126.395 E4.78877
G1 X86.321 Y125.013 E4.83486
G1 X86.950 Y123.594 E4.88094
G1 X87.499 Y122.142 E4.92703
G1 X87.966 Y120.662 E4.97312
G1 X88.353 Y119.145 E5.01961
G1 X88.651 Y117.636 E5.06529
G1 X88.866 Y116.098 E5.11137
G1 X88.995 Y114.552 E5.15746
G1 X89.038 Y113.000 E5.20355
G1 X88.994 Y111.435 E5.25004
G1 X88.866 Y109.902 E5.29572
G1 X88.651 Y108.364 E5.34180
G1 X88.350 Y106.842 E5.38789
G1 X87.966 Y105.338 E5.43397
G1 X87.499 Y103.858 E5.48006
G1 X86.950 Y102.406 E5.52615
G1 X86.321 Y100.987 E5.57223
G1 X85.614 Y99.605 E5.61832
G1 X84.832 Y98.264 E5.66440
G1 X83.976 Y96.969 E5.71049
G1 X83.050 Y95.724 E5.75658
G1 X82.056 Y94.532 E5.80266
G1 X81.520 Y93.958 E5.82596
M204 S1000
G1 E5.52596 F3000.00000
G92 E0
G1 Z0.210 F6000.000
G1 X90.424 Y122.300 F6000.000
G1 Z0.200 F6000.000
G1 E0.30000 F3000.00000
M204 S900
G1 F450
G1 X96.824 Y122.300 E0.49002
G1 X96.824 Y128.700 E0.68005
G1 X90.424 Y128.700 E0.87007
G1 X90.424 Y122.360 E1.05832
M204 S1000
G1 X90.320 Y121.914 F6000.000
G1 E0.75832 F3000.00000
G92 E0
G1 Z0.210 F6000.000
G1 X90.067 Y121.943 F6000.000
G1 Z0.200 F6000.000
G1 E0.30000 F3000.00000
M204 S900
G1 F450
G1 X97.181 Y121.943 E0.51123
G1 X97.181 Y129.057 E0.72246
G1 X90.067 Y129.057 E0.93369
G1 X90.067 Y122.003 E1.14313
M204 S1000
G1 E0.84313 F3000.00000
G92 E0
G1 Z0.210 F6000.000
G1 X89.710 Y121.586 F6000.000
G1 Z0.200 F6000.000
G1 E0.30000 F3000.00000
M204 S900
G1 F450
G1 X97.538 Y121.586 E0.53243
G1 X97.538 Y129.414 E0.76487
G1 X89.710 Y129.414 E0.99730
G1 X89.710 Y121.646 E1.22795
M204 S1000
G1 E0.92795 F3000.00000
G92 E0
G1 Z0.210 F6000.000
G1 X90.424 Y103.700 F6000.000
G1 Z0.200 F6000.000
G1 E0.30000 F3000.00000
M204 S900
G1 F450
G1 X90.424 Y97.300 E0.49002
G1 X96.824 Y97.300 E0.68005
G1 X96.824 Y103.700 E0.87007
G1 X90.484 Y103.700 E1.05832
M204 S1000
G1 X90.037 Y103.804 F6000.000
G1 E0.75832 F3000.00000
G92 E0
G1 Z0.210 F6000.000
G1 X90.067 Y96.943 F6000.000
G1 Z0.200 F6000.000
G1 E0.30000 F3000.00000
M204 S900
G1 F450
G1 X97.181 Y96.943 E0.51123
G1 X97.181 Y104.057 E0.72246
G1 X90.067 Y104.057 E0.93369
G1 X90.067 Y97.003 E1.14313
M204 S1000
G1 E0.84313 F3000.00000
G92 E0
G1 Z0.210 F6000.000
G1 X89.710 Y96.586 F6000.000
G1 Z0.200 F6000.000
G1 E0.30000 F3000.00000
M204 S900
G1 F450
G1 X97.538 Y96.586 E0.53243
G1 X97.538 Y104.414 E0.76487
G1 X89.710 Y104.414 E0.99730
G1 X89.710 Y96.646 E1.22795
M204 S1000
G1 E0.92795 F3000.00000
G92 E0
G1 Z0.210 F6000.000
G1 X117.176 Y97.300 F6000.000
G1 Z0.200 F6000.000
G1 E0.30000 F3000.00000
M204 S900
G1 F450
G1 X123.576 Y97.300 E0.49002
G1 X123.576 Y103.700 E0.68005
G1 X117.176 Y103.700 E0.87007
G1 X117.176 Y97.360 E1.05832
M204 S1000
G1 X117.073 Y96.914 F6000.000
G1 E0.75832 F3000.00000
G92 E0
G1 Z0.210 F6000.000
G1 X116.819 Y96.943 F6000.000
G1 Z0.200 F6000.000
G1 E0.30000 F3000.00000
M204 S900
G1 F450
G1 X123.933 Y96.943 E0.51123
G1 X123.933 Y104.057 E0.72246
G1 X116.819 Y104.057 E0.93369
G1 X116.819 Y97.003 E1.14313
M204 S1000
G1 E0.84313 F3000.00000
G92 E0
G1 Z0.210 F6000.000
G1 X116.462 Y96.586 F6000.000
G1 Z0.200 F6000.000
G1 E0.30000 F3000.00000
M204 S900
G1 F450
G1 X124.290 Y96.586 E0.53243
G1 X124.290 Y104.414 E0.76487
G1 X116.462 Y104.414 E0.99730
G1 X116.462 Y96.646 E1.22795
M204 S1000
G1 E0.92795 F3000.00000
G92 E0
G1 Z0.210 F6000.000
G1 X117.176 Y122.300 F6000.000
G1 Z0.200 F6000.000
G1 E0.30000 F3000.00000
M204 S900
G1 F450
G1 X123.576 Y122.300 E0.49002
G1 X123.576 Y128.700 E0.68005
G1 X117.176 Y128.700 E0.87007
G1 X117.176 Y122.360 E1.05832
M204 S1000
G1 X117.073 Y121.914 F6000.000
G1 E0.75832 F3000.00000
G92 E0
G1 Z0.210 F6000.000
G1 X116.819 Y121.943 F6000.000
G1 Z0.200 F6000.000
G1 E0.30000 F3000.00000
M204 S900
G1 F450
G1 X123.933 Y121.943 E0.51123
G1 X123.933 Y129.057 E0.72246
G1 X116.819 Y129.057 E0.93369
G1 X116.819 Y122.003 E1.14313
M204 S1000
G1 E0.84313 F3000.00000
G92 E0
G1 Z0.210 F6000.000
G1 X116.462 Y121.586 F6000.000
G1 Z0.200 F6000.000
G1 E0.30000 F3000.00000
M204 S900
G1 F450
G1 X124.290 Y121.586 E0.53243
G1 X124.290 Y129.414 E0.76487
G1 X116.462 Y129.414 E0.99730
G1 X116.462 Y121.646 E1.22795
M204 S1000
G1 E0.92795 F3000.00000
G92 E0
G1 Z0.210 F6000.000
G1 X117.867 Y131.957 F6000.000
G1 Z0.200 F6000.000
G1 E0.30000 F3000.00000
M204 S900
G1 F900
G1 X90.614 Y104.703 E1.44581
G1 X90.108 Y104.703 E1.46084
G1 X117.201 Y131.797 E2.59989
G1 X116.696 Y131.797 E2.61492
G1 X87.231 Y102.332 E3.85366
G1 X87.539 Y103.145 E3.87949
G1 X116.190 Y131.797 E5.08405
G1 X115.684 Y131.797 E5.09908
G1 X87.828 Y103.940 E6.27021
G1 X88.061 Y104.679 E6.29325
G1 X115.179 Y131.797 E7.43331
G1 X114.673 Y131.797 E7.44834
G1 X88.282 Y105.405 E8.55787
G1 X88.455 Y106.085 E8.57871
G1 X114.167 Y131.797 E9.65969
G1 X113.662 Y131.797 E9.67472
G1 X88.629 Y106.764 E10.72715
G1 X88.754 Y107.395 E10.74627
G1 X113.156 Y131.797 E11.77217
G1 X112.651 Y131.797 E11.78720
G1 X88.878 Y108.024 E12.78663
G1 X88.980 Y108.632 E12.80493
G1 X112.145 Y131.797 E13.77883
G1 X111.639 Y131.797 E13.79386
G1 X89.062 Y109.220 E14.74304
G1 X89.145 Y109.807 E14.76069
G1 X111.134 Y131.797 E15.68516
G1 X110.628 Y131.797 E15.70019
G1 X89.195 Y110.363 E16.60130
G1 X89.241 Y110.915 E16.61775
G1 X110.123 Y131.797 E17.49567
G1 X109.617 Y131.797 E17.51070
G1 X89.284 Y111.464 E18.36553
G1 X89.299 Y111.984 E18.38100
G1 X109.111 Y131.797 E19.21396
G1 X108.606 Y131.797 E19.22899
G1 X89.314 Y112.504 E20.04007
G1 X89.327 Y113.023 E20.05550
G1 X108.100 Y131.797 E20.84476
G1 X107.595 Y131.797 E20.85979
G1 X97.827 Y122.029 E21.27043
G1 X97.827 Y122.535 E21.28546
G1 X107.089 Y131.797 E21.67485
G1 X106.583 Y131.797 E21.68988
G1 X97.827 Y123.040 E22.05800
G1 X97.827 Y123.546 E22.07303
G1 X106.078 Y131.797 E22.41990
G1 X105.572 Y131.797 E22.43493
G1 X97.827 Y124.052 E22.76055
G1 X97.827 Y124.557 E22.77558
G1 X105.066 Y131.797 E23.07993
G1 X104.561 Y131.797 E23.09496
G1 X97.827 Y125.063 E23.37806
G1 X97.827 Y125.569 E23.39309
G1 X104.055 Y131.797 E23.65493
G1 X103.550 Y131.797 E23.66996
G1 X97.827 Y126.074 E23.91055
G1 X97.827 Y126.580 E23.92558
G1 X103.044 Y131.797 E24.14491
G1 X102.538 Y131.797 E24.15994
G1 X97.827 Y127.085 E24.35801
G1 X97.827 Y127.591 E24.37304
G1 X102.033 Y131.797 E24.54985
G1 X101.527 Y131.797 E24.56488
G1 X97.827 Y128.097 E24.72044
G1 X97.827 Y128.602 E24.73547
G1 X101.022 Y131.797 E24.86977
G1 X100.516 Y131.797 E24.88480
G1 X97.827 Y129.108 E24.99785
G1 X97.827 Y129.613 E25.01288
G1 X100.010 Y131.797 E25.10466
G1 X99.505 Y131.797 E25.11970
G1 X97.411 Y129.703 E25.20770
G1 X96.906 Y129.703 E25.22273
G1 X98.999 Y131.797 E25.31073
G1 X98.493 Y131.797 E25.32577
G1 X96.400 Y129.703 E25.41377
G1 X95.895 Y129.703 E25.42880
G1 X97.988 Y131.797 E25.51680
G1 X97.482 Y131.797 E25.53184
G1 X95.389 Y129.703 E25.61984
G1 X94.883 Y129.703 E25.63487
G1 X96.977 Y131.797 E25.72287
G1 X96.471 Y131.797 E25.73791
G1 X94.378 Y129.703 E25.82591
G1 X93.872 Y129.703 E25.84094
G1 X95.965 Y131.797 E25.92894
G1 X95.460 Y131.797 E25.94398
G1 X93.367 Y129.703 E26.03198
G1 X92.861 Y129.703 E26.04701
G1 X94.954 Y131.797 E26.13501
G1 X94.449 Y131.797 E26.15005
G1 X92.355 Y129.703 E26.23805
G1 X91.850 Y129.703 E26.25308
G1 X93.943 Y131.797 E26.34109
G1 X93.437 Y131.797 E26.35612
G1 X91.344 Y129.703 E26.44412
G1 X90.839 Y129.703 E26.45915
G1 X92.932 Y131.797 E26.54716
G1 X92.426 Y131.797 E26.56219
G1 X90.333 Y129.703 E26.65019
G1 X89.827 Y129.703 E26.66522
G1 X91.921 Y131.797 E26.75323
G1 X91.415 Y131.797 E26.76826
G1 X85.964 Y126.346 E26.99741
G1 X85.787 Y126.674 E27.00850
G1 X90.909 Y131.797 E27.22387
G1 X90.404 Y131.797 E27.23890
G1 X85.600 Y126.993 E27.44085
