; generated by Slic3r Prusa Edition 1.39.0 on 2018-12-22 at 05:49:47

; 

; external perimeters extrusion width = 0.40mm
; perimeters extrusion width = 0.40mm
; infill extrusion width = 0.40mm
; solid infill extrusion width = 0.40mm
; top infill extrusion width = 0.40mm
; first layer extrusion width = 0.50mm

M190 S60 ; set bed temperature and wait for it to be reached
M104 S215 ; set temperature
G28
;G29
G1 X0 F2000
G1 Y0 F2000
G92 E0
G1 E20 F400
G92 E0
; Filament gcode
M109 S215 ; set temperature and wait for it to be reached
G21 ; set units to millimeters
G90 ; use absolute coordinates
M82 ; use absolute distances for extrusion
G92 E0
M106 S229.5
G1 E-1.00000 F3000.00000
G92 E0
G1 Z0.010 F6000.000
G1 Z0.200 F6000.000
G1 Z0.210 F6000.000
G1 X81.494 Y83.271 F6000.000
G1 Z0.200 F6000.000
G1 E1.00000 F3000.00000
M204 S900
G1 F1200
G1 X83.669 Y81.209 E1.11390
G1 X86.276 Y79.145 E1.24030
G1 X88.364 Y77.755 E1.33562
G1 X91.294 Y76.134 E1.46287
G1 X94.244 Y74.843 E1.58529
G1 X96.175 Y74.163 E1.66308
G1 X98.018 Y73.631 E1.73599
G1 X100.470 Y73.078 E1.83153
G1 X102.585 Y72.749 E1.91287
G1 X104.486 Y72.566 E1.98544
G1 X107.006 Y72.473 E2.08128
G1 X109.282 Y72.547 E2.16786
G1 X111.323 Y72.740 E2.24576
G1 X114.115 Y73.194 E2.35326
G1 X116.126 Y73.665 E2.43176
G1 X117.874 Y74.178 E2.50100
G1 X119.878 Y74.889 E2.58182
G1 X121.828 Y75.716 E2.66234
G1 X123.832 Y76.714 E2.74739
G1 X125.619 Y77.744 E2.82579
G1 X128.482 Y79.705 E2.95769
G1 X131.060 Y81.861 E3.08542
G1 X133.686 Y84.549 E3.22824
G1 X135.583 Y86.907 E3.34326
G1 X136.725 Y88.545 E3.41916
G1 X137.947 Y90.558 E3.50866
G1 X138.880 Y92.324 E3.58456
G1 X139.797 Y94.347 E3.66897
G1 X140.599 Y96.460 E3.75486
G1 X141.203 Y98.410 E3.83245
G1 X141.789 Y100.810 E3.92636
G1 X142.094 Y102.494 E3.99141
G1 X142.440 Y105.542 E4.10798
G1 X142.503 Y109.242 E4.24862
G1 X142.214 Y112.682 E4.37982
G1 X141.637 Y115.890 E4.50372
G1 X140.660 Y119.357 E4.64061
G1 X139.536 Y122.257 E4.75882
G1 X138.680 Y124.073 E4.83511
G1 X137.683 Y125.900 E4.91423
G1 X136.376 Y127.973 E5.00736
G1 X124.904 Y144.278 E5.76509
G1 X123.954 Y145.412 E5.82128
G1 X122.853 Y146.398 E5.87748
G1 X121.602 Y147.230 E5.93458
G1 X120.236 Y147.876 E5.99198
G1 X118.792 Y148.316 E6.04938
G1 X117.298 Y148.541 E6.10679
G1 X97.460 Y148.572 E6.86075
G1 X96.017 Y148.465 E6.91574
G1 X94.201 Y148.033 E6.98671
G1 X92.484 Y147.278 E7.05797
G1 X90.938 Y146.232 E7.12894
G1 X89.599 Y144.919 E7.20020
G1 X77.473 Y127.748 E7.99915
G1 X76.226 Y125.744 E8.08887
G1 X75.399 Y124.225 E8.15459
G1 X74.346 Y121.987 E8.24857
G1 X73.298 Y119.231 E8.36065
G1 X72.608 Y116.894 E8.45327
G1 X71.936 Y113.698 E8.57738
G1 X71.631 Y111.305 E8.66908
G1 X71.476 Y107.988 E8.79529
G1 X71.562 Y105.512 E8.88943
G1 X71.860 Y102.782 E8.99382
G1 X72.330 Y100.267 E9.09103
G1 X72.794 Y98.407 E9.16391
G1 X73.437 Y96.357 E9.24555
G1 X74.353 Y93.999 E9.34170
G1 X75.178 Y92.206 E9.41673
G1 X76.145 Y90.396 E9.49471
G1 X77.607 Y88.049 E9.59981
G1 X79.824 Y85.121 E9.73939
G1 X81.454 Y83.316 E9.83183
M204 S1000
G1 X81.793 Y83.622 F6000.000
M204 S900
G1 F1200
G1 X83.970 Y81.552 E9.94599
G1 X86.548 Y79.513 E10.07090
G1 X88.606 Y78.143 E10.16487
G1 X91.500 Y76.542 E10.29057
G1 X94.409 Y75.269 E10.41128
G1 X96.316 Y74.597 E10.48812
G1 X98.143 Y74.070 E10.56037
G1 X100.553 Y73.528 E10.65428
G1 X102.641 Y73.202 E10.73459
G1 X104.528 Y73.021 E10.80663
G1 X107.005 Y72.930 E10.90082
G1 X109.253 Y73.003 E10.98632
G1 X111.277 Y73.195 E11.06360
G1 X114.029 Y73.643 E11.16954
G1 X116.008 Y74.107 E11.24683
G1 X117.746 Y74.617 E11.31565
G1 X119.724 Y75.320 E11.39544
G1 X121.706 Y76.163 E11.47730
G1 X123.626 Y77.122 E11.55886
G1 X125.404 Y78.148 E11.63688
G1 X128.278 Y80.124 E11.76944
G1 X130.814 Y82.258 E11.89540
G1 X132.258 Y83.672 E11.97223
G1 X133.689 Y85.251 E12.05320
G1 X135.048 Y86.949 E12.13589
G1 X136.278 Y88.697 E12.21709
G1 X137.415 Y90.542 E12.29948
G1 X138.325 Y92.240 E12.37270
G1 X139.470 Y94.760 E12.47789
G1 X140.184 Y96.660 E12.55502
G1 X140.820 Y98.730 E12.63733
G1 X141.352 Y100.949 E12.72407
G1 X141.653 Y102.627 E12.78884
G1 X141.993 Y105.723 E12.90723
G1 X142.040 Y109.371 E13.04588
G1 X141.899 Y111.434 E13.12448
G1 X141.642 Y113.439 E13.20132
G1 X140.926 Y116.873 E13.33463
G1 X140.002 Y119.857 E13.45334
G1 X138.584 Y123.233 E13.59253
G1 X137.242 Y125.751 E13.70096
G1 X135.995 Y127.720 E13.78955
G1 X124.527 Y144.019 E14.54697
G1 X123.585 Y145.136 E14.60251
G1 X122.489 Y146.102 E14.65804
G1 X121.290 Y146.881 E14.71239
G1 X119.991 Y147.480 E14.76674
G1 X118.627 Y147.884 E14.82080
G1 X117.212 Y148.089 E14.87515
G1 X97.461 Y148.115 E15.62581
G1 X96.074 Y148.012 E15.67868
G1 X94.329 Y147.594 E15.74688
G1 X92.687 Y146.868 E15.81508
G1 X91.204 Y145.859 E15.88329
G1 X89.926 Y144.598 E15.95149
G1 X77.848 Y127.487 E16.74751
G1 X76.617 Y125.508 E16.83610
G1 X75.791 Y123.989 E16.90181
G1 X74.584 Y121.375 E17.01125
G1 X73.731 Y119.085 E17.10413
G1 X73.052 Y116.786 E17.19524
G1 X72.386 Y113.621 E17.31815
G1 X72.013 Y110.355 E17.44310
G1 X71.933 Y107.982 E17.53332
G1 X72.018 Y105.548 E17.62591
G1 X72.314 Y102.839 E17.72946
G1 X72.775 Y100.370 E17.82491
G1 X73.236 Y98.524 E17.89724
G1 X73.871 Y96.500 E17.97785
G1 X74.769 Y94.190 E18.07205
G1 X75.588 Y92.409 E18.14653
G1 X76.547 Y90.614 E18.22391
G1 X77.984 Y88.307 E18.32719
G1 X80.178 Y85.409 E18.46534
G1 X81.752 Y83.666 E18.55461
M204 S1000
G1 X82.091 Y83.972 F6000.000
M204 S900
G1 F1200
G1 X84.266 Y81.901 E18.66876
G1 X86.813 Y79.886 E18.79218
G1 X88.834 Y78.539 E18.88451
G1 X91.699 Y76.953 E19.00895
G1 X94.567 Y75.698 E19.12795
G1 X96.458 Y75.032 E19.20412
G1 X98.261 Y74.512 E19.27544
G1 X100.637 Y73.977 E19.36800
G1 X102.698 Y73.656 E19.44729
G1 X104.570 Y73.476 E19.51878
G1 X107.004 Y73.387 E19.61134
G1 X109.224 Y73.459 E19.69575
G1 X111.232 Y73.650 E19.77242
G1 X113.927 Y74.089 E19.87620
G1 X115.891 Y74.549 E19.95287
G1 X117.603 Y75.052 E20.02067
G1 X119.556 Y75.745 E20.09943
G1 X121.512 Y76.577 E20.18021
G1 X123.413 Y77.527 E20.26099
G1 X125.162 Y78.536 E20.33774
G1 X127.998 Y80.485 E20.46853
G1 X130.499 Y82.588 E20.59272
G1 X131.931 Y83.990 E20.66888
G1 X133.342 Y85.549 E20.74880
G1 X134.682 Y87.223 E20.83032
G1 X135.900 Y88.954 E20.91076
G1 X137.022 Y90.776 E20.99207
G1 X137.921 Y92.455 E21.06443
G1 X139.043 Y94.922 E21.16746
G1 X139.751 Y96.807 E21.24398
G1 X140.382 Y98.859 E21.32556
G1 X140.906 Y101.050 E21.41117
G1 X141.202 Y102.704 E21.47505
G1 X141.537 Y105.754 E21.59165
G1 X141.584 Y109.349 E21.72831
G1 X141.444 Y111.394 E21.80620
G1 X141.189 Y113.381 E21.88237
G1 X140.482 Y116.762 E22.01364
G1 X139.571 Y119.705 E22.13072
G1 X138.169 Y123.041 E22.26825
G1 X136.844 Y125.526 E22.37528
G1 X135.623 Y127.455 E22.46207
G1 X124.160 Y143.747 E23.21918
G1 X123.259 Y144.815 E23.27226
G1 X122.217 Y145.734 E23.32505
G1 X121.072 Y146.479 E23.37698
G1 X119.832 Y147.052 E23.42891
G1 X118.521 Y147.439 E23.48084
G1 X117.161 Y147.635 E23.53306
G1 X97.470 Y147.658 E24.28148
G1 X96.130 Y147.558 E24.33254
G1 X94.463 Y147.157 E24.39771
G1 X92.889 Y146.457 E24.46317
G1 X91.474 Y145.489 E24.52833
G1 X90.252 Y144.275 E24.59379
G1 X78.224 Y127.227 E25.38678
G1 X77.009 Y125.272 E25.47424
G1 X76.188 Y123.761 E25.53961
G1 X75.003 Y121.190 E25.64719
G1 X74.164 Y118.938 E25.73852
G1 X73.496 Y116.677 E25.82813
G1 X72.837 Y113.544 E25.94983
G1 X72.468 Y110.318 E26.07322
G1 X72.390 Y107.985 E26.16196
G1 X72.474 Y105.575 E26.25359
G1 X72.767 Y102.897 E26.35600
G1 X73.219 Y100.481 E26.44940
G1 X73.674 Y98.656 E26.52089
G1 X74.305 Y96.643 E26.60105
G1 X75.187 Y94.373 E26.69361
G1 X75.997 Y92.613 E26.76725
G1 X76.949 Y90.832 E26.84400
G1 X78.361 Y88.566 E26.94549
G1 X80.532 Y85.698 E27.08220
G1 X82.051 Y84.017 E27.16830
M204 S1000
G1 E26.16830 F3000.00000
G92 E0
G1 Z0.210 F6000.000
G1 X91.166 Y92.164 F6000.000
G1 Z0.200 F6000.000
G1 E1.00000 F3000.00000
M204 S900
G1 F1200
G1 X93.145 Y92.672 E1.07764
G1 X93.535 Y92.634 E1.09253
G1 X94.274 Y92.797 E1.12133
G1 X94.603 Y93.022 E1.13646
G1 X95.468 Y93.474 E1.17355
G1 X95.759 Y93.750 E1.18879
G1 X96.124 Y94.029 E1.20627
G1 X96.558 Y93.684 E1.22733
G1 X97.776 Y92.870 E1.28300
G1 X98.232 Y92.618 E1.30283
G1 X97.904 Y91.265 E1.35573
G1 X97.841 Y90.379 E1.38948
G1 X97.929 Y89.763 E1.41313
G1 X98.141 Y89.345 E1.43094
G1 X98.431 Y87.310 E1.50908
G1 X100.064 Y88.536 E1.58672
G1 X100.439 Y88.650 E1.60160
G1 X101.060 Y89.085 E1.63041
G1 X101.278 Y89.418 E1.64554
G1 X101.904 Y90.166 E1.68263
G1 X102.066 Y90.531 E1.69780
G1 X102.299 Y90.929 E1.71533
G1 X102.817 Y90.780 E1.73584
G1 X104.254 Y90.494 E1.79150
G1 X104.785 Y90.434 E1.81183
G1 X105.000 Y89.058 E1.86477
G1 X105.281 Y88.215 E1.89851
G1 X105.598 Y87.680 E1.92216
G1 X105.953 Y87.375 E1.93998
G1 X107.000 Y85.605 E2.01811
G1 X108.040 Y87.363 E2.09575
G1 X108.343 Y87.612 E2.11064
G1 X108.750 Y88.251 E2.13944
G1 X108.824 Y88.642 E2.15457
G1 X109.116 Y89.574 E2.19166
G1 X109.126 Y89.974 E2.20687
G1 X109.188 Y90.431 E2.22440
G1 X109.746 Y90.494 E2.24577
G1 X111.183 Y90.780 E2.30144
G1 X111.676 Y90.922 E2.32094
G1 X112.400 Y89.734 E2.37383
G1 X112.982 Y89.063 E2.40757
G1 X113.480 Y88.690 E2.43122
G1 X113.925 Y88.544 E2.44904
G1 X115.569 Y87.310 E2.52717
G1 X115.857 Y89.332 E2.60481
G1 X116.042 Y89.678 E2.61970
G1 X116.174 Y90.424 E2.64850
G1 X116.092 Y90.814 E2.66363
G1 X116.005 Y91.786 E2.70072
G1 X115.862 Y92.158 E2.71587
G1 X115.745 Y92.605 E2.73344
G1 X116.225 Y92.870 E2.75427
G1 X117.442 Y93.684 E2.80993
G1 X117.854 Y94.012 E2.82993
G1 X118.979 Y93.191 E2.88284
G1 X119.773 Y92.794 E2.91659
G1 X120.375 Y92.639 E2.94024
G1 X120.843 Y92.675 E2.95805
G1 X122.834 Y92.164 E3.03618
G1 X122.326 Y94.143 E3.11383
G1 X122.364 Y94.532 E3.12871
G1 X122.200 Y95.272 E3.15751
G1 X121.976 Y95.601 E3.17264
G1 X121.524 Y96.466 E3.20974
G1 X121.248 Y96.756 E3.22497
G1 X120.969 Y97.121 E3.24242
G1 X121.304 Y97.541 E3.26282
G1 X122.118 Y98.759 E3.31848
G1 X122.379 Y99.230 E3.33897
G1 X123.733 Y98.902 E3.39192
G1 X124.619 Y98.839 E3.42567
G1 X125.235 Y98.927 E3.44932
G1 X125.653 Y99.139 E3.46713
G1 X127.688 Y99.429 E3.54527
G1 X126.462 Y101.062 E3.62291
G1 X126.348 Y101.437 E3.63779
G1 X125.913 Y102.058 E3.66660
G1 X125.580 Y102.276 E3.68173
G1 X124.831 Y102.902 E3.71882
G1 X124.467 Y103.064 E3.73399
G1 X124.068 Y103.297 E3.75155
G1 X124.221 Y103.833 E3.77273
G1 X124.507 Y105.269 E3.82839
G1 X124.565 Y105.783 E3.84806
G1 X125.940 Y105.998 E3.90095
G1 X126.782 Y106.279 E3.93470
G1 X127.318 Y106.596 E3.95835
G1 X127.623 Y106.951 E3.97616
G1 X129.393 Y107.998 E4.05430
G1 X127.634 Y109.038 E4.13194
G1 X127.386 Y109.341 E4.14682
G1 X126.747 Y109.748 E4.17563
G1 X126.355 Y109.821 E4.19075
G1 X125.424 Y110.114 E4.22785
G1 X125.024 Y110.124 E4.24306
G1 X124.568 Y110.185 E4.26055
G1 X124.507 Y110.727 E4.28126
G1 X124.221 Y112.163 E4.33692
G1 X124.075 Y112.673 E4.35709
G1 X125.264 Y113.398 E4.41001
G1 X125.934 Y113.980 E4.44375
G1 X126.308 Y114.478 E4.46741
G1 X126.454 Y114.923 E4.48522
G1 X127.688 Y116.567 E4.56335
G1 X125.666 Y116.855 E4.64100
G1 X125.320 Y117.040 E4.65588
G1 X124.574 Y117.171 E4.68468
G1 X124.184 Y117.090 E4.69981
G1 X123.212 Y117.003 E4.73691
G1 X122.840 Y116.860 E4.75206
G1 X122.394 Y116.743 E4.76960
G1 X122.137 Y117.208 E4.78976
G1 X121.304 Y118.455 E4.84677
G1 X120.987 Y118.852 E4.86610
G1 X121.807 Y119.976 E4.91899
G1 X122.204 Y120.770 E4.95273
G1 X122.358 Y121.373 E4.97638
G1 X122.323 Y121.841 E4.99420
G1 X122.834 Y123.832 E5.07233
G1 X120.855 Y123.324 E5.14997
G1 X120.465 Y123.362 E5.16486
G1 X119.726 Y123.198 E5.19366
G1 X119.397 Y122.974 E5.20879
G1 X118.532 Y122.522 E5.24588
G1 X118.241 Y122.246 E5.26112
G1 X117.876 Y121.967 E5.27860
G1 X117.442 Y122.312 E5.29966
G1 X116.224 Y123.126 E5.35533
G1 X115.729 Y123.400 E5.37684
G1 X115.851 Y123.884 E5.39585
G1 X116.080 Y124.632 E5.42557
G1 X116.109 Y124.882 E5.43514
G1 X116.153 Y125.774 E5.46907
G1 X116.009 Y126.391 E5.49315
G1 X115.856 Y126.670 E5.50525
G1 X115.569 Y128.686 E5.58264
G1 X113.940 Y127.463 E5.66005
G1 X113.683 Y127.388 E5.67025
G1 X113.370 Y127.232 E5.68353
G1 X112.886 Y126.841 E5.70718
G1 X112.281 Y126.084 E5.74399
G1 X111.681 Y125.072 E5.78872
G1 X111.183 Y125.216 E5.80841
G1 X109.746 Y125.501 E5.86407
G1 X109.180 Y125.566 E5.88574
G1 X109.138 Y125.872 E5.89748
G1 X109.108 Y126.329 E5.91491
G1 X109.050 Y126.714 E5.92968
G1 X108.728 Y127.767 E5.97154
G1 X108.365 Y128.360 E5.99797
G1 X108.042 Y128.629 E6.01395
G1 X107.000 Y130.391 E6.09173
G1 X105.955 Y128.623 E6.16976
G1 X105.611 Y128.331 E6.18690
G1 X105.291 Y127.802 E6.21041
G1 X105.002 Y126.945 E6.24479
G1 X104.786 Y125.562 E6.29799
G1 X104.254 Y125.501 E6.31835
G1 X102.817 Y125.216 E6.37401
G1 X102.300 Y125.067 E6.39445
G1 X101.743 Y126.045 E6.43723
G1 X101.516 Y126.367 E6.45222
G1 X100.581 Y127.291 E6.50218
G1 X100.072 Y127.454 E6.52251
G1 X98.431 Y128.686 E6.60049
G1 X98.143 Y126.669 E6.67794
G1 X98.008 Y126.420 E6.68870
G1 X97.894 Y126.061 E6.70300
G1 X97.841 Y125.437 E6.72683
G1 X97.917 Y124.644 E6.75711
G1 X98.095 Y124.057 E6.78040
G1 X98.262 Y123.395 E6.80637
G1 X97.775 Y123.125 E6.82752
G1 X96.558 Y122.312 E6.88318
G1 X96.146 Y121.984 E6.90318
G1 X95.021 Y122.805 E6.95609
G1 X94.227 Y123.202 E6.98983
G1 X93.625 Y123.356 E7.01349
G1 X93.157 Y123.321 E7.03130
G1 X91.166 Y123.832 E7.10943
G1 X91.674 Y121.853 E7.18708
G1 X91.636 Y121.463 E7.20196
G1 X91.800 Y120.723 E7.23076
G1 X92.024 Y120.395 E7.24589
G1 X92.476 Y119.530 E7.28299
G1 X92.752 Y119.239 E7.29822
G1 X93.031 Y118.874 E7.31567
G1 X92.696 Y118.455 E7.33607
G1 X91.882 Y117.237 E7.39173
G1 X91.621 Y116.765 E7.41223
G1 X90.267 Y117.094 E7.46517
G1 X89.381 Y117.157 E7.49892
G1 X88.765 Y117.069 E7.52257
G1 X88.347 Y116.857 E7.54038
G1 X86.312 Y116.567 E7.61852
G1 X87.538 Y114.933 E7.69616
G1 X87.652 Y114.559 E7.71105
G1 X88.087 Y113.938 E7.73985
G1 X88.420 Y113.720 E7.75498
G1 X89.169 Y113.094 E7.79207
G1 X89.533 Y112.932 E7.80724
G1 X89.932 Y112.699 E7.82480
G1 X89.779 Y112.163 E7.84598
G1 X89.493 Y110.727 E7.90164
G1 X89.435 Y110.213 E7.92131
G1 X88.060 Y109.998 E7.97421
G1 X87.218 Y109.717 E8.00795
G1 X86.682 Y109.400 E8.03160
G1 X86.377 Y109.045 E8.04941
G1 X84.607 Y107.998 E8.12755
G1 X86.366 Y106.958 E8.20519
G1 X86.614 Y106.655 E8.22008
G1 X87.253 Y106.248 E8.24888
G1 X87.645 Y106.174 E8.26401
G1 X88.576 Y105.882 E8.30110
G1 X88.976 Y105.872 E8.31631
G1 X89.432 Y105.810 E8.33380
G1 X89.493 Y105.269 E8.35451
G1 X89.779 Y103.832 E8.41018
G1 X89.925 Y103.323 E8.43034
G1 X88.736 Y102.597 E8.48326
G1 X88.066 Y102.016 E8.51701
G1 X87.692 Y101.518 E8.54066
G1 X87.546 Y101.073 E8.55847
G1 X86.312 Y99.429 E8.63661
G1 X88.334 Y99.141 E8.71425
G1 X88.680 Y98.956 E8.72913
G1 X89.426 Y98.824 E8.75794
G1 X89.816 Y98.906 E8.77307
G1 X90.788 Y98.993 E8.81016
G1 X91.160 Y99.136 E8.82531
G1 X91.606 Y99.253 E8.84285
G1 X91.863 Y98.788 E8.86301
G1 X92.696 Y97.541 E8.92002
G1 X93.013 Y97.143 E8.93936
G1 X92.193 Y96.019 E8.99224
G1 X91.796 Y95.225 E9.02598
G1 X91.642 Y94.622 E9.04964
G1 X91.677 Y94.155 E9.06745
G1 X91.181 Y92.222 E9.14330
M204 S1000
G1 E8.14330 F3000.00000
G92 E0
G1 Z0.210 F6000.000
G1 X91.801 Y92.799 F6000.000
G1 Z0.200 F6000.000
G1 E1.00000 F3000.00000
M204 S900
G1 F1200
G1 X93.109 Y93.134 E1.05133
G1 X93.507 Y93.096 E1.06652
G1 X94.089 Y93.225 E1.08920
G1 X94.367 Y93.415 E1.10200
G1 X95.200 Y93.849 E1.13769
G1 X95.461 Y94.098 E1.15142
G1 X96.130 Y94.609 E1.18339
G1 X96.827 Y94.053 E1.21727
G1 X98.014 Y93.261 E1.27148
G1 X98.758 Y92.849 E1.30384
G1 X98.357 Y91.194 E1.36855
G1 X98.301 Y90.395 E1.39898
G1 X98.371 Y89.902 E1.41792
G1 X98.583 Y89.484 E1.43573
G1 X98.774 Y88.139 E1.48736
G1 X99.854 Y88.950 E1.53870
G1 X100.237 Y89.066 E1.55388
G1 X100.726 Y89.408 E1.57656
G1 X100.910 Y89.690 E1.58937
G1 X101.512 Y90.411 E1.62505
G1 X101.658 Y90.740 E1.63875
G1 X102.084 Y91.467 E1.67076
G1 X102.925 Y91.225 E1.70405
G1 X104.324 Y90.946 E1.75826
G1 X105.183 Y90.849 E1.79111
G1 X105.446 Y89.166 E1.85584
G1 X105.699 Y88.406 E1.88627
G1 X105.953 Y87.978 E1.90521
G1 X106.308 Y87.672 E1.92302
G1 X107.000 Y86.503 E1.97465
G1 X107.688 Y87.665 E2.02599
G1 X107.996 Y87.919 E2.04117
G1 X108.317 Y88.422 E2.06385
G1 X108.379 Y88.753 E2.07666
G1 X108.660 Y89.649 E2.11234
G1 X108.669 Y90.010 E2.12606
