; generated by Slic3r 1.3.0 on 2018-12-06 at 14:24:08

; external perimeters extrusion width = 0.40mm (1.43mm^3/s)
; perimeters extrusion width = 0.40mm (2.86mm^3/s)
; infill extrusion width = 0.40mm (2.50mm^3/s)
; solid infill extrusion width = 0.40mm (2.14mm^3/s)
; top infill extrusion width = 0.40mm (1.79mm^3/s)

M107
M190 S60 ; set bed temperature and wait for it to be reached
M104 S200 ; set temperature
G28
;G29
G1 X0 F2000
G1 Y0 F2000
G92 E0
G1 E20 F400
G92 E0
; Filament gcode

M109 S200 ; set temperature and wait for it to be reached
G21 ; set units to millimeters
G90 ; use absolute coordinates
M82 ; use absolute distances for extrusion
G92 E0
G1 E-1.20000 F6000.00000
G92 E0
G1 Z0.010 F6000.000
G1 Z0.200 F6000.000
G1 Z0.210 F6000.000
G1 X92.996 Y98.639 F6000.000
G1 Z0.200 F6000.000
G1 E1.20000 F6000.00000
M201 X900 Y900
M204 P900 T900
G1 F1200
G1 X93.726 Y97.962 E1.22958
G1 X94.297 Y97.470 E1.25195
G1 X95.292 Y96.712 E1.28910
G1 X96.116 Y96.151 E1.31868
G1 X97.185 Y95.501 E1.35583
G1 X97.851 Y95.149 E1.37819
G1 X98.748 Y94.717 E1.40777
G1 X99.439 Y94.416 E1.43014
G1 X100.613 Y93.985 E1.46728
G1 X101.565 Y93.691 E1.49687
G1 X102.293 Y93.496 E1.51923
G1 X103.519 Y93.246 E1.55638
G1 X104.504 Y93.097 E1.58596
G1 X105.252 Y93.013 E1.60833
G1 X106.502 Y92.947 E1.64547
G1 X107.498 Y92.947 E1.67506
G1 X108.748 Y93.013 E1.71220
G1 X109.496 Y93.097 E1.73457
G1 X110.481 Y93.246 E1.76415
G1 X111.221 Y93.386 E1.78651
G1 X112.435 Y93.691 E1.82366
G1 X113.387 Y93.985 E1.85325
G1 X114.098 Y94.234 E1.87561
G1 X115.252 Y94.717 E1.91276
G1 X116.149 Y95.149 E1.94234
G1 X116.815 Y95.501 E1.96470
G1 X117.884 Y96.151 E2.00185
G1 X118.708 Y96.712 E2.03144
G1 X119.703 Y97.470 E2.06858
G1 X120.274 Y97.962 E2.09095
G1 X121.004 Y98.639 E2.12053
G1 X121.537 Y99.172 E2.14289
G1 X122.367 Y100.108 E2.18004
G1 X122.988 Y100.887 E2.20962
G1 X123.436 Y101.493 E2.23199
G1 X124.117 Y102.542 E2.26913
G1 X124.615 Y103.405 E2.29872
G1 X124.967 Y104.071 E2.32108
G1 X125.484 Y105.210 E2.35823
G1 X125.848 Y106.138 E2.38782
G1 X126.244 Y107.325 E2.42496
G1 X126.439 Y108.052 E2.44732
G1 X126.661 Y109.024 E2.47691
G1 X126.801 Y109.764 E2.49927
G1 X126.959 Y111.005 E2.53642
G1 X127.034 Y111.998 E2.56600
G1 X127.064 Y112.623 E2.58459
G1 X127.064 Y113.377 E2.60695
G1 X126.959 Y114.995 E2.65511
G1 X126.875 Y115.744 E2.67747
G1 X126.661 Y116.976 E2.71462
G1 X126.439 Y117.948 E2.74421
G1 X126.244 Y118.675 E2.76657
G1 X125.848 Y119.862 E2.80372
G1 X125.484 Y120.790 E2.83330
G1 X124.967 Y121.929 E2.87045
G1 X124.615 Y122.595 E2.89281
G1 X124.117 Y123.458 E2.92240
G1 X123.436 Y124.507 E2.95954
G1 X122.988 Y125.113 E2.98191
G1 X122.367 Y125.892 E3.01149
G1 X121.876 Y126.463 E3.03385
G1 X121.004 Y127.361 E3.07100
G1 X120.274 Y128.038 E3.10058
G1 X119.703 Y128.530 E3.12295
G1 X118.708 Y129.288 E3.16009
G1 X117.884 Y129.849 E3.18968
G1 X116.815 Y130.499 E3.22683
G1 X116.149 Y130.851 E3.24919
G1 X115.252 Y131.283 E3.27877
G1 X114.561 Y131.584 E3.30114
G1 X113.387 Y132.015 E3.33828
G1 X112.435 Y132.309 E3.36787
G1 X111.221 Y132.614 E3.40501
G1 X110.481 Y132.754 E3.42738
G1 X109.496 Y132.903 E3.45696
G1 X108.748 Y132.987 E3.47933
G1 X107.498 Y133.053 E3.51647
G1 X106.502 Y133.053 E3.54606
G1 X105.749 Y133.024 E3.56842
G1 X104.504 Y132.903 E3.60557
G1 X103.519 Y132.754 E3.63515
G1 X102.779 Y132.614 E3.65752
G1 X101.565 Y132.309 E3.69466
G1 X100.613 Y132.015 E3.72425
G1 X99.902 Y131.766 E3.74661
G1 X98.748 Y131.283 E3.78376
G1 X97.851 Y130.851 E3.81334
G1 X97.185 Y130.499 E3.83570
G1 X96.116 Y129.849 E3.87285
G1 X95.292 Y129.288 E3.90243
G1 X94.686 Y128.840 E3.92480
G1 X93.726 Y128.038 E3.96195
G1 X92.996 Y127.361 E3.99153
G1 X92.463 Y126.828 E4.01389
G1 X91.633 Y125.892 E4.05104
G1 X91.012 Y125.113 E4.08062
G1 X90.564 Y124.507 E4.10299
G1 X89.883 Y123.458 E4.14013
G1 X89.385 Y122.595 E4.16972
G1 X89.033 Y121.929 E4.19208
G1 X88.516 Y120.790 E4.22923
G1 X88.152 Y119.862 E4.25881
G1 X87.756 Y118.675 E4.29596
G1 X87.561 Y117.948 E4.31832
G1 X87.339 Y116.976 E4.34791
G1 X87.199 Y116.236 E4.37027
G1 X87.041 Y114.995 E4.40742
G1 X86.966 Y114.002 E4.43700
G1 X86.938 Y112.751 E4.47415
G1 X86.966 Y111.998 E4.49651
G1 X87.041 Y111.005 E4.52610
G1 X87.125 Y110.256 E4.54846
G1 X87.339 Y109.024 E4.58561
G1 X87.561 Y108.052 E4.61519
G1 X87.756 Y107.325 E4.63755
G1 X88.152 Y106.138 E4.67470
G1 X88.516 Y105.210 E4.70429
G1 X88.817 Y104.520 E4.72665
G1 X89.385 Y103.405 E4.76380
G1 X89.883 Y102.542 E4.79338
G1 X90.284 Y101.905 E4.81574
G1 X91.012 Y100.887 E4.85289
G1 X91.633 Y100.108 E4.88248
G1 X92.124 Y99.537 E4.90484
G1 X92.953 Y98.682 E4.94020
M201 X1000 Y1000
M204 P1000 T1000
G1 X93.238 Y98.901 F6000.000
M201 X900 Y900
M204 P900 T900
G1 F1200
G1 X93.969 Y98.223 E4.96979
G1 X94.909 Y97.439 E5.00614
G1 X95.494 Y97.007 E5.02771
G1 X96.317 Y96.446 E5.05730
G1 X97.363 Y95.811 E5.09365
G1 X98.006 Y95.471 E5.11522
G1 X98.903 Y95.039 E5.14481
G1 X99.569 Y94.748 E5.16638
G1 X100.719 Y94.326 E5.20273
G1 X101.671 Y94.033 E5.23231
G1 X102.372 Y93.845 E5.25388
G1 X103.572 Y93.599 E5.29024
G1 X104.557 Y93.450 E5.31982
G1 X105.279 Y93.369 E5.34139
G1 X106.502 Y93.304 E5.37775
G1 X107.498 Y93.304 E5.40733
G1 X108.721 Y93.369 E5.44369
G1 X109.443 Y93.450 E5.46526
G1 X110.428 Y93.599 E5.49484
G1 X111.142 Y93.734 E5.51641
G1 X112.329 Y94.033 E5.55277
G1 X113.281 Y94.326 E5.58235
G1 X114.431 Y94.748 E5.61870
G1 X115.097 Y95.039 E5.64027
G1 X115.994 Y95.471 E5.66986
G1 X116.637 Y95.811 E5.69143
G1 X117.683 Y96.446 E5.72778
G1 X118.507 Y97.007 E5.75737
G1 X119.091 Y97.439 E5.77894
G1 X120.031 Y98.223 E5.81529
G1 X120.762 Y98.901 E5.84488
G1 X121.275 Y99.415 E5.86645
G1 X122.088 Y100.331 E5.90280
G1 X122.709 Y101.110 E5.93239
G1 X123.141 Y101.694 E5.95396
G1 X123.808 Y102.721 E5.99031
G1 X124.306 Y103.584 E6.01989
G1 X124.645 Y104.226 E6.04146
G1 X125.152 Y105.341 E6.07782
G1 X125.516 Y106.268 E6.10741
G1 X125.903 Y107.430 E6.14376
G1 X126.091 Y108.132 E6.16533
G1 X126.313 Y109.103 E6.19491
G1 X126.448 Y109.817 E6.21648
G1 X126.603 Y111.031 E6.25284
G1 X126.678 Y112.025 E6.28242
G1 X126.707 Y112.637 E6.30061
G1 X126.707 Y113.363 E6.32218
G1 X126.603 Y114.969 E6.36995
G1 X126.522 Y115.691 E6.39151
G1 X126.313 Y116.897 E6.42787
G1 X126.091 Y117.868 E6.45745
G1 X125.903 Y118.570 E6.47903
G1 X125.516 Y119.732 E6.51538
G1 X125.152 Y120.659 E6.54496
G1 X124.862 Y121.325 E6.56653
G1 X124.306 Y122.416 E6.60289
G1 X123.808 Y123.279 E6.63247
G1 X123.141 Y124.306 E6.66883
G1 X122.709 Y124.890 E6.69040
G1 X122.088 Y125.669 E6.71998
G1 X121.614 Y126.220 E6.74155
G1 X120.762 Y127.099 E6.77790
G1 X120.031 Y127.777 E6.80749
G1 X119.481 Y128.251 E6.82906
G1 X118.507 Y128.993 E6.86541
G1 X117.683 Y129.554 E6.89500
G1 X116.637 Y130.189 E6.93135
G1 X115.994 Y130.529 E6.95292
G1 X115.097 Y130.961 E6.98251
G1 X114.431 Y131.252 E7.00408
G1 X113.281 Y131.674 E7.04043
G1 X112.329 Y131.967 E7.07002
G1 X111.142 Y132.266 E7.10637
G1 X110.428 Y132.401 E7.12794
G1 X109.443 Y132.550 E7.15753
G1 X108.721 Y132.631 E7.17909
G1 X107.498 Y132.696 E7.21545
G1 X106.502 Y132.696 E7.24503
G1 X105.776 Y132.668 E7.26660
G1 X104.557 Y132.550 E7.30296
G1 X103.572 Y132.401 E7.33254
G1 X102.858 Y132.266 E7.35411
G1 X101.671 Y131.967 E7.39047
G1 X100.719 Y131.674 E7.42005
G1 X99.569 Y131.252 E7.45641
G1 X98.903 Y130.961 E7.47798
G1 X98.006 Y130.529 E7.50756
G1 X97.363 Y130.189 E7.52913
G1 X96.317 Y129.554 E7.56548
G1 X95.494 Y128.993 E7.59507
G1 X94.909 Y128.561 E7.61664
G1 X93.969 Y127.777 E7.65299
G1 X93.238 Y127.099 E7.68258
G1 X92.725 Y126.585 E7.70415
G1 X91.912 Y125.669 E7.74050
G1 X91.291 Y124.890 E7.77009
G1 X90.859 Y124.306 E7.79166
G1 X90.192 Y123.279 E7.82801
G1 X89.694 Y122.416 E7.85760
G1 X89.355 Y121.774 E7.87917
G1 X88.848 Y120.659 E7.91552
G1 X88.484 Y119.732 E7.94510
G1 X88.097 Y118.570 E7.98146
G1 X87.909 Y117.868 E8.00303
G1 X87.687 Y116.897 E8.03262
G1 X87.552 Y116.183 E8.05418
G1 X87.397 Y114.969 E8.09054
G1 X87.322 Y113.975 E8.12012
G1 X87.295 Y112.751 E8.15648
G1 X87.322 Y112.025 E8.17805
G1 X87.397 Y111.031 E8.20763
G1 X87.478 Y110.309 E8.22920
G1 X87.687 Y109.103 E8.26556
G1 X87.909 Y108.132 E8.29514
G1 X88.097 Y107.430 E8.31671
G1 X88.484 Y106.268 E8.35307
G1 X88.848 Y105.341 E8.38265
G1 X89.138 Y104.675 E8.40422
G1 X89.694 Y103.584 E8.44057
G1 X90.192 Y102.721 E8.47016
G1 X90.579 Y102.106 E8.49173
G1 X91.291 Y101.110 E8.52808
G1 X91.912 Y100.331 E8.55767
G1 X92.386 Y99.780 E8.57924
G1 X93.196 Y98.943 E8.61381
M201 X1000 Y1000
M204 P1000 T1000
G1 X93.481 Y99.163 F6000.000
M201 X900 Y900
M204 P900 T900
G1 F1200
G1 X94.212 Y98.485 E8.64339
G1 X95.132 Y97.718 E8.67896
G1 X95.695 Y97.302 E8.69973
G1 X96.518 Y96.741 E8.72932
G1 X97.542 Y96.120 E8.76488
G1 X98.160 Y95.793 E8.78566
G1 X99.058 Y95.361 E8.81524
G1 X99.700 Y95.081 E8.83602
G1 X100.824 Y94.668 E8.87158
G1 X101.776 Y94.374 E8.90116
G1 X102.452 Y94.193 E8.92194
G1 X103.625 Y93.952 E8.95750
G1 X104.610 Y93.803 E8.98709
G1 X105.306 Y93.725 E9.00787
G1 X106.502 Y93.662 E9.04343
G1 X107.498 Y93.662 E9.07301
G1 X108.694 Y93.725 E9.10857
G1 X109.390 Y93.803 E9.12935
G1 X110.375 Y93.952 E9.15894
G1 X111.062 Y94.082 E9.17971
G1 X112.224 Y94.374 E9.21527
G1 X113.176 Y94.668 E9.24486
G1 X113.837 Y94.899 E9.26563
G1 X114.942 Y95.360 E9.30120
G1 X115.839 Y95.793 E9.33078
G1 X116.458 Y96.120 E9.35156
G1 X117.482 Y96.741 E9.38712
G1 X118.305 Y97.302 E9.41670
G1 X118.868 Y97.718 E9.43748
G1 X119.788 Y98.485 E9.47304
G1 X120.519 Y99.163 E9.50263
G1 X121.013 Y99.658 E9.52340
G1 X121.809 Y100.553 E9.55897
G1 X122.430 Y101.332 E9.58855
G1 X122.846 Y101.895 E9.60933
G1 X123.498 Y102.899 E9.64489
G1 X123.997 Y103.762 E9.67447
G1 X124.324 Y104.381 E9.69525
G1 X124.820 Y105.471 E9.73081
G1 X125.184 Y106.399 E9.76040
G1 X125.562 Y107.535 E9.79596
G1 X125.743 Y108.211 E9.81674
G1 X125.964 Y109.182 E9.84632
G1 X126.095 Y109.870 E9.86710
G1 X126.247 Y111.058 E9.90266
G1 X126.322 Y112.052 E9.93224
G1 X126.351 Y112.650 E9.95004
G1 X126.351 Y113.350 E9.97081
G1 X126.247 Y114.942 E10.01818
G1 X126.169 Y115.637 E10.03896
G1 X125.964 Y116.817 E10.07452
G1 X125.743 Y117.789 E10.10411
G1 X125.562 Y118.465 E10.12488
G1 X125.184 Y119.601 E10.16044
G1 X124.820 Y120.529 E10.19003
G1 X124.324 Y121.619 E10.22559
G1 X123.997 Y122.238 E10.24637
G1 X123.498 Y123.101 E10.27595
G1 X122.846 Y124.105 E10.31151
G1 X122.430 Y124.668 E10.33229
G1 X121.809 Y125.447 E10.36188
G1 X121.352 Y125.977 E10.38265
G1 X120.519 Y126.837 E10.41821
G1 X119.788 Y127.515 E10.44780
G1 X119.258 Y127.971 E10.46857
G1 X118.305 Y128.698 E10.50414
G1 X117.482 Y129.259 E10.53372
G1 X116.458 Y129.880 E10.56928
G1 X115.839 Y130.207 E10.59006
G1 X114.942 Y130.639 E10.61965
G1 X114.300 Y130.919 E10.64042
G1 X113.176 Y131.332 E10.67598
G1 X112.224 Y131.626 E10.70557
G1 X111.062 Y131.918 E10.74113
G1 X110.375 Y132.048 E10.76191
G1 X109.390 Y132.197 E10.79149
G1 X108.197 Y132.312 E10.82705
G1 X107.498 Y132.338 E10.84783
G1 X106.502 Y132.338 E10.87742
G1 X105.803 Y132.312 E10.89819
G1 X104.610 Y132.197 E10.93375
G1 X103.625 Y132.048 E10.96334
G1 X102.938 Y131.918 E10.98412
G1 X101.776 Y131.626 E11.01968
G1 X100.824 Y131.332 E11.04926
G1 X100.163 Y131.101 E11.07004
G1 X99.058 Y130.639 E11.10560
G1 X98.160 Y130.207 E11.13519
G1 X97.542 Y129.880 E11.15596
G1 X96.518 Y129.259 E11.19152
G1 X95.695 Y128.698 E11.22111
G1 X95.132 Y128.282 E11.24189
G1 X94.212 Y127.515 E11.27745
G1 X93.481 Y126.837 E11.30703
G1 X92.987 Y126.342 E11.32781
G1 X92.191 Y125.447 E11.36337
G1 X91.570 Y124.668 E11.39295
G1 X91.154 Y124.105 E11.41373
G1 X90.502 Y123.101 E11.44929
G1 X90.003 Y122.238 E11.47888
G1 X89.676 Y121.619 E11.49965
G1 X89.180 Y120.529 E11.53522
G1 X88.816 Y119.601 E11.56480
G1 X88.438 Y118.465 E11.60036
G1 X88.257 Y117.789 E11.62114
G1 X88.036 Y116.817 E11.65073
G1 X87.905 Y116.130 E11.67150
G1 X87.753 Y114.942 E11.70706
G1 X87.678 Y113.948 E11.73665
G1 X87.652 Y112.751 E11.77221
G1 X87.678 Y112.052 E11.79299
G1 X87.753 Y111.058 E11.82257
G1 X87.831 Y110.363 E11.84335
G1 X88.036 Y109.183 E11.87891
G1 X88.257 Y108.211 E11.90849
G1 X88.438 Y107.535 E11.92927
G1 X88.816 Y106.399 E11.96483
G1 X89.180 Y105.471 E11.99442
G1 X89.460 Y104.830 E12.01519
G1 X90.003 Y103.762 E12.05076
G1 X90.502 Y102.899 E12.08034
G1 X90.874 Y102.307 E12.10112
G1 X91.570 Y101.332 E12.13668
G1 X92.191 Y100.553 E12.16626
G1 X92.648 Y100.023 E12.18704
G1 X93.439 Y99.205 E12.22082
M201 X1000 Y1000
M204 P1000 T1000
G1 E11.02082 F6000.00000
G92 E0
G1 Z0.210 F6000.000
G1 X109.981 Y116.914 F6000.000
G1 Z0.200 F6000.000
G1 E1.20000 F6000.00000
M201 X900 Y900
M204 P900 T900
G1 F450
G1 X109.011 Y117.490 E1.23352
G1 X107.934 Y117.830 E1.26703
G1 X106.828 Y117.914 E1.29996
G1 X106.418 Y117.867 E1.31223
G1 X105.707 Y117.742 E1.33367
G1 X105.324 Y117.608 E1.34569
G1 X104.661 Y117.322 E1.36713
G1 X104.318 Y117.107 E1.37916
G1 X103.739 Y116.676 E1.40059
G1 X103.453 Y116.389 E1.41262
G1 X102.989 Y115.836 E1.43405
G1 X102.773 Y115.493 E1.44608
G1 X102.449 Y114.848 E1.46751
G1 X102.316 Y114.466 E1.47954
G1 X102.149 Y113.763 E1.50097
G1 X102.104 Y113.361 E1.51299
G1 X102.104 Y112.639 E1.53443
G1 X102.149 Y112.237 E1.54645
G1 X102.316 Y111.534 E1.56789
G1 X102.449 Y111.152 E1.57991
G1 X102.773 Y110.507 E1.60135
G1 X102.989 Y110.164 E1.61337
G1 X103.453 Y109.611 E1.63481
G1 X103.739 Y109.324 E1.64683
G1 X104.318 Y108.893 E1.66827
G1 X104.661 Y108.678 E1.68029
G1 X105.324 Y108.392 E1.70173
G1 X105.707 Y108.258 E1.71376
G1 X106.418 Y108.133 E1.73519
G1 X106.828 Y108.086 E1.74746
G1 X107.934 Y108.170 E1.78039
G1 X109.011 Y108.510 E1.81391
G1 X109.981 Y109.086 E1.84742
G1 X110.793 Y109.867 E1.88085
G1 X111.411 Y110.822 E1.91464
G1 X111.791 Y111.879 E1.94797
G1 X111.920 Y113.000 E1.98149
G1 X111.791 Y114.121 E2.01501
G1 X111.411 Y115.178 E2.04833
G1 X110.793 Y116.133 E2.08213
G1 X110.024 Y116.872 E2.11377
M201 X1000 Y1000
M204 P1000 T1000
G1 X109.763 Y116.628 F6000.000
M201 X900 Y900
M204 P900 T900
G1 F450
G1 X108.864 Y117.162 E2.14484
G1 X107.866 Y117.477 E2.17590
G1 X106.835 Y117.555 E2.20661
G1 X106.469 Y117.514 E2.21755
G1 X105.797 Y117.395 E2.23779
G1 X105.454 Y117.275 E2.24859
G1 X104.828 Y117.005 E2.26883
G1 X104.520 Y116.812 E2.27962
G1 X103.973 Y116.405 E2.29986
G1 X103.716 Y116.148 E2.31065
G1 X103.278 Y115.625 E2.33090
G1 X103.085 Y115.318 E2.34169
G1 X102.779 Y114.708 E2.36193
G1 X102.659 Y114.365 E2.37272
G1 X102.502 Y113.702 E2.39296
G1 X102.461 Y113.341 E2.40375
G1 X102.461 Y112.659 E2.42400
G1 X102.502 Y112.298 E2.43479
G1 X102.659 Y111.635 E2.45503
G1 X102.779 Y111.292 E2.46582
G1 X103.085 Y110.682 E2.48606
G1 X103.278 Y110.375 E2.49685
G1 X103.716 Y109.852 E2.51710
G1 X103.973 Y109.595 E2.52789
G1 X104.520 Y109.188 E2.54813
G1 X104.828 Y108.995 E2.55892
G1 X105.454 Y108.725 E2.57917
G1 X105.797 Y108.605 E2.58996
G1 X106.469 Y108.486 E2.61020
G1 X106.835 Y108.445 E2.62114
G1 X107.866 Y108.523 E2.65185
G1 X108.864 Y108.838 E2.68291
G1 X109.763 Y109.372 E2.71398
G1 X110.516 Y110.096 E2.74499
G1 X111.088 Y110.979 E2.77623
G1 X111.441 Y111.960 E2.80718
G1 X111.561 Y113.000 E2.83825
G1 X111.441 Y114.040 E2.86932
G1 X111.088 Y115.021 E2.90027
G1 X110.516 Y115.904 E2.93151
G1 X109.807 Y116.586 E2.96074
M201 X1000 Y1000
M204 P1000 T1000
G1 X109.546 Y116.342 F6000.000
M201 X900 Y900
M204 P900 T900
G1 F450
G1 X108.717 Y116.834 E2.98936
G1 X107.798 Y117.124 E3.01797
G1 X106.841 Y117.196 E3.04646
G1 X106.520 Y117.160 E3.05607
G1 X105.888 Y117.049 E3.07512
G1 X105.584 Y116.942 E3.08467
G1 X104.995 Y116.688 E3.10373
G1 X104.722 Y116.517 E3.11328
G1 X104.208 Y116.134 E3.13233
G1 X103.980 Y115.906 E3.14189
G1 X103.568 Y115.415 E3.16094
G1 X103.396 Y115.142 E3.17050
G1 X103.108 Y114.569 E3.18955
G1 X103.002 Y114.265 E3.19911
G1 X102.854 Y113.641 E3.21816
G1 X102.818 Y113.321 E3.22771
G1 X102.818 Y112.679 E3.24676
G1 X102.854 Y112.359 E3.25632
G1 X103.002 Y111.735 E3.27537
G1 X103.108 Y111.431 E3.28493
G1 X103.396 Y110.858 E3.30398
G1 X103.568 Y110.585 E3.31354
G1 X103.980 Y110.094 E3.33259
G1 X104.208 Y109.866 E3.34214
G1 X104.722 Y109.483 E3.36119
G1 X104.995 Y109.312 E3.37075
G1 X105.584 Y109.058 E3.38980
G1 X105.888 Y108.951 E3.39936
G1 X106.520 Y108.840 E3.41841
